; generated by PrusaSlicer 2.7.4 on 2024-06-18 at 18:51:22 UTC


;
;

;
;
; 

; external perimeters extrusion width = 0.68mm
; perimeters extrusion width = 0.68mm
; infill extrusion width = 0.68mm
; solid infill extrusion width = 0.68mm
; top infill extrusion width = 0.60mm
; support material extrusion width = 0.60mm
; first layer extrusion width = 0.60mm

M73 P0 R70

; printing object MGN9H mitte.stl id:0 copy 0
; stop printing object MGN9H mitte.stl id:0 copy 0

;TYPE:Custom
M98 P"check-filament.g" F"GreenTec Carbon"
M98 P"revo/check-nozzle.g" S0.6

M140 S63
M116 ; wait for all temps to be reached

T0 ; select first tool
G10 P0 S240 ; set nozzle temperature
M703 ; configure it

G28 ; home all axes
M116 ; wait for all temps to be reached
M98 P"feed.g" ; feed filament into the nozzle
G21 ; set units to millimeters
G90 ; use absolute coordinates
M83 ; use relative distances for extrusion
; Filament gcode
M107
;LAYER_CHANGE
;Z:0.3
;HEIGHT:0.3
G10 ; retract
G1 Z.3 F90000
G1 X111.167 Y122.184
G11 ; unretract
;TYPE:Skirt/Brim
;WIDTH:0.6
G1 F1200
G1 X112.109 Y121.36 E.08361
G1 X113.606 Y120.35 E.12064
G1 X115.25 Y119.572 E.12151
G1 X117 Y119.055 E.1219
G1 X118.899 Y118.816 E.12786
G1 X170.626 Y118.807 E3.45564
G1 X172.399 Y118.944 E.1188
G1 X174.224 Y119.385 E.12543
G1 X175.907 Y120.087 E.12182
G1 X177.618 Y121.15 E.13457
G1 X179.087 Y122.438 E.13052
G1 X180.242 Y123.819 E.12027
G1 X181.288 Y125.374 E.1252
G1 X182.202 Y127.461 E.15221
G1 X182.386 Y128.994 E.10315
G1 X182.386 Y159.576 E2.04304
G1 X182.322 Y160.752 E.07868
G1 X182.149 Y161.887 E.0767
G1 X181.842 Y163.079 E.08223
G1 X181.462 Y164.12 E.07403
G1 X180.947 Y165.195 E.07963
G1 X180.339 Y166.195 E.07818
G1 X179.664 Y167.092 E.075
G1 X178.896 Y167.929 E.07589
G1 X177.958 Y168.76 E.08372
G1 X176.497 Y169.743 E.11764
G1 X174.934 Y170.476 E.11533
G1 X173.24 Y170.967 E.11783
G1 X171.497 Y171.183 E.11733
G1 X118.694 Y171.19 E3.52753
G1 X117.452 Y171.087 E.08326
G1 X116.303 Y170.863 E.0782
G1 X115.185 Y170.52 E.07812
G1 X114.011 Y170.014 E.0854
G1 X112.874 Y169.36 E.08763
G1 X111.941 Y168.679 E.07717
G1 X111.005 Y167.831 E.08438
G1 X110.155 Y166.868 E.08581
G1 X109.148 Y165.367 E.12075
G1 X108.384 Y163.733 E.1205
G1 X107.881 Y162.028 E.11876
G1 X107.636 Y160.242 E.12043
G1 X107.614 Y128.994 E2.08754
G1 X108.013 Y126.752 E.15213
G1 X108.712 Y125.374 E.10322
G1 X110.384 Y123.02 E.19289
G1 X111.105 Y122.25 E.07047
G10 ; retract
G1 X111.105 Y122.25 F90000
; printing object MGN9H mitte.stl id:0 copy 0
G1 X153.018 Y149.04
G11 ; unretract
;TYPE:Support material
G1 F1200
G1 X153.67 Y149.115 E.04384
G1 X154.189 Y149.288 E.03655
G1 X154.669 Y149.553 E.03663
G1 X155.089 Y149.901 E.03644
G1 X155.439 Y150.32 E.03647
G1 X155.708 Y150.8 E.03676
G1 X155.916 Y151.481 E.04757
G1 X155.962 Y152.028 E.03667
G1 X155.904 Y152.582 E.03721
G1 X155.748 Y153.106 E.03652
G1 X155.498 Y153.593 E.03657
G1 X155.165 Y154.023 E.03633
G1 X154.65 Y154.46 E.04512
G1 X154.12 Y154.743 E.04014
G1 X153.597 Y154.902 E.03652
G1 X153.053 Y154.962 E.03656
G1 X152.508 Y154.922 E.03651
G1 X151.98 Y154.782 E.03649
G1 X151.486 Y154.547 E.03655
G1 X151.044 Y154.225 E.03653
G1 X150.668 Y153.827 E.03658
G1 X150.296 Y153.209 E.04819
G1 X150.119 Y152.688 E.03676
G1 X150.041 Y152.146 E.03658
G1 X150.065 Y151.598 E.03664
G1 X150.189 Y151.067 E.03643
G1 X150.408 Y150.566 E.03653
G1 X150.837 Y149.977 E.04868
G1 X151.245 Y149.614 E.03648
G1 X151.717 Y149.33 E.0368
G1 X152.226 Y149.141 E.03627
G1 X152.938 Y149.039 E.04805
G1 X152.938 Y149.039 F90000
G1 X155.117 Y153.709
G1 F1200
G1 X155.117 Y150.71 E.20035
G1 X154.854 Y150.353 E.02962
G1 X154.522 Y150.043 E.03034
G1 X154.522 Y153.957 E.26148
G1 X153.927 Y154.3 E.04588
G1 X153.927 Y149.702 E.30717
G1 X153.332 Y149.544 E.04113
G1 X153.332 Y154.458 E.32828
G1 X152.737 Y154.466 E.03975
G1 X152.737 Y149.536 E.32935
G1 X152.142 Y149.675 E.04082
G1 X152.142 Y154.327 E.31078
G1 X151.546 Y154.009 E.04513
G1 X151.546 Y149.992 E.26836
G1 X150.951 Y150.605 E.05707
G1 X150.951 Y153.791 E.21284
G10 ; retract
G1 X150.951 Y153.791 F90000
G1 X136.962 Y149.039
G11 ; unretract
G1 F1200
G1 X137.655 Y149.112 E.04655
G1 X138.173 Y149.281 E.0364
G1 X138.654 Y149.543 E.03659
G1 X139.077 Y149.889 E.03651
G1 X139.43 Y150.307 E.03655
G1 X139.77 Y150.951 E.04865
G1 X139.917 Y151.484 E.03694
G1 X139.962 Y152.023 E.03613
G1 X139.908 Y152.566 E.03645
G1 X139.754 Y153.092 E.03661
G1 X139.507 Y153.579 E.03648
G1 X139.136 Y154.052 E.04016
G1 X138.618 Y154.482 E.04497
G1 X138.137 Y154.736 E.03634
G1 X137.612 Y154.899 E.03672
G1 X137.07 Y154.962 E.03645
G1 X136.525 Y154.925 E.03649
G1 X135.992 Y154.786 E.0368
G1 X135.501 Y154.556 E.03622
G1 X135.051 Y154.232 E.03704
G1 X134.585 Y153.716 E.04645
G1 X134.305 Y153.231 E.03741
G1 X134.122 Y152.702 E.03739
G1 X134.043 Y152.165 E.03626
G1 X134.063 Y151.615 E.03677
G1 X134.184 Y151.08 E.03664
G1 X134.409 Y150.565 E.03754
G1 X134.826 Y149.989 E.04751
G1 X135.233 Y149.623 E.03657
G1 X135.698 Y149.34 E.03637
G1 X136.208 Y149.146 E.03645
G1 X136.881 Y149.042 E.04549
G1 X136.881 Y149.042 F90000
G1 X139.049 Y153.79
G1 F1200
G1 X139.049 Y150.604 E.21284
G1 X138.454 Y149.993 E.05697
G1 X138.454 Y154.009 E.26829
G1 X137.858 Y154.326 E.0451
G1 X137.858 Y149.674 E.31078
G1 X137.263 Y149.535 E.04082
G1 X137.263 Y154.466 E.32942
G1 X136.668 Y154.457 E.03975
G1 X136.668 Y149.544 E.32822
G1 X136.073 Y149.701 E.04111
G1 X136.073 Y154.3 E.30724
G1 X135.478 Y153.958 E.04585
G1 X135.478 Y150.044 E.26148
G1 X135.18 Y150.316 E.02695
G1 X134.883 Y150.711 E.03302
G1 X134.883 Y153.709 E.20028
G10 ; retract
G1 X134.883 Y153.709 F90000
G1 X137.252 Y134.049
G11 ; unretract
G1 F1200
G1 X137.792 Y134.146 E.03665
G1 X138.433 Y134.409 E.04629
G1 X138.911 Y134.737 E.03873
G1 X139.294 Y135.127 E.03652
G1 X139.6 Y135.58 E.03652
G1 X139.815 Y136.08 E.03636
G1 X139.937 Y136.616 E.03672
G1 X139.944 Y137.327 E.0475
G1 X139.829 Y137.878 E.0376
G1 X139.62 Y138.383 E.03651
G1 X139.321 Y138.841 E.03654
G1 X138.943 Y139.236 E.03652
G1 X138.5 Y139.555 E.03647
G1 X137.874 Y139.83 E.04568
G1 X137.295 Y139.948 E.03948
G1 X136.75 Y139.952 E.03641
G1 X136.206 Y139.854 E.03693
G1 X135.694 Y139.66 E.03658
G1 X135.089 Y139.264 E.04831
G1 X134.708 Y138.878 E.03623
G1 X134.4 Y138.421 E.03682
G1 X134.184 Y137.921 E.03639
G1 X134.062 Y137.383 E.03685
G1 X134.043 Y136.84 E.0363
G1 X134.122 Y136.299 E.03653
G1 X134.302 Y135.778 E.03682
G1 X134.641 Y135.211 E.04413
G1 X135.058 Y134.764 E.04084
G1 X135.502 Y134.445 E.03652
G1 X135.997 Y134.213 E.03652
G1 X136.525 Y134.077 E.03642
G1 X137.172 Y134.045 E.04328
G1 X137.172 Y134.045 F90000
G1 X139.049 Y138.79
G1 F1200
G1 X139.049 Y135.605 E.21278
G1 X138.454 Y134.993 E.05702
G1 X138.454 Y139.008 E.26822
G1 X137.858 Y139.327 E.04516
G1 X137.858 Y134.675 E.31078
G1 X137.263 Y134.536 E.04082
G1 X137.263 Y139.466 E.32935
G1 X136.668 Y139.457 E.03975
G1 X136.668 Y134.544 E.32822
G1 X136.073 Y134.702 E.04113
G1 X136.073 Y139.3 E.30717
G1 X135.478 Y138.957 E.04588
G1 X135.478 Y135.044 E.26141
G1 X135.155 Y135.343 E.0294
G1 X134.883 Y135.71 E.03052
G1 X134.883 Y138.709 E.20035
G10 ; retract
G1 X134.883 Y138.709 F90000
G1 X153.234 Y134.048
G11 ; unretract
G1 F1200
G1 X153.773 Y134.141 E.03654
G1 X154.339 Y134.36 E.04054
G1 X154.897 Y134.726 E.04458
G1 X155.283 Y135.114 E.03656
G1 X155.589 Y135.562 E.03624
G1 X155.811 Y136.066 E.03679
G1 X155.936 Y136.603 E.03683
G1 X155.958 Y137.153 E.03677
G1 X155.835 Y137.859 E.04788
G1 X155.628 Y138.368 E.03671
G1 X155.333 Y138.826 E.03639
G1 X154.957 Y139.224 E.03658
G1 X154.515 Y139.546 E.03653
G1 X153.872 Y139.831 E.04699
G1 X153.312 Y139.946 E.03819
G1 X152.766 Y139.954 E.03648
G1 X152.227 Y139.86 E.03655
G1 X151.715 Y139.67 E.03648
G1 X151.246 Y139.388 E.03656
G1 X150.837 Y139.025 E.03653
G1 X150.502 Y138.593 E.03652
G1 X150.19 Y137.938 E.04847
G1 X150.066 Y137.403 E.03669
G1 X150.041 Y136.858 E.03645
G1 X150.118 Y136.315 E.03664
G1 X150.324 Y135.734 E.04118
G1 X150.668 Y135.174 E.04391
G1 X151.048 Y134.773 E.03691
G1 X151.485 Y134.455 E.03611
G1 X151.979 Y134.22 E.03655
G1 X152.507 Y134.08 E.03649
G1 X153.154 Y134.044 E.04329
G1 X153.154 Y134.044 F90000
G1 X155.117 Y138.709
G1 F1200
G1 X155.117 Y135.712 E.20022
G1 X154.808 Y135.304 E.03419
G1 X154.522 Y135.045 E.02578
G1 X154.522 Y138.958 E.26141
G1 X153.927 Y139.299 E.04581
G1 X153.927 Y134.701 E.30717
G1 X153.332 Y134.544 E.04111
G1 X153.332 Y139.457 E.32822
G1 X152.737 Y139.465 E.03975
G1 X152.737 Y134.535 E.32935
G1 X152.142 Y134.674 E.04082
G1 X152.142 Y139.326 E.31078
G1 X151.546 Y139.009 E.0451
G1 X151.546 Y134.993 E.26829
G1 X150.951 Y135.604 E.05697
G1 X150.951 Y138.79 E.21284
G10 ; retract
G1 X150.951 Y138.79 F90000
G1 X158.193 Y125.642
G11 ; unretract
;TYPE:External perimeter
;WIDTH:0.6
G1 F1200
G1 X158.44 Y126.155 E.03804
G1 X158.745 Y126.553 E.0335
G1 X159.084 Y126.87 E.03101
G1 X159.48 Y127.141 E.03206
G1 X159.811 Y127.3 E.02453
G1 X160.414 Y127.493 E.0423
G1 X160.782 Y127.535 E.02474
G1 X161.203 Y127.535 E.02813
G1 X161.86 Y127.426 E.04449
G1 X162.314 Y127.252 E.03248
G1 X162.735 Y127.007 E.03254
G1 X162.99 Y126.801 E.0219
G1 X163.435 Y126.336 E.043
G1 X163.696 Y125.925 E.03253
G1 X163.817 Y125.642 E.02056
G1 X170.723 Y125.642 E.46136
G1 X171.381 Y125.704 E.04415
G1 X172.128 Y125.892 E.05146
G1 X172.697 Y126.125 E.04108
G1 X173.373 Y126.518 E.05224
G1 X174.013 Y127.046 E.05543
G1 X174.29 Y127.327 E.02636
G1 X174.754 Y127.897 E.0491
G1 X175.55 Y129.09 E.09581
G1 X175.55 Y129.566 E.0318
G1 X175.55 Y159.61 E2.0071
G1 X175.466 Y160.441 E.0558
G1 X175.275 Y161.167 E.05015
G1 X174.968 Y161.878 E.05174
G1 X174.528 Y162.569 E.05473
G1 X174.188 Y162.968 E.03502
G1 X173.815 Y163.318 E.03417
G1 X173.35 Y163.654 E.03833
G1 X172.616 Y164.039 E.05537
G1 X172.109 Y164.209 E.03572
G1 X171.566 Y164.321 E.03704
G1 X171.031 Y164.346 E.03578
G1 X170.99 Y163.931 E.02786
G1 X170.829 Y163.363 E.03944
G1 X170.566 Y162.857 E.0381
G1 X170.329 Y162.567 E.02502
G1 X169.986 Y162.187 E.0342
G1 X169.458 Y161.822 E.04288
G1 X169 Y161.621 E.03341
G1 X168.215 Y161.459 E.05355
G1 X167.567 Y161.482 E.04332
G1 X166.939 Y161.642 E.04329
G1 X166.407 Y161.901 E.03953
G1 X165.741 Y162.453 E.05779
G1 X165.359 Y162.977 E.04332
G1 X165.097 Y163.57 E.04331
G1 X164.972 Y164.148 E.03951
G1 X164.962 Y164.358 E.01405
G1 X125.024 Y164.358 E2.66807
G1 X124.974 Y163.828 E.03556
G1 X124.764 Y163.214 E.04335
G1 X124.355 Y162.578 E.05052
G1 X123.92 Y162.141 E.04119
G1 X123.452 Y161.819 E.03795
G1 X122.853 Y161.573 E.04326
G1 X122.196 Y161.459 E.04455
G1 X121.567 Y161.482 E.04205
G1 X120.965 Y161.631 E.04143
G1 X120.501 Y161.855 E.03442
G1 X120.161 Y162.095 E.0278
G1 X119.687 Y162.525 E.04275
G1 X119.359 Y162.977 E.03731
G1 X119.115 Y163.516 E.03953
G1 X119.024 Y163.905 E.02669
G1 X118.962 Y164.345 E.02968
G1 X118.437 Y164.321 E.03511
G1 X117.777 Y164.18 E.04509
G1 X117.04 Y163.885 E.05303
G1 X116.486 Y163.538 E.04367
G1 X116.105 Y163.244 E.03215
G1 X115.702 Y162.84 E.03812
G1 X115.333 Y162.369 E.03997
G1 X115.032 Y161.881 E.0383
G1 X114.792 Y161.35 E.03893
G1 X114.57 Y160.564 E.05456
G1 X114.494 Y160.113 E.03055
G1 X114.45 Y159.568 E.03653
G1 X114.45 Y129.091 E2.03603
G1 X115.372 Y127.721 E.11032
G1 X116.013 Y127.009 E.064
G1 X116.498 Y126.609 E.042
G1 X116.928 Y126.325 E.03443
G1 X117.442 Y126.061 E.0386
G1 X118.021 Y125.844 E.04131
G1 X118.618 Y125.704 E.04096
G1 X119.227 Y125.644 E.04088
G1 X126.181 Y125.642 E.46456
G1 X126.312 Y125.937 E.02156
G1 X126.737 Y126.541 E.04934
G1 X127.1 Y126.885 E.03341
G1 X127.504 Y127.157 E.03254
G1 X127.945 Y127.361 E.03246
G1 X128.414 Y127.493 E.03255
G1 X128.897 Y127.548 E.03248
G1 X129.384 Y127.525 E.03257
G1 X129.86 Y127.426 E.03248
G1 X130.314 Y127.252 E.03248
G1 X130.574 Y127.103 E.02002
G1 X131.112 Y126.7 E.04491
G1 X131.435 Y126.336 E.03251
G1 X131.696 Y125.925 E.03253
G1 X131.817 Y125.642 E.02056
G1 X158.103 Y125.642 E1.75605
G1 X158.434 Y126.142 F90000
G1 X157.857 Y126.178
;TYPE:Perimeter
G1 F1200
G1 X158.05 Y126.534 E.02705
G1 X158.411 Y126.978 E.03823
G1 X158.838 Y127.358 E.03819
G1 X159.32 Y127.666 E.03821
G1 X159.845 Y127.892 E.03818
G1 X160.399 Y128.033 E.03819
G1 X160.969 Y128.084 E.03823
G1 X161.539 Y128.043 E.03818
G1 X162.109 Y127.907 E.03915
G1 X162.625 Y127.694 E.03729
G1 X163.066 Y127.43 E.03434
G1 X163.454 Y127.112 E.03351
G1 X163.838 Y126.688 E.03822
G1 X164.166 Y126.178 E.04051
G1 X170.698 Y126.178 E.43637
G1 X171.29 Y126.234 E.03973
G1 X171.96 Y126.402 E.04615
G1 X172.46 Y126.607 E.0361
G1 X172.956 Y126.895 E.03832
G1 X173.282 Y127.137 E.02712
G1 X173.891 Y127.685 E.05473
G1 X174.316 Y128.205 E.04487
G1 X175.015 Y129.253 E.08416
G1 X175.015 Y129.566 E.02091
G1 X175.015 Y159.583 E2.0053
G1 X174.937 Y160.345 E.05117
G1 X174.767 Y160.992 E.04469
G1 X174.493 Y161.627 E.0462
G1 X174.097 Y162.25 E.04932
G1 X173.737 Y162.657 E.0363
G1 X173.15 Y163.151 E.05125
G1 X172.654 Y163.435 E.03818
G1 X172.071 Y163.659 E.04172
G1 X171.506 Y163.787 E.0387
G1 X171.304 Y163.116 E.04681
G1 X171.041 Y162.61 E.0381
G1 X170.732 Y162.214 E.03356
G1 X170.294 Y161.749 E.04268
;WIDTH:0.601867
G1 X169.68 Y161.333 E.04972
;WIDTH:0.614084
G1 X169.115 Y161.091 E.04214
;WIDTH:0.63791
G1 X168.512 Y160.948 E.04433
G1 X168.2 Y160.911 E.02247
;WIDTH:0.624439
G1 X167.44 Y160.962 E.05321
;WIDTH:0.6
G1 X166.705 Y161.16 E.05085
G1 X166.173 Y161.419 E.03953
G1 X165.876 Y161.635 E.02453
G1 X165.311 Y162.133 E.05031
G1 X164.871 Y162.756 E.05095
G1 X164.627 Y163.294 E.03946
G1 X164.494 Y163.822 E.03638
G1 X125.515 Y163.822 E2.60401
G1 X125.482 Y163.66 E.01104
G1 X125.226 Y162.943 E.05086
G1 X124.824 Y162.296 E.05089
G1 X124.422 Y161.861 E.03957
G1 X124.228 Y161.703 E.01671
G1 X123.661 Y161.326 E.04549
G1 X123.116 Y161.096 E.03952
G1 X122.723 Y161.004 E.02696
G1 X122.182 Y160.924 E.03653
;WIDTH:0.630143
G1 X121.436 Y160.947 E.05267
G1 X120.863 Y161.093 E.04173
;WIDTH:0.619359
G1 X120.508 Y161.249 E.02684
;WIDTH:0.611719
G1 X120.012 Y161.523 E.03868
;WIDTH:0.6
G1 X119.551 Y161.904 E.03995
G1 X119.257 Y162.206 E.02816
G1 X118.871 Y162.756 E.04489
G1 X118.627 Y163.294 E.03946
G1 X118.502 Y163.788 E.03404
G1 X117.934 Y163.666 E.03881
G1 X117.283 Y163.405 E.04686
G1 X116.77 Y163.084 E.04043
G1 X116.45 Y162.835 E.02709
G1 X116.09 Y162.471 E.0342
G1 X115.763 Y162.049 E.03567
G1 X115.477 Y161.564 E.03761
G1 X115.268 Y161.064 E.0362
G1 X115.049 Y160.238 E.05709
G1 X114.985 Y159.557 E.04569
G1 X114.985 Y129.255 E2.02434
G1 X115.796 Y128.051 E.09698
M73 P1 R70
G1 X116.33 Y127.457 E.05336
G1 X116.769 Y127.079 E.0387
G1 X117.199 Y126.788 E.03469
G1 X117.659 Y126.551 E.03457
G1 X118.177 Y126.358 E.03693
G1 X118.706 Y126.234 E.0363
G1 X119.254 Y126.179 E.03679
G1 X125.837 Y126.178 E.43978
G1 X126.411 Y126.978 E.06578
G1 X126.838 Y127.358 E.03819
G1 X127.32 Y127.666 E.03821
G1 X127.845 Y127.892 E.03818
G1 X128.399 Y128.033 E.03819
G1 X128.969 Y128.084 E.03823
G1 X129.539 Y128.043 E.03818
G1 X130.096 Y127.912 E.03823
G1 X130.625 Y127.694 E.03822
G1 X131.095 Y127.409 E.03672
G1 X131.48 Y127.089 E.03344
G1 X131.838 Y126.688 E.03591
G1 X132.166 Y126.178 E.04051
G1 X157.767 Y126.178 E1.71028
G10 ; retract
G1 X157.767 Y126.178 F90000
G1 X166.928 Y132.194
G11 ; unretract
;TYPE:External perimeter
G1 F1200
G1 X166.902 Y131.969 E.01513
G1 X166.976 Y131.33 E.04297
G1 X167.191 Y130.708 E.04397
G1 X167.541 Y130.133 E.04497
G1 X167.647 Y129.985 E.01216
G1 X168.125 Y129.533 E.04395
G1 X168.744 Y129.167 E.04804
G1 X169.431 Y128.954 E.04805
G1 X170.149 Y128.905 E.04808
G1 X170.805 Y129.014 E.04443
G1 X171.28 Y129.197 E.03401
G1 X171.576 Y129.332 E.02173
G1 X172.104 Y129.725 E.04397
G1 X172.571 Y130.272 E.04805
G1 X172.901 Y130.911 E.04805
G1 X173.074 Y131.609 E.04804
G1 X173.081 Y132.329 E.0481
G1 X172.922 Y133.03 E.04802
G1 X172.606 Y133.677 E.0481
G1 X172.149 Y134.232 E.04803
G1 X171.576 Y134.668 E.0481
G1 X170.918 Y134.959 E.04806
G1 X170.211 Y135.091 E.04805
G1 X169.493 Y135.057 E.04802
G1 X168.813 Y134.861 E.04728
G1 X168.176 Y134.504 E.04878
G1 X167.647 Y134.015 E.04813
G1 X167.245 Y133.418 E.04808
G1 X166.992 Y132.745 E.04803
G1 X166.939 Y132.283 E.03107
G1 X166.944 Y131.684 F90000
G1 X166.387 Y132.225
;TYPE:Perimeter
