; generated by PrusaSlicer 2.8.0 on 2024-07-04 at 16:05:54 UTC


;
;

;
;
; 

; external perimeters extrusion width = 0.68mm
; perimeters extrusion width = 0.68mm
; infill extrusion width = 0.68mm
; solid infill extrusion width = 0.68mm
; top infill extrusion width = 0.60mm
; first layer extrusion width = 0.60mm

; external perimeters extrusion width = 0.68mm
; perimeters extrusion width = 0.68mm
; infill extrusion width = 0.68mm
; solid infill extrusion width = 0.68mm
; top infill extrusion width = 0.60mm
; first layer extrusion width = 0.60mm

; external perimeters extrusion width = 0.68mm
; perimeters extrusion width = 0.68mm
; infill extrusion width = 0.68mm
; solid infill extrusion width = 0.68mm
; top infill extrusion width = 0.60mm
; first layer extrusion width = 0.60mm

; external perimeters extrusion width = 0.68mm
; perimeters extrusion width = 0.68mm
; infill extrusion width = 0.68mm
; solid infill extrusion width = 0.68mm
; top infill extrusion width = 0.60mm
; first layer extrusion width = 0.60mm

M73 P0 R42

; printing object TitanCover_Original_Bearing.stl id:3 copy 0
; stop printing object TitanCover_Original_Bearing.stl id:3 copy 0
; printing object TitanCover_Original_Bearing.stl id:2 copy 0
; stop printing object TitanCover_Original_Bearing.stl id:2 copy 0
; printing object TitanCover_16x5x5_bearing.stl id:0 copy 0
; stop printing object TitanCover_16x5x5_bearing.stl id:0 copy 0
; printing object TitanCover_16x5x5_bearing.stl id:1 copy 0
; stop printing object TitanCover_16x5x5_bearing.stl id:1 copy 0

;TYPE:Custom
M98 P"start-print.g" F"GreenTec Carbon" S0.6 T240 B63
G21 ; set units to millimeters
G90 ; use absolute coordinates
M83 ; use relative distances for extrusion
; Filament gcode
M107
;LAYER_CHANGE
;Z:0.3
;HEIGHT:0.3
G10 ; retract
G1 Z.3 F90000
G1 X106.65 Y94.165
G11 ; unretract
;TYPE:Skirt/Brim
;WIDTH:0.6
G1 F1200
G1 X108.595 Y93.074 E.14898
G1 X110.14 Y92.752 E.10543
G1 X143.888 Y90.082 E2.26159
G1 X207.638 Y90.082 E4.25885
G1 X209.833 Y90.479 E.14902
G1 X211.749 Y91.619 E.14894
G1 X213.146 Y93.358 E.14902
G1 X213.906 Y96.35 E.20623
G1 X213.906 Y142 E3.04967
G1 X213.288 Y144.712 E.18582
G1 X190.244 Y192.719 E3.55747
G1 X189.161 Y194.52 E.14039
M73 P0 R41
G1 X188.232 Y195.742 E.10255
G1 X187.196 Y196.874 E.10251
G1 X186.061 Y197.906 E.10248
G1 X184.836 Y198.831 E.10255
G1 X183.531 Y199.639 E.10254
G1 X182.158 Y200.325 E.10254
G1 X180.729 Y200.882 E.10246
G1 X179.254 Y201.306 E.10253
G1 X177.746 Y201.593 E.10255
G1 X175.118 Y201.765 E.17594
G1 X120.062 Y201.757 E3.67804
G1 X82.058 Y199.91 E2.54187
G1 X79.885 Y199.408 E.14899
G1 X78.026 Y198.176 E.14899
G1 X76.716 Y196.371 E.14899
G1 X76.094 Y193.65 E.18647
G1 X76.094 Y148 E3.04967
G1 X76.933 Y144.867 E.21668
G1 X105.209 Y95.867 E3.7794
G1 X106.592 Y94.233 E.14301
G10 ; retract
G1 X106.592 Y94.233 F90000
; printing object TitanCover_16x5x5_bearing.stl id:1 copy 0
G1 X105.36 Y165.363
G11 ; unretract
;TYPE:External perimeter
;WIDTH:0.6
G1 F1200
G1 X105.428 Y165.363 E.00454
G1 X106.05 Y165.459 E.04204
G1 X106.577 Y165.619 E.03679
G1 X107.145 Y165.883 E.04184
G1 X107.669 Y166.232 E.04206
G1 X108.135 Y166.657 E.04213
G1 X108.5 Y167.11 E.03886
G1 X108.809 Y167.625 E.04012
G1 X109.076 Y168.274 E.04688
G1 X109.216 Y168.893 E.0424
G1 X109.26 Y169.521 E.04206
G1 X109.222 Y170.07 E.03676
G1 X109.089 Y170.683 E.0419
G1 X108.825 Y171.342 E.04743
G1 X108.553 Y171.819 E.03668
G1 X108.211 Y172.253 E.03691
G1 X107.705 Y172.739 E.04687
G1 X107.265 Y173.039 E.03558
G1 X106.612 Y173.368 E.04885
G1 X106.087 Y173.532 E.03674
G1 X105.576 Y173.616 E.0346
G1 X104.809 Y173.639 E.05126
G1 X104.215 Y173.551 E.04012
G1 X103.612 Y173.369 E.04208
G1 X103.112 Y173.131 E.03699
G1 X102.526 Y172.744 E.04691
G1 X102.062 Y172.312 E.04235
G1 X101.717 Y171.883 E.03678
G1 X101.396 Y171.345 E.04185
G1 X101.159 Y170.761 E.0421
G1 X101.006 Y170.068 E.04741
G1 X100.963 Y169.52 E.03672
G1 X101.001 Y168.969 E.0369
G1 X101.146 Y168.282 E.04691
G1 X101.378 Y167.692 E.04235
G1 X101.696 Y167.148 E.0421
G1 X102.037 Y166.716 E.03677
G1 X102.491 Y166.284 E.04187
G1 X102.907 Y166.002 E.03357
G1 X103.574 Y165.646 E.05051
G1 X104.175 Y165.458 E.04207
G1 X104.798 Y165.363 E.0421
G1 X105.27 Y165.363 E.03153
G1 X105.866 Y165.434 F90000
G1 X105.946 Y164.903
;TYPE:Perimeter
G1 F1200
G1 X106.134 Y164.93 E.01269
G1 X106.735 Y165.107 E.04186
G1 X107.223 Y165.328 E.03579
G1 X107.718 Y165.619 E.03836
G1 X108.064 Y165.864 E.02832
G1 X108.498 Y166.263 E.03938
G1 X108.919 Y166.776 E.04433
G1 X109.273 Y167.357 E.04545
G1 X109.572 Y168.073 E.05184
G1 X109.739 Y168.777 E.04834
G1 X109.795 Y169.486 E.04751
G1 X109.764 Y170.003 E.0346
G1 X109.612 Y170.798 E.05407
G1 X109.322 Y171.544 E.05347
G1 X109.017 Y172.087 E.04161
;WIDTH:0.644742
G1 X108.841 Y172.351 E.02297
;WIDTH:0.689484
G1 X108.664 Y172.615 E.02478
;WIDTH:0.690567
G1 X108.105 Y173.16 E.06097
;WIDTH:0.707573
G1 X107.672 Y173.476 E.043
G1 X107.392 Y173.641 E.02607
;WIDTH:0.687279
G1 X107.116 Y173.746 E.02294
;WIDTH:0.643639
G1 X106.84 Y173.852 E.02136
;WIDTH:0.6
G1 X106.245 Y174.044 E.04177
G1 X105.66 Y174.145 E.03966
G1 X104.754 Y174.171 E.06055
G1 X104.136 Y174.081 E.04172
G1 X103.642 Y173.938 E.03436
G1 X103.051 Y173.696 E.04266
M73 P1 R41
G1 X102.461 Y173.344 E.0459
G1 X102.124 Y173.106 E.02756
G1 X101.695 Y172.702 E.03937
G1 X101.298 Y172.217 E.04187
G1 X100.935 Y171.617 E.04685
G1 X100.662 Y170.96 E.04753
G1 X100.483 Y170.18 E.05346
G1 X100.429 Y169.56 E.04158
G1 X100.467 Y168.929 E.04223
G1 X100.623 Y168.17 E.05177
G1 X100.881 Y167.493 E.0484
G1 X101.234 Y166.876 E.04749
G1 X101.618 Y166.382 E.0418
G1 X102.124 Y165.894 E.04696
G1 X102.61 Y165.556 E.03955
G1 X103.342 Y165.164 E.05547
G1 X104.017 Y164.946 E.04739
G1 X104.719 Y164.833 E.0475
G1 X105.431 Y164.828 E.04757
G1 X105.857 Y164.89 E.02876
G10 ; retract
G1 X105.857 Y164.89 F90000
G1 X97.524 Y168.011
G11 ; unretract
;TYPE:External perimeter
G1 F1200
G1 X97.595 Y168.11 E.00814
G1 X97.608 Y168.842 E.04891
G1 X97.608 Y172.256 E.22807
G1 X97.534 Y172.44 E.01325
G1 X97.435 Y172.506 E.00795
G1 X96.396 Y172.524 E.06942
G1 X87.275 Y172.524 E.60933
G1 X87.106 Y172.464 E.01198
G1 X87.012 Y172.302 E.01251
G1 X87.008 Y172.256 E.00308
G1 X87.008 Y168.192 E.2715
G1 X87.057 Y168.036 E.01092
G1 X87.217 Y167.93 E.01282
G1 X88.396 Y167.924 E.07876
G1 X88.823 Y167.941 E.02855
;WIDTH:0.566095
G1 X89.249 Y167.958 E.02668
;WIDTH:0.53219
G1 X95.366 Y167.958 E.35691
;WIDTH:0.566095
G1 X95.793 Y167.941 E.02674
;WIDTH:0.6
G1 X96.219 Y167.924 E.02848
G1 X97.34 Y167.924 E.07489
G1 X97.454 Y167.962 E.00803
G1 X97.593 Y168.546 F90000
G1 X97.9 Y167.632
;TYPE:Perimeter
G1 F1200
G1 X98.018 Y167.76 E.01163
G1 X98.135 Y168.08 E.02276
G1 X98.143 Y172.256 E.27898
G1 X98.067 Y172.597 E.02334
G1 X97.923 Y172.809 E.01712
G1 X97.627 Y173.007 E.02379
G1 X97.311 Y173.059 E.02139
G1 X87.275 Y173.059 E.67046
G1 X86.931 Y172.982 E.02355
G1 X86.767 Y172.878 E.01297
G1 X86.618 Y172.718 E.01461
G1 X86.484 Y172.395 E.02336
G1 X86.472 Y172.256 E.00932
G1 X86.472 Y168.192 E.2715
G1 X86.512 Y167.941 E.01698
G1 X86.621 Y167.725 E.01616
G1 X86.773 Y167.565 E.01474
G1 X87.099 Y167.408 E.02417
G1 X88.513 Y167.388 E.09447
G1 X88.449 Y167.33 E.00577
G1 X88.571 Y166.824 E.03477
G1 X90.525 Y163.76 E.24277
G1 X90.77 Y163.515 E.02315
G1 X91.076 Y163.398 E.02189
G1 X93.413 Y163.388 E.15613
G1 X93.709 Y163.445 E.02014
G1 X93.961 Y163.604 E.01991
G1 X94.337 Y164.146 E.04407
G1 X96.044 Y166.824 E.21216
G1 X96.166 Y167.33 E.03477
G1 X96.113 Y167.388 E.00525
G1 X97.34 Y167.388 E.08197
G1 X97.635 Y167.444 E.02006
G1 X97.824 Y167.551 E.01451
G1 X97.839 Y167.566 E.00142
G10 ; retract
G1 X97.839 Y167.566 F90000
G1 X95.535 Y167.358
G11 ; unretract
;TYPE:External perimeter
G1 F1200
G1 X95.5 Y167.385 E.00295
;WIDTH:0.566095
G1 X95.366 Y167.49 E.01065
;WIDTH:0.53219
G1 X89.249 Y167.49 E.35691
;WIDTH:0.566095
G1 X89.116 Y167.385 E.0106
;WIDTH:0.6
G1 X88.982 Y167.281 E.01133
G1 X89.023 Y167.112 E.01162
G1 X90.976 Y164.048 E.24274
G1 X91.058 Y163.966 E.00775
G1 X91.202 Y163.924 E.01002
G1 X93.413 Y163.924 E.14771
G1 X93.596 Y163.996 E.01314
G1 X95.592 Y167.112 E.24721
G1 X95.633 Y167.281 E.01162
G1 X95.606 Y167.302 E.00229
G1 X95.031 Y167.475 F90000
G10 ; retract
G1 X91.161 Y157.844
G11 ; unretract
G1 F1200
G1 X91.112 Y157.868 E.00365
G1 X90.587 Y158.032 E.03674
G1 X89.968 Y158.134 E.04191
G1 X89.338 Y158.14 E.04209
G1 X88.715 Y158.051 E.04204
G1 X88.112 Y157.869 E.04208
G1 X87.612 Y157.631 E.03699
G1 X87.026 Y157.244 E.04691
G1 X86.562 Y156.812 E.04235
G1 X86.217 Y156.383 E.03678
G1 X85.896 Y155.845 E.04185
G1 X85.659 Y155.261 E.0421
G1 X85.506 Y154.568 E.04741
G1 X85.463 Y154.02 E.03672
G1 X85.501 Y153.469 E.0369
G1 X85.646 Y152.782 E.04691
G1 X85.878 Y152.192 E.04235
G1 X86.196 Y151.648 E.0421
G1 X86.537 Y151.216 E.03677
G1 X86.991 Y150.784 E.04187
G1 X87.612 Y150.369 E.0499
G1 X88.074 Y150.146 E.03427
G1 X88.675 Y149.958 E.04207
G1 X89.298 Y149.863 E.0421
G1 X89.928 Y149.863 E.04209
G1 X90.55 Y149.959 E.04204
G1 X91.077 Y150.119 E.03679
G1 X91.645 Y150.383 E.04184
G1 X92.169 Y150.732 E.04206
G1 X92.635 Y151.157 E.04213
G1 X93.03 Y151.647 E.04205
G1 X93.309 Y152.125 E.03697
G1 X93.576 Y152.774 E.04688
G1 X93.716 Y153.393 E.0424
G1 X93.76 Y154.021 E.04206
G1 X93.722 Y154.57 E.03676
G1 X93.601 Y155.128 E.03814
G1 X93.325 Y155.842 E.05114
G1 X93.053 Y156.319 E.03668
G1 X92.711 Y156.753 E.03691
G1 X92.205 Y157.239 E.04687
G1 X91.68 Y157.597 E.04245
G1 X91.243 Y157.805 E.03233
G1 X90.676 Y158.002 F90000
G1 X90.834 Y158.515
;TYPE:Perimeter
G1 F1200
G1 X90.745 Y158.544 E.00625
G1 X90.052 Y158.662 E.04696
G1 X89.341 Y158.676 E.04751
G1 X88.636 Y158.581 E.04752
G1 X87.954 Y158.38 E.0475
G1 X87.38 Y158.114 E.04226
G1 X86.729 Y157.69 E.0519
G1 X86.195 Y157.202 E.04833
G1 X85.798 Y156.717 E.04187
G1 X85.435 Y156.117 E.04685
G1 X85.162 Y155.46 E.04753
G1 X84.983 Y154.68 E.05346
G1 X84.929 Y154.06 E.04158
G1 X84.967 Y153.429 E.04223
G1 X85.123 Y152.67 E.05177
G1 X85.381 Y151.993 E.0484
G1 X85.734 Y151.376 E.04749
G1 X86.118 Y150.882 E.0418
G1 X86.624 Y150.394 E.04696
G1 X87.38 Y149.886 E.06085
G1 X87.842 Y149.664 E.03424
;WIDTH:0.621379
G1 X88.514 Y149.436 E.0493
G1 X89.221 Y149.342 E.04955
;WIDTH:0.582177
G1 X89.93 Y149.338 E.04579
;WIDTH:0.604721
G1 X90.283 Y149.377 E.02393
;WIDTH:0.631282
G1 X90.637 Y149.415 E.02517
G1 X91.235 Y149.607 E.04441
;WIDTH:0.6
G1 X91.873 Y149.899 E.04687
G1 X92.468 Y150.288 E.04749
G1 X92.998 Y150.763 E.04755
G1 X93.449 Y151.313 E.04752
G1 X93.773 Y151.857 E.0423
G1 X94.072 Y152.573 E.05184
G1 X94.239 Y153.277 E.04834
G1 X94.295 Y153.986 E.04751
G1 X94.256 Y154.61 E.04177
G1 X94.124 Y155.243 E.0432
G1 X93.822 Y156.044 E.05719
G1 X93.517 Y156.587 E.04161
G1 X93.129 Y157.087 E.04228
G1 X92.574 Y157.627 E.05173
G1 X91.979 Y158.041 E.04842
G1 X91.34 Y158.352 E.04748
G1 X90.92 Y158.488 E.02949
G10 ; retract
G1 X90.92 Y158.488 F90000
G1 X89.968 Y180.869
G11 ; unretract
;TYPE:External perimeter
G1 F1200
G1 X90.55 Y180.959 E.03934
G1 X91.077 Y181.119 E.03679
G1 X91.645 Y181.383 E.04184
G1 X92.169 Y181.732 E.04206
G1 X92.635 Y182.157 E.04213
G1 X93.03 Y182.647 E.04205
G1 X93.309 Y183.125 E.03697
G1 X93.576 Y183.774 E.04688
G1 X93.716 Y184.393 E.0424
G1 X93.76 Y185.021 E.04206
G1 X93.722 Y185.57 E.03676
G1 X93.589 Y186.183 E.0419
G1 X93.325 Y186.842 E.04743
G1 X93.053 Y187.319 E.03668
G1 X92.711 Y187.753 E.03691
G1 X92.205 Y188.239 E.04687
G1 X91.68 Y188.597 E.04245
G1 X91.112 Y188.868 E.04204
G1 X90.587 Y189.032 E.03674
G1 X89.968 Y189.134 E.04191
G1 X89.338 Y189.14 E.04209
G1 X88.715 Y189.051 E.04204
G1 X88.112 Y188.869 E.04208
G1 X87.612 Y188.631 E.03699
G1 X87.026 Y188.244 E.04691
G1 X86.562 Y187.812 E.04235
G1 X86.217 Y187.383 E.03678
G1 X85.896 Y186.845 E.04185
G1 X85.659 Y186.261 E.0421
G1 X85.506 Y185.568 E.04741
G1 X85.463 Y185.02 E.03672
G1 X85.501 Y184.469 E.0369
G1 X85.646 Y183.782 E.04691
G1 X85.878 Y183.192 E.04235
G1 X86.196 Y182.648 E.0421
G1 X86.537 Y182.216 E.03677
G1 X86.991 Y181.784 E.04187
G1 X87.58 Y181.387 E.04745
G1 X88.074 Y181.146 E.03672
G1 X88.551 Y180.996 E.0334
G1 X89.298 Y180.863 E.05069
G1 X89.878 Y180.863 E.03875
G1 X90.472 Y180.949 F90000
G1 X90.601 Y180.425
;TYPE:Perimeter
G1 F1200
G1 X90.634 Y180.43 E.00223
G1 X91.235 Y180.607 E.04186
G1 X91.873 Y180.899 E.04687
G1 X92.468 Y181.288 E.04749
G1 X92.998 Y181.763 E.04755
G1 X93.449 Y182.313 E.04752
G1 X93.773 Y182.857 E.0423
G1 X94.072 Y183.573 E.05184
G1 X94.239 Y184.277 E.04834
G1 X94.295 Y184.986 E.04751
G1 X94.256 Y185.61 E.04177
G1 X94.112 Y186.298 E.04696
G1 X93.822 Y187.044 E.05347
G1 X93.517 Y187.587 E.04161
G1 X93.129 Y188.087 E.04228
G1 X92.574 Y188.627 E.05173
G1 X91.979 Y189.041 E.04842
G1 X91.34 Y189.352 E.04748
G1 X90.745 Y189.544 E.04177
G1 X90.052 Y189.662 E.04696
G1 X89.341 Y189.676 E.04751
G1 X88.636 Y189.581 E.04752
G1 X87.954 Y189.38 E.0475
G1 X87.38 Y189.114 E.04226
G1 X86.729 Y188.69 E.0519
G1 X86.195 Y188.202 E.04833
G1 X85.798 Y187.717 E.04187
G1 X85.435 Y187.117 E.04685
G1 X85.162 Y186.46 E.04753
G1 X84.983 Y185.68 E.05346
G1 X84.929 Y185.06 E.04158
G1 X84.967 Y184.429 E.04223
G1 X85.123 Y183.67 E.05177
G1 X85.381 Y182.993 E.0484
G1 X85.734 Y182.376 E.04749
G1 X86.118 Y181.882 E.0418
G1 X86.624 Y181.394 E.04696
G1 X87.283 Y180.941 E.05342
G1 X87.842 Y180.664 E.04168
G1 X88.394 Y180.484 E.03879
G1 X89.219 Y180.333 E.05603
G1 X89.931 Y180.328 E.04757
G1 X90.512 Y180.412 E.03922
G10 ; retract
G1 X90.512 Y180.412 F90000
G1 X103.928 Y187.555
G11 ; unretract
;TYPE:External perimeter
G1 F1200
G1 X103.897 Y187.541 E.00227
G1 X103.829 Y187.395 E.01076
G1 X103.683 Y186.297 E.074
G1 X103.639 Y185.477 E.05486
G1 X103.633 Y184.829 E.04329
G1 X103.652 Y184.095 E.04905
G1 X103.741 Y183.246 E.05703
G1 X103.815 Y182.737 E.03436
G1 X103.967 Y181.916 E.05578
G1 X104.259 Y180.831 E.07506
G1 X104.62 Y179.813 E.07216
G1 X105.069 Y178.806 E.07366
G1 X105.501 Y178.011 E.06044
G1 X105.92 Y177.338 E.05296
G1 X106.196 Y176.915 E.03374
G1 X106.716 Y176.238 E.05703
G1 X107.203 Y175.669 E.05003
G1 X107.606 Y175.224 E.04011
G1 X108.199 Y174.663 E.05453
G1 X108.729 Y174.206 E.04675
G1 X109.264 Y173.775 E.0459
G1 X109.907 Y173.335 E.05205
G1 X110.432 Y173.003 E.0415
G1 X111.129 Y172.604 E.05365
G1 X111.893 Y172.242 E.05648
G1 X112.366 Y172.039 E.03439
G1 X113.155 Y171.74 E.05637
G1 X113.888 Y171.525 E.05103
G1 X113.244 Y169.992 E.11108
G1 X113.229 Y169.83 E.01087
G1 X113.331 Y169.673 E.01251
G1 X113.511 Y169.622 E.0125
G1 X114.218 Y169.771 E.04827
G1 X120.276 Y171.077 E.414
G1 X120.438 Y171.185 E.01301
G1 X120.487 Y171.353 E.01169
G1 X120.429 Y171.506 E.01093
G1 X116.428 Y176.541 E.42963
G1 X116.266 Y176.638 E.01261
G1 X116.093 Y176.611 E.0117
G1 X115.971 Y176.478 E.01206
G1 X115.299 Y174.88 E.11581
G1 X114.647 Y175.043 E.0449
G1 X113.78 Y175.344 E.06131
G1 X112.944 Y175.719 E.06121
G1 X112.144 Y176.167 E.06125
G1 X111.386 Y176.683 E.06126
G1 X110.677 Y177.265 E.06128
G1 X110.022 Y177.906 E.06122
G1 X109.426 Y178.603 E.06127
G1 X108.894 Y179.35 E.06127
G1 X108.43 Y180.14 E.06121
G1 X108.037 Y180.969 E.06129
G1 X107.719 Y181.829 E.06125
G1 X107.478 Y182.713 E.06121
G1 X107.316 Y183.616 E.06129
G1 X107.234 Y184.529 E.06124
G1 X107.233 Y185.446 E.06126
G1 X107.313 Y186.359 E.06123
G1 X107.481 Y187.313 E.06471
G1 X107.442 Y187.506 E.01315
G1 X107.282 Y187.62 E.01312
G1 X104.094 Y187.627 E.21298
G1 X104.011 Y187.591 E.00604
G1 X103.791 Y187.033 F90000
G1 X103.573 Y187.955
;TYPE:Perimeter
G1 F1200
G1 X103.503 Y187.904 E.00579
G1 X103.356 Y187.678 E.01801
G1 X103.298 Y187.465 E.01475
G1 X103.152 Y186.367 E.074
G1 X103.104 Y185.505 E.05768
G1 X103.098 Y184.815 E.0461
G1 X103.117 Y184.081 E.04905
G1 X103.208 Y183.19 E.05983
G1 X103.288 Y182.639 E.0372
G1 X103.441 Y181.818 E.05579
G1 X103.754 Y180.652 E.08065
G1 X104.116 Y179.633 E.07224
G1 X104.58 Y178.588 E.07638
G1 X105.031 Y177.755 E.06328
G1 X105.748 Y176.622 E.08957
G1 X106.292 Y175.911 E.05981
G1 X107.209 Y174.864 E.09298
;WIDTH:0.643639
G1 X107.505 Y174.553 E.03102
;WIDTH:0.687279
G1 X107.801 Y174.242 E.03336
;WIDTH:0.707573
G1 X108.053 Y173.994 E.02836
G1 X108.518 Y173.63 E.04737
;WIDTH:0.71679
