; generated by PrusaSlicer 2.8.0 on 2024-07-04 at 15:27:46 UTC


;
;

;
;
; 

; external perimeters extrusion width = 0.68mm
; perimeters extrusion width = 0.68mm
; infill extrusion width = 0.68mm
; solid infill extrusion width = 0.68mm
; top infill extrusion width = 0.60mm
; first layer extrusion width = 0.60mm

; external perimeters extrusion width = 0.68mm
; perimeters extrusion width = 0.68mm
; infill extrusion width = 0.68mm
; solid infill extrusion width = 0.68mm
; top infill extrusion width = 0.60mm
; first layer extrusion width = 0.60mm

M73 P0 R23

; printing object TitanCover_16x5x5_bearing.stl id:0 copy 0
; stop printing object TitanCover_16x5x5_bearing.stl id:0 copy 0
; printing object TitanCover_16x5x5_bearing.stl id:1 copy 0
; stop printing object TitanCover_16x5x5_bearing.stl id:1 copy 0

;TYPE:Custom
M98 P"start-print.g" F"GreenTec Carbon" S0.6 T240 B63
G21 ; set units to millimeters
G90 ; use absolute coordinates
M83 ; use relative distances for extrusion
; Filament gcode
M107
;LAYER_CHANGE
;Z:0.3
;HEIGHT:0.3
G10 ; retract
G1 Z.3 F90000
G1 X92.151 Y115.236
G11 ; unretract
;TYPE:Skirt/Brim
;WIDTH:0.6
G1 F1200
G1 X94.007 Y113.999 E.14901
G1 X96.5 Y113.482 E.17009
G1 X196.751 Y113.482 E6.69731
G1 X198.945 Y113.879 E.14895
G1 X200.862 Y115.019 E.149
G1 X202.259 Y116.758 E.14902
G1 X203.019 Y119.75 E.20623
G1 X203.019 Y165.4 E3.04967
G1 X202.622 Y167.595 E.14902
G1 X201.482 Y169.512 E.149
G1 X199.742 Y170.908 E.14903
G1 X197.055 Y171.66 E.1864
G1 X159.075 Y173.506 E2.54026
G1 X102.922 Y173.493 E3.75132
G1 X100.838 Y173.258 E.1401
G1 X98.421 Y172.644 E.1666
G1 X96.469 Y171.849 E.1408
G1 X94.31 Y170.602 E.16656
G1 X92.646 Y169.308 E.14082
M73 P1 R23
G1 X90.906 Y167.522 E.16658
G1 X89.656 Y165.825 E.1408
G1 X88.465 Y163.633 E.16666
G1 X87.722 Y161.661 E.14078
G1 X87.34 Y160.175 E.1025
G1 X87.095 Y158.654 E.10292
G1 X86.997 Y156.159 E.16681
G1 X90.257 Y119.196 E2.47891
G1 X90.846 Y117.045 E.14899
G1 X92.099 Y115.309 E.14303
G10 ; retract
G1 X92.099 Y115.309 F90000
; printing object TitanCover_16x5x5_bearing.stl id:0 copy 0
G1 X170.04 Y140.037
G11 ; unretract
;TYPE:External perimeter
;WIDTH:0.6
G1 F1200
G1 X170.05 Y139.991 E.00314
G1 X170.249 Y139.478 E.03676
G1 X170.56 Y138.931 E.04204
G1 X170.951 Y138.437 E.04209
G1 X171.412 Y138.008 E.04207
G1 X171.933 Y137.654 E.04208
G1 X172.428 Y137.412 E.03681
G1 X173.023 Y137.218 E.04181
G1 X173.725 Y137.113 E.04742
G1 X174.276 Y137.11 E.03681
G1 X174.898 Y137.199 E.04198
G1 X175.501 Y137.382 E.0421
G1 X176.07 Y137.653 E.0421
G1 X176.59 Y138.008 E.04206
G1 X176.996 Y138.381 E.03683
G1 X177.394 Y138.864 E.04181
G1 X177.75 Y139.478 E.04741
G1 X177.954 Y139.991 E.03688
G1 X178.099 Y140.602 E.04195
G1 X178.15 Y141.23 E.04209
G1 X178.105 Y141.858 E.04206
G1 X177.966 Y142.472 E.04206
G1 X177.735 Y143.058 E.04208
G1 X177.417 Y143.602 E.0421
G1 X177.076 Y144.034 E.03677
G1 X176.622 Y144.466 E.04187
G1 X176.033 Y144.863 E.04745
G1 X175.539 Y145.104 E.03672
G1 X174.938 Y145.292 E.04207
G1 X174.399 Y145.375 E.03643
G1 X173.685 Y145.387 E.04771
G1 X173.063 Y145.291 E.04204
G1 X172.554 Y145.137 E.03553
G1 X171.968 Y144.867 E.0431
G1 X171.383 Y144.465 E.04742
G1 X170.978 Y144.092 E.03678
G1 X170.583 Y143.603 E.04199
G1 X170.266 Y143.058 E.04212
G1 X170.07 Y142.561 E.03569
G1 X169.897 Y141.857 E.04843
G1 X169.854 Y141.321 E.03592
G1 X169.891 Y140.683 E.04269
G1 X170.02 Y140.125 E.03826
G1 X170.22 Y139.559 F90000
G1 X169.72 Y139.363
;TYPE:Perimeter
G1 F1200
G1 X169.75 Y139.282 E.00577
G1 X170.096 Y138.664 E.04732
G1 X170.532 Y138.103 E.04747
G1 X171.049 Y137.614 E.04754
G1 X171.634 Y137.209 E.04753
G1 X172.195 Y136.929 E.04189
G1 X172.86 Y136.708 E.04681
G1 X173.648 Y136.583 E.0533
G1 X174.276 Y136.574 E.04196
G1 X174.977 Y136.669 E.04726
G1 X175.659 Y136.87 E.0475
G1 X176.303 Y137.171 E.04749
G1 X176.894 Y137.567 E.04753
G1 X177.36 Y137.989 E.042
G1 X177.809 Y138.525 E.04671
G1 X178.215 Y139.211 E.05325
G1 X178.453 Y139.795 E.04213
G1 X178.621 Y140.48 E.04712
G1 X178.684 Y141.189 E.04755
G1 X178.639 Y141.899 E.04753
G1 X178.487 Y142.594 E.04753
G1 X178.232 Y143.257 E.04746
G1 X177.879 Y143.874 E.04749
G1 X177.495 Y144.368 E.0418
G1 X176.989 Y144.856 E.04696
G1 X176.33 Y145.309 E.05342
G1 X175.771 Y145.586 E.04168
G1 X175.227 Y145.764 E.03824
G1 X174.477 Y145.905 E.05098
G1 X173.682 Y145.922 E.05312
G1 X172.979 Y145.82 E.04746
G1 X172.396 Y145.649 E.04059
;WIDTH:0.643627
G1 X172.059 Y145.52 E.02607
;WIDTH:0.687254
G1 X171.721 Y145.391 E.02811
;WIDTH:0.70895
G1 X171.446 Y145.227 E.02574
G1 X171.004 Y144.906 E.04392
;WIDTH:0.711053
G1 X170.576 Y144.526 E.04616
G1 X170.439 Y144.329 E.01935
;WIDTH:0.674035
G1 X170.301 Y144.133 E.01823
;WIDTH:0.637017
G1 X170.164 Y143.937 E.01708
;WIDTH:0.6
G1 X169.802 Y143.325 E.0475
G1 X169.571 Y142.754 E.04115
G1 X169.374 Y141.973 E.05381
G1 X169.32 Y141.362 E.04098
G1 X169.357 Y140.648 E.04776
G1 X169.529 Y139.869 E.05329
G1 X169.688 Y139.447 E.03013
G10 ; retract
G1 X181.591 Y139.756 F90000
G11 ; unretract
;TYPE:External perimeter
G1 F1200
G1 X181.695 Y139.685 E.00841
G1 X182.894 Y139.674 E.0801
G1 X183.32 Y139.691 E.02848
;WIDTH:0.566095
G1 X183.747 Y139.708 E.02674
;WIDTH:0.53219
G1 X189.864 Y139.708 E.35691
;WIDTH:0.566095
G1 X190.29 Y139.691 E.02668
;WIDTH:0.6
G1 X190.717 Y139.674 E.02855
G1 X191.837 Y139.674 E.07482
G1 X192.005 Y139.733 E.0119
G1 X192.092 Y139.858 E.01017
G1 X192.105 Y139.942 E.00568
G1 X192.105 Y144.006 E.2715
G1 X192.057 Y144.16 E.01078
G1 X191.899 Y144.267 E.01275
G1 X181.773 Y144.274 E.67647
G1 X181.61 Y144.218 E.01151
G1 X181.517 Y144.085 E.01084
G1 X181.505 Y139.942 E.27678
G1 X181.545 Y139.828 E.00807
G1 X182.129 Y139.69 F90000
G1 X181.215 Y139.382
;TYPE:Perimeter
G1 F1200
G1 X181.392 Y139.235 E.01537
G1 X181.773 Y139.138 E.02626
G1 X183.01 Y139.138 E.08264
G1 X182.947 Y139.08 E.00572
G1 X183.069 Y138.574 E.03477
G1 X185.024 Y135.507 E.24298
G1 X185.264 Y135.267 E.02267
G1 X185.509 Y135.161 E.01783
G1 X186.057 Y135.138 E.03664
G1 X187.911 Y135.138 E.12386
G1 X188.218 Y135.199 E.02091
G1 X188.441 Y135.338 E.01755
G1 X188.849 Y135.918 E.04737
G1 X190.542 Y138.574 E.21042
G1 X190.664 Y139.08 E.03477
G1 X190.61 Y139.138 E.00529
G1 X191.837 Y139.138 E.08197
G1 X192.174 Y139.212 E.02305
G1 X192.34 Y139.315 E.01305
G1 X192.492 Y139.475 E.01474
G1 X192.601 Y139.691 E.01616
G1 X192.641 Y139.942 E.01698
G1 X192.641 Y144.006 E.2715
G1 X192.602 Y144.254 E.01677
G1 X192.495 Y144.468 E.01598
G1 X192.346 Y144.628 E.01461
G1 X192.022 Y144.788 E.02414
G1 X191.017 Y144.809 E.06715
G1 X181.773 Y144.809 E.61755
G1 X181.433 Y144.734 E.02326
G1 X181.154 Y144.519 E.02353
G1 X181.005 Y144.242 E.02101
G1 X180.97 Y143.785 E.03062
G1 X180.97 Y139.942 E.25673
G1 X181.006 Y139.703 E.01615
G1 X181.146 Y139.439 E.01996
G10 ; retract
G1 X181.146 Y139.439 F90000
G1 X183.578 Y139.108
G11 ; unretract
;TYPE:External perimeter
G1 F1200
G1 X183.48 Y139.031 E.00833
G1 X183.521 Y138.862 E.01162
G1 X185.475 Y135.797 E.24283
G1 X185.617 Y135.687 E.012
G1 X187.911 Y135.674 E.15325
G1 X188.088 Y135.74 E.01262
G1 X190.09 Y138.862 E.24776
G1 X190.131 Y139.031 E.01162
G1 X189.997 Y139.135 E.01133
;WIDTH:0.566095
G1 X189.864 Y139.24 E.0106
;WIDTH:0.53219
G1 X183.747 Y139.24 E.35691
;WIDTH:0.566095
G1 X183.649 Y139.163 E.0078
G1 X183.686 Y138.564 F90000
G10 ; retract
G1 X187.929 Y129.581
G11 ; unretract
;WIDTH:0.6
G1 F1200
G1 X187.468 Y129.367 E.03395
G1 X186.883 Y128.965 E.04742
G1 X186.478 Y128.592 E.03678
G1 X186.083 Y128.103 E.04199
G1 X185.766 Y127.558 E.04212
G1 X185.536 Y126.972 E.04206
G1 X185.397 Y126.357 E.04212
G1 X185.353 Y125.808 E.03679
G1 X185.391 Y125.183 E.04183
G1 X185.55 Y124.491 E.04743
G1 X185.749 Y123.978 E.03676
G1 X186.06 Y123.431 E.04204
G1 X186.451 Y122.937 E.04209
G1 X186.912 Y122.508 E.04207
G1 X187.433 Y122.154 E.04208
G1 X187.928 Y121.912 E.03681
G1 X188.523 Y121.718 E.04181
G1 X189.225 Y121.613 E.04742
G1 X189.776 Y121.61 E.03681
G1 X190.398 Y121.699 E.04198
G1 X191.001 Y121.882 E.0421
G1 X191.57 Y122.153 E.0421
G1 X192.09 Y122.508 E.04206
G1 X192.496 Y122.881 E.03683
G1 X192.875 Y123.341 E.03982
G1 X193.25 Y123.978 E.04938
G1 X193.454 Y124.491 E.03688
G1 X193.599 Y125.102 E.04195
G1 X193.65 Y125.73 E.04209
G1 X193.605 Y126.358 E.04206
G1 X193.466 Y126.972 E.04206
G1 X193.235 Y127.558 E.04208
G1 X192.917 Y128.102 E.0421
G1 X192.576 Y128.534 E.03677
G1 X192.122 Y128.966 E.04187
G1 X191.533 Y129.363 E.04745
G1 X191.039 Y129.604 E.03672
G1 X190.438 Y129.792 E.04207
G1 X189.815 Y129.887 E.0421
G1 X189.185 Y129.887 E.04209
G1 X188.563 Y129.791 E.04204
G1 X188.036 Y129.631 E.03679
G1 X188.01 Y129.619 E.00191
G1 X187.472 Y129.354 F90000
G1 X187.165 Y129.8
;TYPE:Perimeter
G1 F1200
G1 X186.577 Y129.405 E.04732
G1 X186.113 Y128.985 E.04181
G1 X185.664 Y128.437 E.04733
G1 X185.302 Y127.825 E.0475
G1 X185.036 Y127.165 E.04754
G1 X184.874 Y126.473 E.04748
G1 X184.819 Y125.848 E.04191
G1 X184.857 Y125.148 E.04683
G1 X185.029 Y124.369 E.05329
G1 X185.25 Y123.782 E.0419
G1 X185.596 Y123.164 E.04732
G1 X186.032 Y122.603 E.04747
G1 X186.549 Y122.114 E.04754
G1 X187.134 Y121.709 E.04753
G1 X187.695 Y121.429 E.04189
;WIDTH:0.624387
G1 X188.356 Y121.197 E.04893
G1 X189.149 Y121.092 E.05587
;WIDTH:0.582013
G1 X189.776 Y121.086 E.04048
;WIDTH:0.625486
G1 X190.479 Y121.156 E.04944
G1 X191.159 Y121.37 E.04989
;WIDTH:0.6
G1 X191.803 Y121.671 E.04749
G1 X192.394 Y122.067 E.04753
G1 X192.86 Y122.489 E.042
G1 X193.289 Y123.002 E.04468
G1 X193.715 Y123.711 E.05526
G1 X193.953 Y124.295 E.04213
G1 X194.121 Y124.98 E.04712
G1 X194.184 Y125.689 E.04755
G1 X194.139 Y126.399 E.04753
G1 X193.987 Y127.094 E.04753
G1 X193.732 Y127.757 E.04746
G1 X193.379 Y128.374 E.04749
G1 X192.995 Y128.868 E.0418
G1 X192.489 Y129.356 E.04696
G1 X191.83 Y129.809 E.05342
G1 X191.271 Y130.086 E.04168
G1 X190.596 Y130.304 E.04739
G1 X189.894 Y130.417 E.0475
G1 X189.182 Y130.422 E.04757
G1 X188.479 Y130.32 E.04746
G1 X187.878 Y130.143 E.04186
G1 X187.24 Y129.851 E.04687
G10 ; retract
G1 X187.24 Y129.851 F90000
G1 X165.82 Y141.473
G11 ; unretract
;TYPE:External perimeter
G1 F1200
G1 X165.861 Y141.517 E.00402
G1 X165.88 Y141.711 E.01302
G1 X165.225 Y143.275 E.11328
G1 X165.938 Y143.483 E.04962
G1 X166.747 Y143.789 E.05778
G1 X167.22 Y143.992 E.03439
G1 X167.965 Y144.344 E.05505
G1 X168.921 Y144.891 E.07358
G1 X169.694 Y145.418 E.0625
G1 X170.183 Y145.794 E.04121
G1 X170.69 Y146.203 E.04352
G1 X171.342 Y146.817 E.05983
G1 X172.231 Y147.775 E.08731
G1 X172.756 Y148.455 E.05739
M73 P2 R23
G1 X173.507 Y149.57 E.08981
G1 X173.88 Y150.254 E.05205
G1 X174.252 Y151.022 E.05701
G1 X174.493 Y151.563 E.03957
G1 X174.854 Y152.581 E.07216
G1 X175.116 Y153.553 E.06725
G1 X175.296 Y154.475 E.06276
G1 X175.426 Y155.507 E.06949
G1 X175.48 Y156.579 E.07171
G1 X175.474 Y157.227 E.04329
G1 X175.432 Y158.026 E.05345
G1 X175.284 Y159.145 E.07541
G1 X175.216 Y159.291 E.01076
G1 X175.065 Y159.373 E.01148
G1 X175.019 Y159.377 E.00308
G1 X171.895 Y159.377 E.2087
G1 X171.732 Y159.322 E.01149
G1 X171.64 Y159.192 E.01064
G1 X171.631 Y159.063 E.00864
G1 X171.8 Y158.109 E.06472
G1 X171.88 Y157.196 E.06123
G1 X171.879 Y156.279 E.06126
G1 X171.797 Y155.366 E.06124
G1 X171.635 Y154.463 E.06129
G1 X171.394 Y153.579 E.06121
G1 X171.076 Y152.719 E.06125
G1 X170.683 Y151.89 E.06129
G1 X170.219 Y151.1 E.06121
G1 X169.687 Y150.353 E.06127
G1 X169.091 Y149.656 E.06127
G1 X168.436 Y149.015 E.06122
G1 X167.727 Y148.433 E.06128
G1 X166.969 Y147.917 E.06126
G1 X166.169 Y147.469 E.06125
G1 X165.333 Y147.094 E.06121
G1 X164.498 Y146.804 E.05905
G1 X163.814 Y146.63 E.04715
G1 X163.141 Y148.228 E.11584
G1 X163.003 Y148.369 E.01318
G1 X162.819 Y148.381 E.01232
G1 X162.685 Y148.291 E.01078
G1 X158.684 Y143.256 E.42963
G1 X158.626 Y143.089 E.01181
G1 X158.675 Y142.935 E.0108
G1 X158.837 Y142.827 E.01301
G1 X165.569 Y141.376 E.46006
G1 X165.758 Y141.409 E.01282
G1 X165.748 Y142.009 F90000
G1 X166.225 Y141.135
;TYPE:Perimeter
G1 F1200
G1 X166.304 Y141.213 E.00742
G1 X166.407 Y141.463 E.01806
G1 X166.411 Y141.795 E.02218
G1 X165.951 Y142.929 E.08175
G1 X166.937 Y143.289 E.07012
G1 X167.449 Y143.508 E.0372
G1 X168.194 Y143.86 E.05505
G1 X169.188 Y144.427 E.07645
;WIDTH:0.640222
G1 X169.603 Y144.684 E.03506
;WIDTH:0.680444
G1 X170.018 Y144.942 E.03755
;WIDTH:0.691649
G1 X170.548 Y145.341 E.0519
;WIDTH:0.70895
G1 X171.06 Y145.743 E.05233
G1 X171.277 Y145.971 E.0253
;WIDTH:0.672633
G1 X171.493 Y146.2 E.02388
;WIDTH:0.636316
G1 X171.71 Y146.428 E.02245
;WIDTH:0.6
G1 X172.629 Y147.416 E.09014
G1 X173.181 Y148.128 E.06019
G1 X173.956 Y149.278 E.09264
G1 X174.35 Y149.997 E.05477
G1 X174.741 Y150.803 E.05985
G1 X174.997 Y151.383 E.04235
G1 X175.359 Y152.402 E.07224
G1 X175.634 Y153.415 E.07012
G1 X175.823 Y154.377 E.0655
G1 X175.959 Y155.451 E.07232
G1 X176 Y155.976 E.03518
G1 X176.024 Y156.911 E.06248
G1 X175.966 Y158.054 E.07646
G1 X175.815 Y159.215 E.07821
G1 X175.757 Y159.428 E.01475
G1 X175.61 Y159.654 E.01801
G1 X175.355 Y159.839 E.02105
G1 X175.019 Y159.913 E.02298
G1 X171.895 Y159.913 E.2087
G1 X171.703 Y159.89 E.01292
G1 X171.406 Y159.747 E.02202
G1 X171.223 Y159.55 E.01796
G1 X171.096 Y159.195 E.02519
G1 X171.161 Y158.648 E.0368
G1 X171.269 Y158.039 E.04132
G1 X171.345 Y157.173 E.05808
G1 X171.343 Y156.303 E.05812
G1 X171.266 Y155.437 E.05808
G1 X171.112 Y154.581 E.0581
G1 X170.883 Y153.742 E.0581
G1 X170.582 Y152.927 E.05804
G1 X170.209 Y152.141 E.05812
G1 X169.769 Y151.391 E.05809
G1 X169.264 Y150.683 E.0581
G1 X168.699 Y150.022 E.05809
G1 X168.078 Y149.414 E.05806
G1 X167.406 Y148.863 E.05805
G1 X166.687 Y148.373 E.05813
G1 X165.928 Y147.948 E.05811
G1 X165.135 Y147.592 E.05807
G1 X164.322 Y147.31 E.05749
G1 X164.129 Y147.261 E.0133
G1 X163.635 Y148.436 E.08515
G1 X163.448 Y148.707 E.022
G1 X163.161 Y148.882 E.02246
G1 X162.839 Y148.926 E.02171
G1 X162.513 Y148.831 E.02268
G1 X162.266 Y148.624 E.02153
G1 X158.264 Y143.589 E.42967
G1 X158.121 Y143.311 E.02088
G1 X158.102 Y142.95 E.02415
G1 X158.237 Y142.626 E.02345
G1 X158.462 Y142.411 E.02079
G1 X158.724 Y142.304 E.01891
G1 X165.453 Y140.853 E.45987
G1 X165.723 Y140.841 E.01806
G1 X166.039 Y140.951 E.02235
G1 X166.161 Y141.072 E.01148
G10 ; retract
G1 X166.161 Y141.072 F90000
G1 X159.649 Y154.761
G11 ; unretract
;TYPE:External perimeter
G1 F1200
G1 X159.674 Y154.773 E.00185
G1 X160.06 Y155.06 E.03213
G1 X160.377 Y155.422 E.03215
G1 X160.612 Y155.841 E.03209
G1 X160.755 Y156.299 E.03205
G1 X160.797 Y156.805 E.03392
G1 X160.743 Y157.255 E.03028
G1 X160.589 Y157.711 E.03215
G1 X160.344 Y158.124 E.03208
G1 X160.018 Y158.477 E.0321
G1 X159.626 Y158.755 E.0321
G1 X159.184 Y158.945 E.03214
G1 X158.645 Y159.039 E.03655
G1 X158.233 Y159.033 E.02753
G1 X157.764 Y158.928 E.03211
G1 X157.327 Y158.727 E.03213
G1 X156.976 Y158.471 E.02902
G1 X156.631 Y158.088 E.03444
G1 X156.389 Y157.659 E.0329
G1 X156.24 Y157.14 E.03607
G1 X156.213 Y156.734 E.02718
G1 X156.258 Y156.245 E.03281
G1 X156.412 Y155.789 E.03215
G1 X156.658 Y155.376 E.03211
G1 X156.983 Y155.023 E.03206
G1 X157.376 Y154.745 E.03216
G1 X157.817 Y154.555 E.03208
G1 X158.288 Y154.461 E.03209
G1 X158.85 Y154.484 E.03758
G1 X159.238 Y154.572 E.02658
G1 X159.567 Y154.724 E.02421
G1 X160.051 Y155.078 F90000
G1 X160.391 Y154.651
;TYPE:Perimeter
G1 F1200
G1 X160.742 Y155.018 E.03393
G1 X161.053 Y155.522 E.03956
G1 X161.253 Y156.079 E.03954
G1 X161.328 Y156.627 E.03695
G1 X161.288 Y157.257 E.04217
G1 X161.122 Y157.825 E.03953
G1 X160.841 Y158.346 E.03955
G1 X160.458 Y158.798 E.03958
G1 X159.989 Y159.16 E.03958
G1 X159.483 Y159.405 E.03756
G1 X158.88 Y159.557 E.04154
G1 X158.288 Y159.575 E.03957
G1 X157.706 Y159.469 E.03952
G1 X157.158 Y159.244 E.03957
G1 X156.646 Y158.893 E.04147
G1 X156.259 Y158.482 E.03771
G1 X155.966 Y158.009 E.03717
G1 X155.749 Y157.421 E.04187
G1 X155.676 Y156.9 E.03515
G1 X155.712 Y156.266 E.04242
G1 X155.88 Y155.675 E.04105
G1 X156.161 Y155.154 E.03955
G1 X156.544 Y154.702 E.03958
G1 X157.012 Y154.34 E.03953
G1 X157.546 Y154.083 E.03959
G1 X158.121 Y153.943 E.03954
G1 X158.713 Y153.925 E.03957
G1 X159.296 Y154.031 E.03959
G1 X159.844 Y154.256 E.03957
G1 X160.328 Y154.587 E.03917
G10 ; retract
