; generated by PrusaSlicer 2.8.0 on 2024-07-04 at 15:04:34 UTC


;
;

;
;
; 

; external perimeters extrusion width = 0.68mm
; perimeters extrusion width = 0.68mm
; infill extrusion width = 0.68mm
; solid infill extrusion width = 0.68mm
; top infill extrusion width = 0.60mm
; first layer extrusion width = 0.60mm

; external perimeters extrusion width = 0.68mm
; perimeters extrusion width = 0.68mm
; infill extrusion width = 0.68mm
; solid infill extrusion width = 0.68mm
; top infill extrusion width = 0.60mm
; first layer extrusion width = 0.60mm

M73 P0 R18

; printing object TitanCover_Original_Bearing.stl id:0 copy 0
; stop printing object TitanCover_Original_Bearing.stl id:0 copy 0
; printing object TitanCover_Original_Bearing.stl id:1 copy 0
; stop printing object TitanCover_Original_Bearing.stl id:1 copy 0

;TYPE:Custom
M98 P"start-print.g" F"GreenTec Carbon" S0.6 T240 B63
G21 ; set units to millimeters
G90 ; use absolute coordinates
M83 ; use relative distances for extrusion
; Filament gcode
M107
;LAYER_CHANGE
;Z:0.3
;HEIGHT:0.3
G10 ; retract
G1 Z.3 F90000
G1 X92.417 Y115.118
G11 ; unretract
;TYPE:Skirt/Brim
;WIDTH:0.6
G1 F1200
G1 X93.508 Y114.242 E.09347
G1 X96.5 Y113.482 E.20623
G1 X193.5 Y113.482 E6.48013
G1 X195.695 Y113.879 E.14902
G1 X197.612 Y115.019 E.149
G1 X199.008 Y116.758 E.14898
G1 X199.768 Y119.75 E.20623
G1 X199.768 Y165.4 E3.04967
G1 X199.371 Y167.595 E.14902
G1 X198.231 Y169.512 E.149
G1 X196.492 Y170.908 E.14898
G1 X193.5 Y171.668 E.20623
G1 X129.252 Y171.648 E4.29211
G1 X96.002 Y168.998 E2.22832
M73 P1 R18
G1 X93.846 Y168.428 E.14898
G1 X92.026 Y167.139 E.14899
G1 X90.772 Y165.295 E.14898
G1 X90.232 Y162.75 E.1738
G1 X90.232 Y119.75 E2.87263
G1 X90.629 Y117.555 E.14902
G1 X91.769 Y115.638 E.149
G1 X92.347 Y115.174 E.04952
G10 ; retract
G1 X92.347 Y115.174 F90000
; printing object TitanCover_Original_Bearing.stl id:0 copy 0
G1 X167.497 Y140.115
G11 ; unretract
;TYPE:External perimeter
;WIDTH:0.6
G1 F1200
G1 X167.711 Y139.617 E.03621
G1 X168.01 Y139.157 E.03665
G1 X168.446 Y138.699 E.04224
G1 X168.937 Y138.33 E.04103
G1 X169.435 Y138.074 E.03741
G1 X169.752 Y137.95 E.02274
G1 X170.263 Y137.836 E.03498
G1 X170.83 Y137.802 E.03795
G1 X171.394 Y137.862 E.03789
G1 X171.941 Y138.013 E.03791
G1 X172.456 Y138.252 E.03793
G1 X172.924 Y138.572 E.03787
G1 X173.333 Y138.965 E.03789
G1 X173.673 Y139.419 E.03789
G1 X173.933 Y139.924 E.03795
G1 X174.107 Y140.464 E.0379
G1 X174.19 Y141.024 E.03782
G1 X174.19 Y141.476 E.0302
G1 X174.117 Y141.993 E.03488
G1 X173.95 Y142.535 E.03789
G1 X173.696 Y143.043 E.03794
G1 X173.362 Y143.502 E.03792
G1 X172.958 Y143.9 E.03789
G1 X172.494 Y144.226 E.03788
G1 X171.982 Y144.472 E.03795
G1 X171.437 Y144.63 E.03791
G1 X170.874 Y144.697 E.03788
G1 X170.307 Y144.67 E.03792
G1 X169.752 Y144.55 E.03793
G1 X169.225 Y144.342 E.03785
G1 X168.835 Y144.116 E.03011
G1 X168.423 Y143.794 E.03493
G1 X168.037 Y143.378 E.03791
G1 X167.724 Y142.905 E.03789
G1 X167.494 Y142.386 E.03792
G1 X167.351 Y141.837 E.0379
G1 X167.301 Y141.272 E.03789
G1 X167.344 Y140.706 E.03792
G1 X167.468 Y140.2 E.0348
G1 X167.708 Y139.65 F90000
G1 X167.215 Y139.42
;TYPE:Perimeter
G1 F1200
G1 X167.236 Y139.37 E.00362
G1 X167.561 Y138.864 E.04018
G1 X167.9 Y138.469 E.03477
G1 X168.353 Y138.072 E.04024
G1 X168.832 Y137.766 E.03797
G1 X169.422 Y137.501 E.04321
G1 X170.147 Y137.313 E.05004
G1 X170.801 Y137.267 E.0438
G1 X171.453 Y137.329 E.04375
G1 X172.087 Y137.498 E.04383
G1 X172.684 Y137.768 E.04377
G1 X173.229 Y138.132 E.04378
G1 X173.603 Y138.48 E.03413
G1 X173.794 Y138.68 E.01848
G1 X174.104 Y139.102 E.03498
G1 X174.411 Y139.682 E.04384
G1 X174.618 Y140.303 E.04373
G1 X174.72 Y140.95 E.04376
G1 X174.72 Y141.55 E.04008
G1 X174.647 Y142.068 E.03495
G1 X174.461 Y142.696 E.04376
G1 X174.174 Y143.285 E.04377
G1 X173.794 Y143.82 E.04384
G1 X173.331 Y144.284 E.04379
G1 X172.799 Y144.666 E.04375
G1 X172.211 Y144.956 E.0438
G1 X171.583 Y145.145 E.04381
G1 X170.933 Y145.229 E.04378
G1 X170.278 Y145.205 E.04379
G1 X169.636 Y145.073 E.04379
G1 X169.025 Y144.839 E.04371
G1 X168.548 Y144.57 E.03658
G1 X168.12 Y144.237 E.03623
G1 X167.722 Y143.827 E.03817
G1 X167.326 Y143.275 E.04538
G1 X167.048 Y142.703 E.04249
G1 X166.832 Y141.968 E.05118
G1 X166.767 Y141.316 E.04377
G1 X166.81 Y140.662 E.04379
G1 X166.96 Y140.024 E.04378
G1 X167.18 Y139.503 E.03778
G10 ; retract
G1 X168.705 Y132.565 F90000
G11 ; unretract
;TYPE:External perimeter
G1 F1200
G1 X168.67 Y132.559 E.00237
G1 X168.421 Y132.446 E.01827
G1 X168.209 Y132.272 E.01832
G1 X168.05 Y132.05 E.01824
G1 X167.954 Y131.793 E.01833
G1 X167.934 Y131.487 E.02049
G1 X168.085 Y131.002 E.03393
G1 X168.231 Y130.815 E.01585
G1 X170.009 Y129.037 E.16798
G1 X170.287 Y128.846 E.02253
G1 X170.746 Y128.736 E.03153
G1 X171.054 Y128.778 E.02077
G1 X171.304 Y128.891 E.01833
G1 X171.491 Y129.037 E.01585
G1 X173.269 Y130.815 E.16798
G1 X173.455 Y131.073 E.02125
G1 X173.546 Y131.318 E.01746
G1 X173.573 Y131.591 E.01833
G1 X173.528 Y131.861 E.01829
G1 X173.415 Y132.11 E.01827
G1 X173.241 Y132.322 E.01832
G1 X173.019 Y132.481 E.01824
G1 X172.762 Y132.577 E.01833
G1 X172.169 Y132.606 E.03966
G1 X168.973 Y132.606 E.21351
G1 X168.794 Y132.578 E.0121
G1 X168.266 Y132.294 F90000
G1 X167.864 Y132.668
;TYPE:Perimeter
G1 F1200
G1 X167.785 Y132.598 E.00705
G1 X167.555 Y132.255 E.02759
G1 X167.423 Y131.863 E.02763
G1 X167.397 Y131.445 E.02798
G1 X167.521 Y130.958 E.03357
G1 X167.66 Y130.676 E.021
G1 X167.853 Y130.436 E.02057
G1 X169.63 Y128.658 E.16793
G1 X169.997 Y128.386 E.03052
G1 X170.504 Y128.229 E.03546
G1 X170.798 Y128.203 E.01972
G1 X171.259 Y128.283 E.03126
G1 X171.63 Y128.466 E.02764
G1 X171.87 Y128.658 E.02053
G1 X173.647 Y130.436 E.16793
G1 X173.93 Y130.825 E.03214
G1 X174.077 Y131.249 E.02998
G1 X174.104 Y131.661 E.02758
G1 X174.023 Y132.066 E.02759
G1 X173.84 Y132.436 E.02758
G1 X173.567 Y132.747 E.02765
G1 X173.223 Y132.976 E.02761
G1 X172.832 Y133.108 E.02757
G1 X172.169 Y133.142 E.04435
G1 X168.973 Y133.142 E.21351
G1 X168.484 Y133.061 E.03311
G1 X168.095 Y132.871 E.02892
G1 X167.931 Y132.727 E.01458
G10 ; retract
G1 X167.931 Y132.727 F90000
G1 X161.794 Y138.737
G11 ; unretract
;TYPE:External perimeter
G1 F1200
G1 X161.822 Y138.759 E.00238
G1 X162.016 Y139.067 E.02432
G1 X162.105 Y139.455 E.02659
G1 X162.106 Y143.027 E.23863
G1 X162.059 Y143.33 E.02048
G1 X161.893 Y143.648 E.02396
G1 X161.61 Y143.915 E.02599
G1 X161.293 Y144.046 E.02291
G1 X161.021 Y144.073 E.01826
G1 X160.673 Y143.996 E.02381
G1 X160.341 Y143.792 E.02603
G1 X158.537 Y141.991 E.17029
G1 X158.356 Y141.744 E.02046
G1 X158.26 Y141.487 E.01833
G1 X158.233 Y141.215 E.01826
M73 P2 R18
G1 X158.316 Y140.852 E.02488
G1 X158.531 Y140.516 E.02665
G1 X160.315 Y138.731 E.16859
G1 X160.593 Y138.54 E.02253
G1 X161.052 Y138.43 E.03153
G1 X161.361 Y138.472 E.02083
G1 X161.61 Y138.585 E.01827
G1 X161.725 Y138.679 E.00992
G1 X162.025 Y139.199 F90000
G1 X162.575 Y139.068
;TYPE:Perimeter
G1 F1200
G1 X162.608 Y139.168 E.00703
G1 X162.642 Y140.011 E.05636
G1 X162.642 Y143.027 E.20148
G1 X162.572 Y143.486 E.03102
G1 X162.371 Y143.905 E.03105
G1 X162.098 Y144.215 E.0276
G1 X161.755 Y144.445 E.02759
G1 X161.363 Y144.577 E.02763
G1 X160.951 Y144.604 E.02758
G1 X160.546 Y144.523 E.02759
G1 X160.176 Y144.34 E.02758
G1 X159.672 Y143.884 E.04541
G1 X158.158 Y142.37 E.14304
G1 X157.861 Y141.949 E.03442
G1 X157.729 Y141.557 E.02763
G1 X157.702 Y141.145 E.02758
G1 X157.783 Y140.74 E.02759
G1 X157.966 Y140.37 E.02758
G1 X158.452 Y139.836 E.04824
G1 X159.936 Y138.353 E.14016
G1 X160.339 Y138.063 E.03317
G1 X160.867 Y137.909 E.03674
G1 X161.363 Y137.923 E.03315
G1 X161.846 Y138.1 E.03437
G1 X162.226 Y138.407 E.03264
G1 X162.476 Y138.777 E.02983
G1 X162.546 Y138.983 E.01453
G10 ; retract
G1 X162.546 Y138.983 F90000
G1 X153.799 Y132.749
G11 ; unretract
;TYPE:External perimeter
G1 F1200
G1 X153.748 Y132.839 E.00691
G1 X153.489 Y133.154 E.02724
G1 X153.114 Y133.457 E.03221
G1 X152.685 Y133.68 E.0323
G1 X152.221 Y133.811 E.03221
G1 X151.74 Y133.848 E.03223
G1 X151.262 Y133.787 E.03219
G1 X150.812 Y133.635 E.03173
G1 X150.497 Y133.462 E.02401
G1 X150.12 Y133.161 E.03223
G1 X149.811 Y132.791 E.0322
G1 X149.583 Y132.366 E.03222
M73 P2 R17
G1 X149.444 Y131.904 E.03223
G1 X149.401 Y131.477 E.02867
G1 X149.455 Y130.944 E.03579
G1 X149.604 Y130.485 E.03224
G1 X149.842 Y130.065 E.03225
G1 X150.159 Y129.702 E.0322
G1 X150.543 Y129.409 E.03227
G1 X150.967 Y129.203 E.03149
G1 X151.314 Y129.102 E.02414
G1 X151.794 Y129.052 E.03224
G1 X152.274 Y129.099 E.03222
G1 X152.735 Y129.241 E.03223
G1 X153.159 Y129.473 E.03229
G1 X153.527 Y129.785 E.03223
G1 X153.825 Y130.164 E.03221
G1 X154.041 Y130.595 E.03221
G1 X154.166 Y131.061 E.03223
G1 X154.196 Y131.533 E.0316
G1 X154.112 Y132.05 E.03499
G1 X154.021 Y132.355 E.02126
G1 X153.843 Y132.671 E.02423
G1 X153.472 Y133.143 F90000
G10 ; retract
G1 X154.225 Y153.933
G11 ; unretract
G1 F1200
G1 X154.706 Y153.801 E.03332
G1 X155.227 Y153.751 E.03497
G1 X155.748 Y153.792 E.03491
G1 X156.254 Y153.924 E.03493
G1 X156.729 Y154.141 E.03489
G1 X157.16 Y154.438 E.03497
G1 X157.532 Y154.804 E.03486
G1 X157.836 Y155.23 E.03496
G1 X158.06 Y155.702 E.0349
G1 X158.199 Y156.206 E.03493
G1 X158.249 Y156.727 E.03497
G1 X158.208 Y157.248 E.03491
G1 X158.076 Y157.754 E.03493
G1 X157.859 Y158.229 E.03489
G1 X157.562 Y158.66 E.03497
G1 X157.196 Y159.032 E.03486
G1 X156.77 Y159.336 E.03496
G1 X156.298 Y159.56 E.0349
G1 X155.794 Y159.699 E.03493
G1 X155.273 Y159.749 E.03497
G1 X154.752 Y159.708 E.03491
G1 X154.246 Y159.576 E.03493
G1 X153.771 Y159.359 E.03489
G1 X153.34 Y159.062 E.03497
G1 X152.968 Y158.696 E.03486
G1 X152.664 Y158.27 E.03496
G1 X152.44 Y157.798 E.0349
G1 X152.301 Y157.294 E.03493
G1 X152.251 Y156.773 E.03497
G1 X152.292 Y156.252 E.03491
G1 X152.424 Y155.746 E.03493
G1 X152.641 Y155.271 E.03489
G1 X152.938 Y154.84 E.03497
G1 X153.304 Y154.468 E.03486
G1 X153.73 Y154.164 E.03496
G1 X154.142 Y153.968 E.03048
G1 X154.722 Y153.814 F90000
G1 X154.043 Y153.435
;TYPE:Perimeter
G1 F1200
G1 X154.568 Y153.283 E.03651
G1 X155.18 Y153.217 E.04112
G1 X155.692 Y153.25 E.03428
G1 X156.392 Y153.406 E.04791
G1 X156.956 Y153.656 E.04121
G1 X157.467 Y153.999 E.04111
G1 X157.911 Y154.426 E.04115
G1 X158.212 Y154.834 E.03387
G1 X158.51 Y155.4 E.04273
G1 X158.717 Y156.068 E.04672
G1 X158.783 Y156.68 E.04112
G1 X158.741 Y157.294 E.04111
G1 X158.594 Y157.892 E.04114
G1 X158.344 Y158.456 E.04121
G1 X158.001 Y158.967 E.04111
G1 X157.574 Y159.411 E.04115
G1 X157.077 Y159.774 E.04112
G1 X156.524 Y160.046 E.04117
G1 X155.932 Y160.217 E.04117
G1 X155.32 Y160.283 E.04112
G1 X154.706 Y160.241 E.04111
G1 X154.108 Y160.094 E.04114
G1 X153.544 Y159.844 E.04121
G1 X153.033 Y159.501 E.04111
G1 X152.589 Y159.074 E.04115
G1 X152.226 Y158.577 E.04112
G1 X151.954 Y158.024 E.04117
G1 X151.783 Y157.432 E.04117
G1 X151.717 Y156.82 E.04112
G1 X151.759 Y156.206 E.04111
G1 X151.906 Y155.608 E.04114
G1 X152.156 Y155.044 E.04121
G1 X152.499 Y154.533 E.04111
G1 X152.926 Y154.089 E.04115
G1 X153.423 Y153.726 E.04112
G1 X153.958 Y153.463 E.03983
G10 ; retract
G1 X153.958 Y153.463 F90000
G1 X167.966 Y151.215
G11 ; unretract
;TYPE:External perimeter
G1 F1200
G1 X167.954 Y151.182 E.00235
G1 X167.927 Y150.909 E.01833
G1 X167.972 Y150.639 E.01829
G1 X168.085 Y150.39 E.01827
G1 X168.259 Y150.178 E.01832
G1 X168.481 Y150.019 E.01824
G1 X168.738 Y149.923 E.01833
G1 X169.69 Y149.894 E.06363
G1 X172.527 Y149.894 E.18953
G1 X172.83 Y149.941 E.02048
G1 X173.079 Y150.054 E.01827
G1 X173.291 Y150.228 E.01832
G1 X173.45 Y150.45 E.01824
G1 X173.548 Y150.741 E.02051
G1 X173.546 Y151.183 E.02953
G1 X173.415 Y151.498 E.02279
G1 X173.189 Y151.765 E.02337
G1 X171.491 Y153.463 E.16042
G1 X171.244 Y153.644 E.02046
G1 X170.987 Y153.74 E.01833
G1 X170.715 Y153.767 E.01826
G1 X170.445 Y153.722 E.01829
G1 X170.196 Y153.609 E.01827
G1 X170.009 Y153.463 E.01585
G1 X168.231 Y151.685 E.16798
G1 X168.05 Y151.438 E.02046
G1 X167.998 Y151.299 E.00991
G1 X167.981 Y150.699 F90000
G1 X167.457 Y150.537
;TYPE:Perimeter
G1 F1200
G1 X167.477 Y150.434 E.00701
G1 X167.66 Y150.064 E.02758
G1 X167.933 Y149.753 E.02765
G1 X168.277 Y149.524 E.02761
G1 X168.668 Y149.392 E.02757
G1 X169.69 Y149.358 E.06831
G1 X172.527 Y149.358 E.18953
G1 X173.035 Y149.446 E.03444
G1 X173.405 Y149.629 E.02758
G1 X173.715 Y149.902 E.0276
G1 X173.945 Y150.245 E.02759
G1 X174.08 Y150.663 E.02934
G1 X174.077 Y151.257 E.03968
G1 X173.915 Y151.707 E.03195
G1 X173.568 Y152.144 E.03728
G1 X171.87 Y153.842 E.16042
G1 X171.449 Y154.139 E.03442
G1 X171.057 Y154.271 E.02763
G1 X170.645 Y154.298 E.02758
G1 X170.24 Y154.217 E.02759
G1 X169.87 Y154.034 E.02758
G1 X169.63 Y153.842 E.02053
G1 X167.853 Y152.064 E.16793
G1 X167.581 Y151.699 E.03041
G1 X167.423 Y151.252 E.03167
G1 X167.396 Y150.839 E.02765
G1 X167.439 Y150.626 E.01452
G10 ; retract
G1 X167.439 Y150.626 F90000
G1 X179.54 Y143.547
G11 ; unretract
;TYPE:External perimeter
G1 F1200
G1 X179.519 Y143.519 E.00234
G1 X179.423 Y143.262 E.01833
G1 X179.394 Y142.462 E.05348
G1 X179.394 Y139.473 E.19968
G1 X179.441 Y139.17 E.02048
G1 X179.554 Y138.921 E.01827
G1 X179.728 Y138.709 E.01832
G1 X179.981 Y138.54 E.02033
G1 X180.415 Y138.429 E.02993
G1 X180.749 Y138.472 E.0225
G1 X180.998 Y138.585 E.01827
G1 X181.185 Y138.731 E.01585
G1 X182.963 Y140.509 E.16798
G1 X183.144 Y140.756 E.02046
G1 X183.24 Y141.013 E.01833
G1 X183.267 Y141.285 E.01826
G1 X183.222 Y141.555 E.01829
G1 X183.109 Y141.804 E.01827
G1 X182.963 Y141.991 E.01585
G1 X181.185 Y143.769 E.16798
G1 X180.938 Y143.95 E.02046
G1 X180.682 Y144.046 E.01827
G1 X180.409 Y144.073 E.01833
G1 X180.139 Y144.028 E.01829
G1 X179.89 Y143.915 E.01827
G1 X179.678 Y143.741 E.01832
G1 X179.592 Y143.62 E.00992
G1 X179.432 Y143.042 F90000
G1 X178.925 Y143.432
;TYPE:Perimeter
G1 F1200
G1 X178.892 Y143.332 E.00703
G1 X178.858 Y142.462 E.05817
G1 X178.858 Y139.473 E.19968
G1 X178.946 Y138.965 E.03444
G1 X179.129 Y138.595 E.02758
G1 X179.402 Y138.284 E.02765
G1 X179.774 Y138.044 E.02957
G1 X180.287 Y137.903 E.03554
G1 X180.415 Y137.893 E.00858
G1 X180.927 Y137.966 E.03455
G1 X181.324 Y138.16 E.02952
G1 X181.564 Y138.353 E.02057
G1 X183.342 Y140.13 E.16793
G1 X183.639 Y140.551 E.03442
G1 X183.771 Y140.943 E.02763
G1 X183.798 Y141.355 E.02758
G1 X183.717 Y141.76 E.02759
G1 X183.534 Y142.13 E.02758
G1 X183.342 Y142.37 E.02053
G1 X181.564 Y144.147 E.16793
G1 X181.183 Y144.427 E.03159
G1 X180.752 Y144.577 E.03049
G1 X180.339 Y144.604 E.02765
G1 X179.934 Y144.523 E.02759
G1 X179.564 Y144.34 E.02758
G1 X179.253 Y144.067 E.02765
G1 X179.024 Y143.723 E.02761
G1 X178.954 Y143.517 E.01453
G10 ; retract
G1 X178.954 Y143.517 F90000
G1 X185.735 Y128.09
G11 ; unretract
;TYPE:External perimeter
G1 F1200
G1 X185.712 Y128.087 E.00155
G1 X185.262 Y127.935 E.03173
G1 X184.942 Y127.758 E.02443
G1 X184.57 Y127.461 E.0318
G1 X184.261 Y127.091 E.0322
G1 X184.033 Y126.666 E.03222
G1 X183.905 Y126.256 E.02869
G1 X183.851 Y125.723 E.03579
G1 X183.905 Y125.244 E.0322
G1 X184.054 Y124.785 E.03224
G1 X184.292 Y124.365 E.03225
G1 X184.609 Y124.002 E.0322
G1 X184.993 Y123.709 E.03227
G1 X185.417 Y123.503 E.03149
G1 X185.764 Y123.402 E.02414
G1 X186.244 Y123.352 E.03224
G1 X186.724 Y123.399 E.03222
G1 X187.185 Y123.541 E.03223
G1 X187.609 Y123.773 E.03229
G1 X187.977 Y124.085 E.03223
G1 X188.275 Y124.464 E.03221
G1 X188.491 Y124.895 E.03221
G1 X188.615 Y125.354 E.03176
G1 X188.646 Y125.712 E.02401
G1 X188.606 Y126.192 E.03218
G1 X188.471 Y126.655 E.03222
G1 X188.245 Y127.081 E.03222
G1 X187.939 Y127.454 E.03223
G1 X187.564 Y127.757 E.03221
G1 X187.135 Y127.98 E.0323
G1 X186.671 Y128.111 E.03221
G1 X186.19 Y128.148 E.03223
G1 X185.824 Y128.101 E.02465
G1 X185.255 Y127.913 F90000
G1 X185.615 Y128.604
;TYPE:Perimeter
G1 F1200
G1 X185.138 Y128.462 E.03325
G1 X184.672 Y128.223 E.03499
G1 X184.239 Y127.887 E.03661
G1 X183.885 Y127.483 E.03588
G1 X183.585 Y126.974 E.03947
G1 X183.394 Y126.416 E.0394
G1 X183.32 Y125.845 E.03846
G1 X183.361 Y125.242 E.04038
G1 X183.522 Y124.675 E.03938
G1 X183.793 Y124.15 E.03947
G1 X184.163 Y123.691 E.03939
G1 X184.618 Y123.316 E.03939
G1 X185.138 Y123.039 E.03936
