; generated by PrusaSlicer 2.8.0 on 2024-07-03 at 21:39:07 UTC


;
;

;
;
; 

; external perimeters extrusion width = 0.68mm
; perimeters extrusion width = 0.68mm
; infill extrusion width = 0.68mm
; solid infill extrusion width = 0.68mm
; top infill extrusion width = 0.60mm
; first layer extrusion width = 0.60mm

; external perimeters extrusion width = 0.68mm
; perimeters extrusion width = 0.68mm
; infill extrusion width = 0.68mm
; solid infill extrusion width = 0.68mm
; top infill extrusion width = 0.60mm
; first layer extrusion width = 0.60mm

; external perimeters extrusion width = 0.68mm
; perimeters extrusion width = 0.68mm
; infill extrusion width = 0.68mm
; solid infill extrusion width = 0.68mm
; top infill extrusion width = 0.60mm
; first layer extrusion width = 0.60mm

; external perimeters extrusion width = 0.68mm
; perimeters extrusion width = 0.68mm
; infill extrusion width = 0.68mm
; solid infill extrusion width = 0.68mm
; top infill extrusion width = 0.60mm
; first layer extrusion width = 0.60mm

M73 P0 R147

; printing object LED Strip Seite.stl id:0 copy 0
; stop printing object LED Strip Seite.stl id:0 copy 0
; printing object LED Strip Seite.stl id:3 copy 0
; stop printing object LED Strip Seite.stl id:3 copy 0
; printing object LED Strip Seite.stl id:1 copy 0
; stop printing object LED Strip Seite.stl id:1 copy 0
; printing object LED Strip Seite.stl id:2 copy 0
; stop printing object LED Strip Seite.stl id:2 copy 0

;TYPE:Custom
M98 P"start-print.g" F"ApolloX" S0.6 T250 B90
G21 ; set units to millimeters
G90 ; use absolute coordinates
M83 ; use relative distances for extrusion
; Filament gcode
M107
;LAYER_CHANGE
;Z:0.3
;HEIGHT:0.3
G10 ; retract
G1 Z.3 F90000
G1 X94.129 Y25.305
G11 ; unretract
;TYPE:Skirt/Brim
;WIDTH:0.6
G1 F1200
G1 X95.269 Y23.388 E.149
G1 X97.008 Y21.992 E.14898
G1 X100 Y21.232 E.20623
G1 X190 Y21.232 E6.01249
G1 X192.195 Y21.629 E.14902
G1 X194.112 Y22.769 E.149
G1 X195.508 Y24.508 E.14898
G1 X196.268 Y27.5 E.20623
G1 X196.268 Y262.5 E15.69927
G1 X195.871 Y264.695 E.14902
G1 X194.731 Y266.612 E.149
G1 X192.992 Y268.008 E.14898
G1 X190 Y268.768 E.20623
G1 X100 Y268.768 E6.01249
G1 X97.805 Y268.371 E.14902
G1 X95.888 Y267.231 E.149
G1 X94.492 Y265.492 E.14898
G1 X93.732 Y262.5 E.20623
G1 X93.732 Y27.5 E15.69927
G1 X94.113 Y25.394 E.14298
M73 P0 R146
G10 ; retract
G1 X94.113 Y25.394 F90000
; printing object LED Strip Seite.stl id:0 copy 0
G1 X179.363 Y143.049
G11 ; unretract
;TYPE:External perimeter
;WIDTH:0.6
G1 F1200
G1 X179.379 Y143.032 E.00156
G1 X179.746 Y142.781 E.0297
G1 X180.15 Y142.597 E.02966
G1 X180.58 Y142.486 E.02967
G1 X181.012 Y142.452 E.02895
G1 X181.466 Y142.494 E.03046
G1 X181.894 Y142.613 E.02968
G1 X182.295 Y142.804 E.02967
G1 X182.656 Y143.062 E.02964
G1 X182.968 Y143.379 E.02971
G1 X183.219 Y143.746 E.0297
G1 X183.403 Y144.15 E.02966
G1 X183.514 Y144.58 E.02967
G1 X183.549 Y145.023 E.02969
G1 X183.506 Y145.466 E.02973
G1 X183.387 Y145.894 E.02968
G1 X183.196 Y146.295 E.02967
G1 X182.938 Y146.656 E.02964
G1 X182.621 Y146.968 E.02971
G1 X182.254 Y147.219 E.0297
G1 X181.85 Y147.403 E.02966
G1 X181.42 Y147.514 E.02967
G1 X180.977 Y147.549 E.02969
G1 X180.534 Y147.506 E.02973
G1 X180.106 Y147.387 E.02968
G1 X179.705 Y147.196 E.02967
G1 X179.344 Y146.938 E.02964
G1 X179.032 Y146.621 E.02971
G1 X178.781 Y146.254 E.0297
G1 X178.597 Y145.85 E.02966
G1 X178.486 Y145.42 E.02967
G1 X178.451 Y144.977 E.02969
G1 X178.494 Y144.534 E.02973
G1 X178.613 Y144.106 E.02968
G1 X178.804 Y143.705 E.02967
G1 X179.062 Y143.344 E.02964
G1 X179.298 Y143.112 E.02211
G1 X179.795 Y142.774 F90000
G1 X179.461 Y142.334
;TYPE:Perimeter
G1 F1200
G1 X179.519 Y142.295 E.00467
G1 X180.011 Y142.079 E.0359
G1 X180.534 Y141.952 E.03595
G1 X181.057 Y141.918 E.03501
G1 X181.604 Y141.976 E.03675
G1 X182.12 Y142.127 E.03592
G1 X182.602 Y142.365 E.03591
G1 X183.035 Y142.684 E.03593
G1 X183.406 Y143.072 E.03586
G1 X183.705 Y143.519 E.03593
G1 X183.921 Y144.011 E.0359
G1 X184.048 Y144.534 E.03595
G1 X184.083 Y145.07 E.03588
G1 X184.024 Y145.604 E.03589
G1 X183.873 Y146.12 E.03592
G1 X183.635 Y146.602 E.03591
G1 X183.316 Y147.035 E.03593
G1 X182.928 Y147.406 E.03586
G1 X182.481 Y147.705 E.03593
G1 X181.989 Y147.921 E.0359
G1 X181.466 Y148.048 E.03595
G1 X180.93 Y148.083 E.03588
G1 X180.396 Y148.024 E.03589
G1 X179.88 Y147.873 E.03592
G1 X179.398 Y147.635 E.03591
G1 X178.965 Y147.316 E.03593
G1 X178.594 Y146.928 E.03586
G1 X178.295 Y146.481 E.03593
G1 X178.079 Y145.989 E.0359
G1 X177.952 Y145.466 E.03595
G1 X177.917 Y144.93 E.03588
G1 X177.976 Y144.396 E.03589
G1 X178.127 Y143.88 E.03592
G1 X178.365 Y143.398 E.03591
G1 X178.684 Y142.965 E.03593
G1 X179.072 Y142.594 E.03586
G1 X179.386 Y142.384 E.02524
G10 ; retract
G1 X179.386 Y142.384 F90000
G1 X180.558 Y60.009
G11 ; unretract
;TYPE:External perimeter
G1 F1200
G1 X180.534 Y60.006 E.00162
G1 X180.106 Y59.887 E.02968
G1 X179.705 Y59.696 E.02967
G1 X179.344 Y59.438 E.02964
G1 X179.032 Y59.121 E.02971
G1 X178.781 Y58.754 E.0297
G1 X178.597 Y58.35 E.02966
G1 X178.486 Y57.92 E.02967
G1 X178.451 Y57.523 E.02662
G1 X178.494 Y57.034 E.03279
G1 X178.613 Y56.606 E.02968
G1 X178.804 Y56.205 E.02967
G1 X179.062 Y55.844 E.02964
G1 X179.379 Y55.532 E.02971
G1 X179.746 Y55.281 E.0297
G1 X180.15 Y55.097 E.02966
G1 X180.58 Y54.986 E.02967
G1 X181.012 Y54.952 E.02895
G1 X181.466 Y54.994 E.03046
G1 X181.894 Y55.113 E.02968
G1 X182.295 Y55.304 E.02967
G1 X182.656 Y55.562 E.02964
G1 X182.968 Y55.879 E.02971
G1 X183.219 Y56.246 E.0297
G1 X183.403 Y56.65 E.02966
G1 X183.514 Y57.08 E.02967
G1 X183.549 Y57.523 E.02969
G1 X183.506 Y57.966 E.02973
G1 X183.387 Y58.394 E.02968
G1 X183.196 Y58.795 E.02967
G1 X182.938 Y59.156 E.02964
G1 X182.621 Y59.468 E.02971
G1 X182.254 Y59.719 E.0297
G1 X181.85 Y59.903 E.02966
G1 X181.42 Y60.014 E.02967
G1 X180.977 Y60.049 E.02969
G1 X180.647 Y60.017 E.02215
G1 X180.07 Y59.854 F90000
G1 X179.947 Y60.392
;TYPE:Perimeter
G1 F1200
G1 X179.519 Y60.205 E.0312
G1 X179.072 Y59.906 E.03593
G1 X178.684 Y59.535 E.03586
G1 X178.365 Y59.102 E.03593
G1 X178.127 Y58.62 E.03591
G1 X177.976 Y58.104 E.03592
G1 X177.917 Y57.57 E.03589
G1 X177.952 Y57.034 E.03588
G1 X178.079 Y56.511 E.03595
G1 X178.295 Y56.019 E.0359
G1 X178.594 Y55.572 E.03593
G1 X178.965 Y55.184 E.03586
G1 X179.398 Y54.865 E.03593
G1 X179.88 Y54.627 E.03591
G1 X180.396 Y54.476 E.03592
G1 X180.92 Y54.418 E.03522
G1 X181.463 Y54.452 E.03635
G1 X181.989 Y54.579 E.03615
G1 X182.481 Y54.795 E.0359
G1 X182.928 Y55.094 E.03593
G1 X183.316 Y55.465 E.03586
G1 X183.635 Y55.898 E.03593
G1 X183.873 Y56.38 E.03591
G1 X184.024 Y56.896 E.03592
G1 X184.083 Y57.43 E.03589
G1 X184.048 Y57.966 E.03588
G1 X183.921 Y58.489 E.03595
G1 X183.705 Y58.981 E.0359
G1 X183.406 Y59.428 E.03593
G1 X183.035 Y59.816 E.03586
G1 X182.602 Y60.135 E.03593
G1 X182.12 Y60.373 E.03591
G1 X181.604 Y60.524 E.03592
G1 X181.07 Y60.583 E.03589
G1 X180.534 Y60.548 E.03588
G1 X180.031 Y60.425 E.03459
G10 ; retract
G1 X180.031 Y60.425 F90000
G1 X180.558 Y229.991
G11 ; unretract
;TYPE:External perimeter
G1 F1200
G1 X180.58 Y229.986 E.00151
G1 X181.012 Y229.952 E.02895
G1 X181.466 Y229.994 E.03046
G1 X181.894 Y230.113 E.02968
G1 X182.295 Y230.304 E.02967
G1 X182.656 Y230.562 E.02964
G1 X182.968 Y230.879 E.02971
G1 X183.219 Y231.246 E.0297
G1 X183.403 Y231.65 E.02966
G1 X183.514 Y232.08 E.02967
G1 X183.549 Y232.523 E.02969
G1 X183.506 Y232.966 E.02973
G1 X183.387 Y233.394 E.02968
G1 X183.196 Y233.795 E.02967
G1 X182.938 Y234.156 E.02964
G1 X182.621 Y234.468 E.02971
G1 X182.254 Y234.719 E.0297
G1 X181.85 Y234.903 E.02966
G1 X181.42 Y235.014 E.02967
G1 X181 Y235.05 E.02816
G1 X180.534 Y235.006 E.03127
G1 X180.106 Y234.887 E.02968
G1 X179.705 Y234.696 E.02967
G1 X179.344 Y234.438 E.02964
G1 X179.032 Y234.121 E.02971
G1 X178.781 Y233.754 E.0297
G1 X178.597 Y233.35 E.02966
G1 X178.486 Y232.92 E.02967
G1 X178.451 Y232.477 E.02969
G1 X178.494 Y232.034 E.02973
G1 X178.613 Y231.606 E.02968
G1 X178.804 Y231.205 E.02967
G1 X179.062 Y230.844 E.02964
G1 X179.379 Y230.532 E.02971
G1 X179.746 Y230.281 E.0297
G1 X180.15 Y230.097 E.02966
G1 X180.47 Y230.014 E.02209
G1 X181.069 Y229.971 F90000
G1 X181.534 Y229.469
;TYPE:Perimeter
G1 F1200
G1 X181.604 Y229.476 E.0047
G1 X182.12 Y229.627 E.03592
G1 X182.602 Y229.865 E.03591
G1 X183.035 Y230.184 E.03593
G1 X183.406 Y230.572 E.03586
G1 X183.705 Y231.019 E.03593
G1 X183.921 Y231.511 E.0359
G1 X184.048 Y232.034 E.03595
G1 X184.083 Y232.57 E.03588
G1 X184.024 Y233.104 E.03589
G1 X183.873 Y233.62 E.03592
G1 X183.635 Y234.102 E.03591
G1 X183.316 Y234.535 E.03593
G1 X182.928 Y234.906 E.03586
G1 X182.481 Y235.205 E.03593
G1 X181.989 Y235.421 E.0359
G1 X181.466 Y235.548 E.03595
G1 X181 Y235.586 E.03123
G1 X180.467 Y235.539 E.03575
G1 X179.88 Y235.373 E.04075
G1 X179.398 Y235.135 E.03591
G1 X178.965 Y234.816 E.03593
G1 X178.594 Y234.428 E.03586
G1 X178.295 Y233.981 E.03593
G1 X178.079 Y233.489 E.0359
G1 X177.952 Y232.966 E.03595
G1 X177.917 Y232.43 E.03588
G1 X177.976 Y231.896 E.03589
G1 X178.127 Y231.38 E.03592
G1 X178.365 Y230.898 E.03591
G1 X178.684 Y230.465 E.03593
G1 X179.072 Y230.094 E.03586
G1 X179.519 Y229.795 E.03593
G1 X180.011 Y229.579 E.0359
G1 X180.534 Y229.452 E.03595
G1 X181.057 Y229.418 E.03501
G1 X181.445 Y229.459 E.02606
G10 ; retract
G1 X181.445 Y229.459 F90000
G1 X189.7 Y262.2
G11 ; unretract
;TYPE:External perimeter
G1 F1200
G1 X172.3 Y262.2 E1.16241
G1 X172.3 Y27.8 E15.65917
G1 X189.7 Y27.8 E1.16241
G1 X189.7 Y36.5 E.58121
G1 X189.7 Y262.11 E15.07196
G1 X189.107 Y262.199 F90000
G1 X189.164 Y261.664
;TYPE:Perimeter
G1 F1200
G1 X172.836 Y261.664 E1.0908
G1 X172.836 Y28.336 E15.58756
G1 X189.164 Y28.336 E1.0908
G1 X189.164 Y36.5 E.5454
G1 X189.164 Y261.574 E15.03615
G10 ; retract
G1 X189.164 Y261.574 F90000
M73 P1 R145
G1 X189.004 Y29.582
G11 ; unretract
;TYPE:Solid infill
;WIDTH:0.601441
G1 F1200
G1 X188.159 Y28.737 E.08005
G1 X187.399 Y28.737 E.05091
G1 X188.763 Y30.101 E.12921
G1 X188.763 Y30.86 E.05084
G1 X186.64 Y28.737 E.20111
G1 X185.88 Y28.737 E.05091
G1 X188.763 Y31.62 E.27311
G1 X188.763 Y32.379 E.05084
G1 X185.121 Y28.737 E.34501
G1 X184.361 Y28.737 E.05091
G1 X188.763 Y33.139 E.41701
G1 X188.763 Y33.898 E.05084
G1 X183.602 Y28.737 E.48891
G1 X182.842 Y28.737 E.05091
G1 X188.763 Y34.658 E.5609
G1 X188.763 Y35.417 E.05084
G1 X182.083 Y28.737 E.6328
G1 X181.323 Y28.737 E.05091
G1 X188.763 Y36.177 E.7048
G1 X188.763 Y36.936 E.05084
G1 X180.564 Y28.737 E.7767
G1 X179.804 Y28.737 E.05091
G1 X188.763 Y37.696 E.8487
G1 X188.763 Y38.455 E.05084
G1 X179.045 Y28.737 E.9206
G1 X178.285 Y28.737 E.05091
G1 X188.763 Y39.215 E.99259
G1 X188.763 Y39.974 E.05084
G1 X177.526 Y28.737 E1.06449
G1 X176.766 Y28.737 E.05091
G1 X188.763 Y40.734 E1.13649
G1 X188.763 Y41.493 E.05084
G1 X176.007 Y28.737 E1.20839
G1 X175.247 Y28.737 E.05091
G1 X188.763 Y42.253 E1.28039
G1 X188.763 Y43.012 E.05084
G1 X174.488 Y28.737 E1.35229
G1 X173.728 Y28.737 E.05091
G1 X188.763 Y43.772 E1.42428
G1 X188.763 Y44.531 E.05084
G1 X173.237 Y29.006 E1.47075
G1 X173.237 Y29.766 E.05091
G1 X188.763 Y45.291 E1.47075
G1 X188.763 Y46.05 E.05084
G1 X173.237 Y30.525 E1.47075
G1 X173.237 Y31.285 E.05091
G1 X188.763 Y46.81 E1.47075
G1 X188.763 Y47.569 E.05084
G1 X173.237 Y32.044 E1.47075
G1 X173.237 Y32.804 E.05091
G1 X188.763 Y48.329 E1.47075
G1 X188.763 Y49.089 E.05091
G1 X173.237 Y33.563 E1.4708
G1 X173.237 Y34.323 E.05091
G1 X188.763 Y49.848 E1.47075
G1 X188.763 Y50.608 E.05091
G1 X173.237 Y35.082 E1.4708
G1 X173.237 Y35.842 E.05091
G1 X188.763 Y51.367 E1.47075
G1 X188.763 Y52.127 E.05091
G1 X173.237 Y36.601 E1.4708
G1 X173.237 Y37.361 E.05091
G1 X188.763 Y52.886 E1.47075
G1 X188.763 Y53.646 E.05091
G1 X173.237 Y38.12 E1.4708
G1 X173.237 Y38.88 E.05091
G1 X188.763 Y54.405 E1.47075
G1 X188.763 Y55.165 E.05091
G1 X173.237 Y39.639 E1.4708
G1 X173.237 Y40.399 E.05091
G1 X188.763 Y55.924 E1.47075
G1 X188.763 Y56.684 E.05091
G1 X173.237 Y41.158 E1.4708
G1 X173.237 Y41.918 E.05091
G1 X188.763 Y57.443 E1.47075
G1 X188.763 Y58.203 E.05091
G1 X173.237 Y42.677 E1.4708
G1 X173.237 Y43.437 E.05091
G1 X188.763 Y58.962 E1.47075
G1 X188.763 Y59.722 E.05091
G1 X173.237 Y44.196 E1.4708
G1 X173.237 Y44.956 E.05091
G1 X188.763 Y60.481 E1.47075
G1 X188.763 Y61.241 E.05091
G1 X184.433 Y56.911 E.41019
G1 X184.488 Y57.501 E.03969
G1 X184.47 Y57.707 E.01385
G1 X188.763 Y62 E.40668
G1 X188.763 Y62.76 E.05091
G1 X184.368 Y58.365 E.41634
G1 X184.307 Y58.598 E.01613
G1 X184.172 Y58.929 E.02395
G1 X188.763 Y63.519 E.43486
G1 X188.763 Y64.279 E.05091
G1 X183.903 Y59.419 E.46039
G1 X183.732 Y59.663 E.01996
G1 X183.572 Y59.848 E.01638
G1 X188.763 Y65.038 E.4917
G1 X188.763 Y65.798 E.05091
G1 X183.181 Y60.217 E.52874
G1 X182.729 Y60.524 E.0366
G1 X188.763 Y66.557 E.57156
G1 X188.763 Y67.317 E.05091
G1 X182.212 Y60.766 E.62058
G1 X181.618 Y60.931 E.0413
G1 X188.763 Y68.076 E.67685
G1 X188.763 Y68.836 E.05091
G1 X180.642 Y60.715 E.76931
G10 ; retract
G1 X180.642 Y60.715 F90000
G1 X181.917 Y54.395
G11 ; unretract
G1 F1200
G1 X173.237 Y45.715 E.82227
G1 X173.237 Y46.475 E.05091
G1 X180.789 Y54.027 E.71541
G1 X180.398 Y54.065 E.02631
G1 X180.135 Y54.132 E.01818
G1 X173.237 Y47.235 E.65341
G1 X173.237 Y47.994 E.05084
G1 X179.571 Y54.328 E.60003
G1 X179.344 Y54.434 E.01678
G1 X179.081 Y54.597 E.02073
G1 X173.237 Y48.754 E.55356
G1 X173.237 Y49.513 E.05084
G1 X178.652 Y54.928 E.51297
G1 X178.395 Y55.185 E.02435
G1 X178.283 Y55.319 E.0117
G1 X173.237 Y50.273 E.47801
G1 X173.237 Y51.032 E.05084
G1 X177.976 Y55.771 E.44893
G1 X177.734 Y56.288 E.03824
G1 X173.237 Y51.792 E.42596
G1 X173.237 Y52.551 E.05084
G1 X177.571 Y56.885 E.41057
G1 X177.512 Y57.501 E.04145
G1 X177.52 Y57.594 E.00625
G1 X173.237 Y53.311 E.40573
G1 X173.237 Y54.07 E.05084
G1 X177.667 Y58.5 E.41966
G1 X177.761 Y58.785 E.0201
G1 X177.934 Y59.156 E.02742
G1 X178.033 Y59.328 E.01329
G1 X178.268 Y59.663 E.02741
G1 X178.395 Y59.815 E.01327
G1 X178.685 Y60.105 E.02747
G1 X178.837 Y60.232 E.01327
G1 X179.172 Y60.467 E.02741
G1 X179.344 Y60.566 E.01329
G1 X179.715 Y60.739 E.02742
G1 X180 Y60.833 E.0201
G1 X188.763 Y69.595 E.83008
G1 X188.763 Y70.355 E.05091
G1 X173.237 Y54.83 E1.47075
G1 X173.237 Y55.589 E.05084
G1 X188.763 Y71.115 E1.4708
G1 X188.763 Y71.874 E.05084
G1 X173.237 Y56.349 E1.47075
G1 X173.237 Y57.108 E.05084
G1 X188.763 Y72.634 E1.4708
G1 X188.763 Y73.393 E.05084
G1 X173.237 Y57.868 E1.47075
G1 X173.237 Y58.627 E.05084
G1 X188.763 Y74.153 E1.4708
G1 X188.763 Y74.912 E.05084
G1 X173.237 Y59.387 E1.47075
M73 P1 R144
G1 X173.237 Y60.146 E.05084
G1 X188.763 Y75.672 E1.4708
G1 X188.763 Y76.431 E.05084
G1 X173.237 Y60.906 E1.47075
G1 X173.237 Y61.665 E.05084
G1 X188.763 Y77.191 E1.4708
G1 X188.763 Y77.95 E.05084
G1 X173.237 Y62.425 E1.47075
G1 X173.237 Y63.184 E.05084
G1 X188.763 Y78.71 E1.4708
G1 X188.763 Y79.469 E.05084
G1 X173.237 Y63.944 E1.47075
G1 X173.237 Y64.703 E.05084
G1 X188.763 Y80.229 E1.4708
G1 X188.763 Y80.988 E.05084
G1 X173.237 Y65.463 E1.47075
G1 X173.237 Y66.222 E.05084
G1 X188.763 Y81.748 E1.4708
G1 X188.763 Y82.507 E.05084
G1 X173.237 Y66.982 E1.47075
G1 X173.237 Y67.741 E.05084
G1 X188.763 Y83.267 E1.4708
G1 X188.763 Y84.026 E.05084
G1 X173.237 Y68.501 E1.47075
G1 X173.237 Y69.261 E.05091
G1 X188.763 Y84.786 E1.47075
G1 X188.763 Y85.545 E.05084
G1 X173.237 Y70.02 E1.47075
G1 X173.237 Y70.78 E.05091
G1 X188.763 Y86.305 E1.47075
G1 X188.763 Y87.064 E.05084
G1 X173.237 Y71.539 E1.47075
G1 X173.237 Y72.299 E.05091
G1 X188.763 Y87.824 E1.47075
G1 X188.763 Y88.583 E.05084
G1 X173.237 Y73.058 E1.47075
G1 X173.237 Y73.818 E.05091
G1 X188.763 Y89.343 E1.47075
G1 X188.763 Y90.102 E.05084
G1 X173.237 Y74.577 E1.47075
G1 X173.237 Y75.337 E.05091
G1 X188.763 Y90.862 E1.47075
G1 X188.763 Y91.622 E.05091
G1 X173.237 Y76.096 E1.4708
G1 X173.237 Y76.856 E.05091
G1 X188.763 Y92.381 E1.47075
G1 X188.763 Y93.141 E.05091
G1 X173.237 Y77.615 E1.4708
G1 X173.237 Y78.375 E.05091
G1 X188.763 Y93.9 E1.47075
G1 X188.763 Y94.66 E.05091
M73 P2 R144
G1 X173.237 Y79.134 E1.4708
G1 X173.237 Y79.894 E.05091
G1 X188.763 Y95.419 E1.47075
G1 X188.763 Y96.179 E.05091
G1 X173.237 Y80.653 E1.4708
