; generated by PrusaSlicer 2.8.0 on 2024-07-03 at 20:08:46 UTC


;
;

;
;
; 

; external perimeters extrusion width = 0.68mm
; perimeters extrusion width = 0.68mm
; infill extrusion width = 0.68mm
; solid infill extrusion width = 0.68mm
; top infill extrusion width = 0.60mm
; first layer extrusion width = 0.60mm

M73 P0 R30

; printing object Striphalter.stl id:0 copy 0
; stop printing object Striphalter.stl id:0 copy 0

;TYPE:Custom
M98 P"start-print.g" F"ApolloX" S0.6 T250 B90
G21 ; set units to millimeters
G90 ; use absolute coordinates
M83 ; use relative distances for extrusion
; Filament gcode
M107
;LAYER_CHANGE
;Z:0.3
;HEIGHT:0.3
G10 ; retract
G1 Z.3 F90000
G1 X43.341 Y43.341
G11 ; unretract
;TYPE:Skirt/Brim
;WIDTH:0.6
G1 F1200
G1 X49.174 Y37.507 E.55113
G1 X49.845 Y36.914 E.05982
G1 X51.042 Y36.113 E.09622
G1 X52.359 Y35.532 E.09616
G1 X53.758 Y35.188 E.09624
G1 X55.195 Y35.093 E.09621
G1 X56.283 Y35.188 E.07296
G1 X57.682 Y35.532 E.09624
G1 X59 Y36.113 E.09622
G1 X60.197 Y36.914 E.09622
G1 X60.818 Y37.46 E.05524
G1 X239.617 Y213.075 E16.74268
G1 X254.453 Y227.945 E1.40327
G1 X255.304 Y229.107 E.09622
G1 X255.94 Y230.399 E.0962
G1 X256.403 Y232.126 E.11945
G1 X256.498 Y233.563 E.09621
G1 X256.342 Y234.994 E.09616
G1 X256.059 Y236.05 E.07304
G1 X255.478 Y237.367 E.09616
G1 X254.677 Y238.564 E.09622
G1 X254.084 Y239.235 E.05982
G1 X240.953 Y252.332 E1.23897
G1 X239.791 Y253.183 E.09622
G1 X238.171 Y253.938 E.1194
G1 X236.772 Y254.281 E.09623
G1 X235.335 Y254.376 E.09621
G1 X233.904 Y254.221 E.09616
G1 X232.521 Y253.819 E.09622
G1 X231.229 Y253.183 E.0962
G1 X230.334 Y252.556 E.073
G1 X229.713 Y252.011 E.0552
G1 X35.547 Y62.055 E18.14646
G1 X34.696 Y60.893 E.09622
M73 P1 R30
G1 X34.06 Y59.601 E.0962
G1 X33.658 Y58.218 E.09622
G1 X33.502 Y56.786 E.09623
G1 X33.597 Y55.349 E.09621
G1 X33.941 Y53.95 E.09624
G1 X34.522 Y52.633 E.09616
G1 X35.323 Y51.436 E.09622
G1 X35.916 Y50.765 E.05982
G1 X43.277 Y43.404 E.69545
G10 ; retract
G1 X43.277 Y43.404 F90000
; printing object Striphalter.stl id:0 copy 0
G1 X232.902 Y241.338
G11 ; unretract
;TYPE:External perimeter
;WIDTH:0.6
G1 F1200
G1 X232.94 Y241.2 E.00956
G1 X243.275 Y230.855 E.97689
G1 X243.387 Y230.789 E.00868
G1 X243.567 Y230.797 E.01204
G1 X243.654 Y230.855 E.00699
G1 X246.528 Y233.729 E.27153
G1 X246.599 Y233.858 E.00984
G1 X246.558 Y234.072 E.01456
G1 X236.229 Y244.407 E.97614
G1 X236.104 Y244.477 E.00957
G1 X235.957 Y244.472 E.00983
G1 X235.851 Y244.407 E.00831
G1 X232.977 Y241.533 E.27153
G1 X232.929 Y241.421 E.00814
G1 X233.243 Y240.91 F90000
G1 X232.366 Y241.34
;TYPE:Perimeter
G1 F1200
G1 X232.397 Y241.109 E.01557
G1 X232.598 Y240.775 E.02604
G1 X242.897 Y230.477 E.97297
G1 X243.231 Y230.276 E.02604
G1 X243.484 Y230.242 E.01705
G1 X243.771 Y230.302 E.01959
G1 X244.033 Y230.477 E.02105
G1 X246.907 Y233.351 E.27153
G1 X247.121 Y233.736 E.02943
G1 X247.118 Y234.112 E.02512
G1 X246.996 Y234.38 E.01967
G1 X246.907 Y234.487 E.0093
G1 X236.608 Y244.785 E.97297
G1 X236.501 Y244.875 E.00934
G1 X236.233 Y244.997 E.01967
G1 X235.79 Y244.981 E.02961
G1 X235.472 Y244.785 E.02496
G1 X232.598 Y241.911 E.27153
G1 X232.423 Y241.649 E.02105
G1 X232.377 Y241.428 E.01508
G10 ; retract
G1 X232.377 Y241.428 F90000
M73 P2 R30
G1 X230.397 Y243.408
G11 ; unretract
;TYPE:External perimeter
G1 F1200
G1 X219.889 Y232.9 E.99276
G1 X219.565 Y232.452 E.03694
G1 X219.402 Y231.937 E.03609
G1 X219.409 Y231.397 E.03608
G1 X219.563 Y230.8 E.04119
G1 X219.6 Y230.435 E.02451
G1 X219.577 Y230.057 E.0253
G1 X219.5 Y229.71 E.02375
G1 X219.365 Y229.369 E.0245
G1 X219.178 Y229.054 E.02447
G1 X218.929 Y228.758 E.02584
G1 X47.807 Y57.636 E16.1671
G1 X47.507 Y57.386 E.02609
M73 P2 R29
G1 X47.169 Y57.187 E.0262
G1 X46.802 Y57.049 E.02619
G1 X46.407 Y56.975 E.02685
G1 X46.016 Y56.97 E.02612
G1 X45.606 Y57.037 E.02775
G1 X45.236 Y57.168 E.02622
G1 X44.874 Y57.372 E.02776
G1 X44.556 Y57.636 E.02761
G1 X43.622 Y58.561 E.08782
G1 X43.187 Y58.858 E.03519
G1 X42.766 Y58.985 E.02938
G1 X42.321 Y59.011 E.02978
G1 X41.901 Y58.913 E.02881
G1 X41.503 Y58.715 E.0297
G1 X40.568 Y57.821 E.08642
G1 X40.297 Y57.458 E.03026
G1 X40.121 Y57.051 E.02962
G1 X40.07 Y56.614 E.02939
G1 X40.125 Y56.162 E.03042
G1 X40.295 Y55.768 E.02867
G1 X40.57 Y55.4 E.03069
G1 X53.75 Y42.22 E1.24521
G1 X54.056 Y41.956 E.027
G1 X54.439 Y41.764 E.02862
G1 X54.872 Y41.661 E.02973
G1 X55.46 Y41.712 E.03943
G1 X55.866 Y41.887 E.02954
G1 X56.232 Y42.161 E.03054
G1 X230.879 Y216.808 E16.50013
G1 X231.14 Y217.031 E.02293
M73 P3 R29
G1 X231.452 Y217.225 E.02454
G1 X231.791 Y217.366 E.02453
G1 X232.137 Y217.449 E.02377
G1 X232.513 Y217.48 E.0252
G1 X232.921 Y217.442 E.02737
G1 X233.518 Y217.287 E.04121
G1 X234.059 Y217.28 E.03614
G1 X234.574 Y217.443 E.03609
G1 X235.021 Y217.768 E.03692
G1 X249.379 Y232.125 E1.35645
G1 X249.703 Y232.542 E.03528
G1 X249.879 Y232.949 E.02962
G1 X249.93 Y233.388 E.02952
G1 X249.879 Y233.828 E.02959
G1 X249.703 Y234.234 E.02956
G1 X249.43 Y234.6 E.0305
G1 X236.772 Y247.258 E1.19589
G1 X236.356 Y247.582 E.03523
G1 X235.949 Y247.757 E.0296
G1 X235.51 Y247.809 E.02953
G1 X235.07 Y247.757 E.0296
G1 X234.664 Y247.582 E.02954
G1 X234.298 Y247.309 E.0305
G1 X230.461 Y243.471 E.36256
G1 X230.036 Y243.047 F90000
G1 X230.415 Y242.668
;TYPE:Perimeter
G1 F1200
G1 X220.32 Y232.573 E.95375
G1 X220.045 Y232.211 E.03037
G1 X219.933 Y231.859 E.02468
G1 X219.938 Y231.489 E.02472
G1 X220.082 Y230.934 E.0383
G1 X220.134 Y230.484 E.03026
G1 X220.111 Y230.018 E.03117
G1 X220.022 Y229.59 E.0292
G1 X219.862 Y229.167 E.03021
G1 X219.636 Y228.776 E.03017
G1 X219.308 Y228.379 E.0344
G1 X48.186 Y57.257 E16.1671
G1 X47.85 Y56.974 E.02935
M73 P4 R29
G1 X47.436 Y56.722 E.03238
G1 X46.985 Y56.546 E.03234
G1 X46.501 Y56.448 E.03299
G1 X46.017 Y56.435 E.03235
G1 X45.515 Y56.51 E.03391
G1 X45.053 Y56.664 E.03253
G1 X44.606 Y56.909 E.03405
G1 X44.178 Y57.257 E.03685
G1 X43.319 Y58.116 E.08116
G1 X42.96 Y58.371 E.02942
G1 X42.571 Y58.476 E.02692
G1 X42.169 Y58.44 E.02696
G1 X41.826 Y58.283 E.0252
G1 X41.328 Y57.806 E.04607
G1 X40.811 Y57.278 E.04937
G1 X40.641 Y56.912 E.02696
G1 X40.606 Y56.513 E.02676
G1 X40.71 Y56.121 E.02709
G1 X40.965 Y55.763 E.02936
G1 X54.128 Y42.599 E1.24365
G1 X54.363 Y42.398 E.02066
G1 X54.72 Y42.232 E.0263
G1 X55.131 Y42.198 E.02755
G1 X55.511 Y42.301 E.0263
G1 X55.87 Y42.556 E.02942
G1 X230.5 Y217.186 E16.49852
G1 X230.793 Y217.439 E.02586
M73 P5 R29
G1 X231.174 Y217.683 E.03023
G1 X231.589 Y217.862 E.03019
G1 X232.017 Y217.971 E.02951
G1 X232.478 Y218.014 E.03093
G1 X233.055 Y217.96 E.03872
G1 X233.611 Y217.817 E.03835
G1 X233.98 Y217.812 E.02465
G1 X234.332 Y217.923 E.02466
G1 X234.657 Y218.161 E.02691
G1 X248.377 Y231.881 E1.29622
G1 X249.189 Y232.722 E.0781
G1 X249.359 Y233.088 E.02696
G1 X249.394 Y233.388 E.02018
G1 X249.394 Y233.49 E.00681
G1 X249.29 Y233.879 E.0269
G1 X249.035 Y234.237 E.02936
G1 X236.97 Y246.302 E1.13987
G1 X236.176 Y247.067 E.07366
G1 X235.81 Y247.238 E.02699
G1 X235.408 Y247.273 E.02696
G1 X235.019 Y247.169 E.0269
G1 X234.661 Y246.914 E.02936
G1 X230.479 Y242.732 E.3951
G10 ; retract
G1 X230.479 Y242.732 F90000
G1 X233.895 Y217.967
G11 ; unretract
;TYPE:Solid infill
;WIDTH:0.60066
G1 F1200
G1 X248.741 Y232.814 E1.40438
G1 X248.858 Y232.954 E.0122
G1 X248.925 Y233.068 E.00884
G1 X248.97 Y233.192 E.00882
G1 X248.993 Y233.322 E.00883
G1 X248.993 Y233.454 E.00883
G1 X248.97 Y233.585 E.0089
G1 X248.907 Y233.738 E.01107
G1 X233.444 Y218.275 E1.4627
G1 X233.15 Y218.351 E.02031
G1 X232.803 Y218.393 E.02338
G1 X248.557 Y234.147 E1.49023
G1 X248.178 Y234.526 E.03585
G1 X247.514 Y233.862 E.06281
G1 X247.516 Y233.589 E.01826
G1 X247.202 Y233.078 E.04012
G1 X244.313 Y230.188 E.27333
G1 X244.156 Y230.057 E.01368
G1 X243.919 Y229.927 E.01808
G1 X243.491 Y229.839 E.02923
G1 X232.031 Y218.379 E1.08404
G1 X231.531 Y218.268 E.03426
G1 X231.052 Y218.074 E.03457
G1 X230.838 Y217.944 E.01675
G1 X242.888 Y229.994 E1.13985
G1 X242.821 Y230.025 E.00494
G1 X242.618 Y230.187 E.01737
G1 X242.47 Y230.335 E.014
G1 X54.775 Y42.639 E17.75477
G1 X54.593 Y42.728 E.01355
M73 P6 R28
G1 X54.441 Y42.855 E.01325
G1 X54.336 Y42.959 E.00989
G1 X242.091 Y230.714 E17.76039
G1 X241.712 Y231.093 E.03585
G1 X53.957 Y43.339 E17.76035
G1 X53.578 Y43.718 E.03585
M73 P7 R28
G1 X241.332 Y231.473 E17.76035
G1 X240.953 Y231.852 E.03585
M73 P8 R28
G1 X53.199 Y44.097 E17.76035
G1 X52.819 Y44.476 E.0359
M73 P9 R28
G1 X240.574 Y232.231 E17.76039
G1 X240.195 Y232.61 E.03585
M73 P9 R27
G1 X52.44 Y44.855 E17.76039
G1 X52.061 Y45.235 E.0359
M73 P10 R27
G1 X239.816 Y232.989 E17.76035
G1 X239.436 Y233.369 E.03595
M73 P11 R27
G1 X51.682 Y45.614 E17.76035
G1 X51.302 Y45.993 E.0359
G1 X239.057 Y233.748 E17.76039
G1 X238.678 Y234.127 E.03585
M73 P12 R26
G1 X50.923 Y46.372 E17.76039
G1 X50.544 Y46.751 E.03585
M73 P13 R26
G1 X238.299 Y234.506 E17.76039
G1 X237.92 Y234.885 E.03585
M73 P14 R26
G1 X50.165 Y47.131 E17.76035
G1 X49.786 Y47.51 E.03585
G1 X237.54 Y235.265 E17.76035
G1 X237.161 Y235.644 E.03585
M73 P15 R26
G1 X49.406 Y47.889 E17.76039
G1 X49.027 Y48.268 E.03585
M73 P16 R25
G1 X236.782 Y236.023 E17.76039
G1 X236.403 Y236.402 E.03585
M73 P17 R25
G1 X48.648 Y48.647 E17.76039
G1 X48.269 Y49.027 E.0359
G1 X236.024 Y236.781 E17.76035
G1 X235.644 Y237.161 E.03595
M73 P18 R25
G1 X47.89 Y49.406 E17.76035
G1 X47.51 Y49.785 E.0359
M73 P19 R24
G1 X235.265 Y237.54 E17.76039
G1 X234.886 Y237.919 E.03585
G1 X47.131 Y50.164 E17.76039
G1 X46.752 Y50.543 E.03585
M73 P20 R24
G1 X234.507 Y238.298 E17.76039
G1 X234.128 Y238.677 E.03585
M73 P21 R24
G1 X46.373 Y50.923 E17.76035
G1 X45.994 Y51.302 E.03585
M73 P22 R24
G1 X233.748 Y239.057 E17.76035
G1 X233.369 Y239.436 E.03585
M73 P22 R23
G1 X45.614 Y51.681 E17.76039
G1 X45.235 Y52.06 E.03585
M73 P23 R23
G1 X232.99 Y239.815 E17.76039
G1 X232.611 Y240.194 E.03585
M73 P24 R23
G1 X44.856 Y52.44 E17.76035
G1 X44.477 Y52.819 E.03585
G1 X232.24 Y240.582 E17.76115
G1 X232.146 Y240.7 E.01009
M73 P25 R22
G1 X232.011 Y240.994 E.02164
G1 X231.997 Y241.097 E.00695
G1 X220.417 Y229.518 E1.09534
G1 X220.233 Y229.013 E.03595
G1 X220.15 Y228.849 E.01229
G1 X219.926 Y228.487 E.02847
G1 X219.595 Y228.099 E.03411
G1 X48.466 Y56.969 E16.18773
G1 X48.102 Y56.661 E.03189
M73 P26 R22
G1 X47.941 Y56.549 E.01312
G1 X47.631 Y56.371 E.02391
G1 X47.453 Y56.289 E.01311
G1 X47.047 Y56.148 E.02875
G1 X44.098 Y53.198 E.279
G1 X43.718 Y53.577 E.0359
G1 X46.175 Y56.033 E.23237
G1 X45.815 Y56.05 E.02411
G1 X45.489 Y56.106 E.02212
G1 X43.339 Y53.956 E.20338
G1 X42.96 Y54.336 E.0359
G1 X44.912 Y56.288 E.18465
G1 X44.729 Y56.374 E.01352
G1 X44.419 Y56.553 E.02394
G1 X42.581 Y54.715 E.17386
G1 X42.202 Y55.094 E.03585
G1 X43.994 Y56.887 E.16956
G1 X43.608 Y57.259 E.03586
G1 X41.822 Y55.473 E.16894
G1 X41.443 Y55.852 E.03585
G1 X43.229 Y57.638 E.16894
G1 X43.047 Y57.82 E.01722
G1 X42.904 Y57.94 E.01249
G1 X42.82 Y57.988 E.00647
G1 X41.093 Y56.261 E.16336
G1 X41.033 Y56.408 E.01062
G1 X41.007 Y56.549 E.00959
G1 X41.007 Y56.678 E.00863
G1 X41.03 Y56.808 E.00883
G1 X41.075 Y56.932 E.00882
G1 X41.142 Y57.046 E.00884
G1 X41.252 Y57.178 E.01149
G1 X42.389 Y58.315 E.10755
G10 ; retract
G1 X42.389 Y58.315 F90000
G1 X247.201 Y234.307
G11 ; unretract
G1 F1200
G1 X247.799 Y234.905 E.05657
G1 X247.42 Y235.285 E.0359
G1 X247.048 Y234.913 E.03519
G1 X246.669 Y235.292 E.03585
G1 X247.041 Y235.664 E.03519
G1 X246.661 Y236.043 E.0359
G1 X246.29 Y235.672 E.03509
G1 X245.911 Y236.051 E.03585
G1 X246.282 Y236.422 E.03509
G1 X245.903 Y236.801 E.03585
G1 X245.532 Y236.43 E.03509
G1 X245.152 Y236.809 E.0359
G1 X245.524 Y237.181 E.03519
G1 X245.145 Y237.56 E.03585
G1 X244.773 Y237.188 E.03519
G1 X244.394 Y237.568 E.0359
G1 X244.765 Y237.939 E.03509
G1 X244.386 Y238.318 E.03585
G1 X244.015 Y237.947 E.03509
G1 X243.636 Y238.326 E.03585
G1 X244.007 Y238.698 E.03514
G1 X243.628 Y239.077 E.03585
G1 X243.256 Y238.705 E.03519
G1 X242.877 Y239.084 E.03585
G1 X243.249 Y239.456 E.03519
G1 X242.869 Y239.835 E.0359
G1 X242.498 Y239.464 E.03509
G1 X242.119 Y239.843 E.03585
G1 X242.49 Y240.214 E.03509
G1 X242.111 Y240.594 E.0359
G1 X241.739 Y240.222 E.03519
G1 X241.36 Y240.601 E.03585
G1 X241.732 Y240.973 E.03519
G1 X241.353 Y241.352 E.03585
G1 X240.981 Y240.98 E.03519
G1 X240.602 Y241.36 E.0359
G1 X240.973 Y241.731 E.03509
G1 X240.594 Y242.11 E.03585
G1 X240.223 Y241.739 E.03509
G1 X239.843 Y242.118 E.0359
G1 X240.215 Y242.49 E.03519
G1 X239.836 Y242.869 E.03585
G1 X239.464 Y242.497 E.03519
G1 X239.085 Y242.877 E.0359
G1 X239.457 Y243.248 E.03514
G1 X239.077 Y243.627 E.0359
G1 X238.706 Y243.256 E.03509
G1 X238.327 Y243.635 E.03585
G1 X238.698 Y244.006 E.03509
G1 X238.319 Y244.386 E.0359
G1 X237.947 Y244.014 E.03519
G1 X237.568 Y244.393 E.03585
G1 X237.94 Y244.765 E.03519
G1 X237.56 Y245.144 E.0359
G1 X237.189 Y244.773 E.03509
G1 X236.803 Y245.145 E.03586
G1 X237.181 Y245.523 E.03576
G1 X236.802 Y245.902 E.03585
G1 X236.051 Y245.152 E.07099
G1 X236.051 Y245.152 F90000
G1 X236.593 Y246.452
G1 F1200
G1 X220.529 Y230.388 E1.51955
G1 X220.535 Y230.514 E.00844
G1 X220.46 Y231.077 E.03799
G1 X236.04 Y246.657 E1.47377
G1 X235.944 Y246.737 E.00836
G1 X235.83 Y246.803 E.00881
G1 X235.706 Y246.848 E.00882
G1 X235.496 Y246.871 E.01413
G1 X220.106 Y231.482 E1.45575
;LAYER_CHANGE
;Z:0.6
;HEIGHT:0.3
G10 ; retract
G1 Z.6 F90000
;LAYER 1
G1 X220.106 Y231.482 Z.6
G1 X232.865 Y241.337
G11 ; unretract
;TYPE:External perimeter
;WIDTH:0.675
G1 F2100
G1 X232.908 Y241.18 E.0124
G1 X232.95 Y241.127 E.00515
G1 X238.099 Y235.978 E.55458
G1 X243.249 Y230.829 E.55463
G1 X243.376 Y230.753 E.01127
G1 X243.581 Y230.762 E.01563
G1 X243.681 Y230.829 E.00917
G1 X246.554 Y233.703 E.30949
G1 X246.636 Y233.849 E.01275
G1 X246.635 Y233.992 E.01089
G1 X246.554 Y234.135 E.01252
G1 X236.256 Y244.433 E1.10916
G1 X236.113 Y244.514 E.01252
G1 X235.945 Y244.507 E.01281
G1 X235.824 Y244.433 E.0108
G1 X232.95 Y241.559 E.30955
G1 X232.891 Y241.421 E.01143
G1 X233.191 Y240.901 F90000
G1 X232.254 Y241.34
;TYPE:Perimeter
G1 F5400
G1 X232.29 Y241.077 E.02022
G1 X232.392 Y240.854 E.01868
G1 X232.518 Y240.696 E.01539
G1 X237.668 Y235.546 E.55469
G1 X242.817 Y230.397 E.55458
G1 X242.975 Y230.271 E.01539
G1 X243.198 Y230.168 E.01871
G1 X243.487 Y230.129 E.02221
G1 X243.813 Y230.198 E.02538
G1 X244.112 Y230.397 E.02735
G1 X246.986 Y233.271 E.30955
G1 X247.23 Y233.71 E.03825
;WIDTH:0.717949
G1 X247.224 Y233.845 E.01102
;WIDTH:0.760898
G1 X247.218 Y233.98 E.01174
;WIDTH:0.803847
G1 X247.212 Y234.114 E.01237
;WIDTH:0.846796
G1 X247.206 Y234.249 E.01319
;WIDTH:0.889745
G1 X247.2 Y234.384 E.01391
;WIDTH:0.932694
G1 X247.194 Y234.519 E.01464
G1 X247.073 Y234.654 E.01963
;WIDTH:0.921572
G1 X236.775 Y244.952 E1.55704
;WIDTH:0.932692
G1 X236.64 Y245.073 E.01963
G1 X236.505 Y245.079 E.01464
;WIDTH:0.889743
G1 X236.371 Y245.085 E.01381
;WIDTH:0.846794
G1 X236.236 Y245.091 E.01319
;WIDTH:0.803846
G1 X236.101 Y245.097 E.01246
;WIDTH:0.760897
G1 X235.966 Y245.103 E.01174
;WIDTH:0.717948
G1 X235.832 Y245.109 E.01093
;WIDTH:0.675
G1 X235.514 Y244.967 E.02652
G1 X235.392 Y244.865 E.01211
G1 X232.518 Y241.991 E.30955
G1 X232.319 Y241.692 E.02735
G1 X232.264 Y241.429 E.02046
G10 ; retract
G1 X232.264 Y241.429 F90000
G1 X230.367 Y243.325
G11 ; unretract
;TYPE:External perimeter
G1 F4199.996
G1 X219.916 Y232.874 E1.12564
G1 X219.598 Y232.436 E.04122
G1 X219.442 Y231.944 E.03931
G1 X219.449 Y231.391 E.04212
G1 X219.599 Y230.809 E.04577
G1 X219.638 Y230.438 E.02841
G1 X219.617 Y230.066 E.02838
G1 X219.537 Y229.702 E.02838
G1 X219.4 Y229.355 E.02841
G1 X219.21 Y229.035 E.02834
G1 X218.955 Y228.731 E.03022
G1 X47.834 Y57.609 E18.43084
G1 F4185.444
M73 P27 R22
G1 X47.507 Y57.341 E.0322
G1 X47.177 Y57.149 E.02908
G1 F4194.109
G1 X46.821 Y57.016 E.02894
G1 F4200
G1 X46.418 Y56.939 E.03125
G1 X46.038 Y56.932 E.02895
G1 F4193.133
G1 X45.593 Y57.003 E.03432
G1 X45.198 Y57.144 E.03194
G1 F4190.649
G1 X44.838 Y57.353 E.0317
G1 X44.53 Y57.609 E.0305
G1 F4199.99
G1 X43.709 Y58.43 E.08843
G1 X43.298 Y58.751 E.03972
G1 X42.899 Y58.923 E.03309
G1 X42.473 Y58.974 E.03268
G1 X42.04 Y58.923 E.03321
G1 X41.525 Y58.685 E.04321
G1 X40.595 Y57.795 E.09804
G1 X40.329 Y57.439 E.03385
