; generated by PrusaSlicer 2.7.4 on 2024-06-12 at 14:22:20 UTC


;
;

;
;
; 

; external perimeters extrusion width = 0.45mm
; perimeters extrusion width = 0.45mm
; infill extrusion width = 0.45mm
; solid infill extrusion width = 0.45mm
; top infill extrusion width = 0.40mm
; first layer extrusion width = 0.40mm

M73 P0 R12

; printing object ESCHER_LIZARD_MODIFIED.stl id:0 copy 0
; stop printing object ESCHER_LIZARD_MODIFIED.stl id:0 copy 0

;TYPE:Custom
M98 P"check-filament.g" F"PETG"
M98 P"revo/check-nozzle.g" S0.4

M140 S85
M116 ; wait for all temps to be reached

T0 ; select first tool
G10 P0 S240 ; set nozzle temperature
M703 ; configure it

G28 ; home all axes
M116 ; wait for all temps to be reached
M98 P"feed.g" ; feed filament into the nozzle
G21 ; set units to millimeters
G90 ; use absolute coordinates
M83 ; use relative distances for extrusion
; Filament gcode
M107
;LAYER_CHANGE
;Z:0.2
;HEIGHT:0.2
G10 ; retract
G1 Z.2 F90000
G1 X120.035 Y117.183
G11 ; unretract
;TYPE:Skirt/Brim
;WIDTH:0.4
G1 F1200
G1 X121.409 Y116.132 E.05136
G1 X128.143 Y112.244 E.23087
G1 X130.311 Y111.451 E.06854
G1 X131.529 Y111.345 E.0363
G1 X164.851 Y111.488 E.98938
G1 X165.808 Y111.561 E.0285
G1 X172.388 Y112.538 E.19751
G1 X174.579 Y113.264 E.06853
G1 X176.395 Y114.691 E.06857
G1 X177.621 Y116.648 E.06857
G1 X178.111 Y119.444 E.08428
G1 X176.709 Y154.93 E1.05445
G1 X176.222 Y157.187 E.06856
G1 X175.259 Y158.839 E.05678
G1 X171.784 Y163.216 E.16594
G1 X162.407 Y174.35 E.4322
G1 X160.63 Y175.838 E.06882
G1 X157.309 Y177.756 E.11387
G1 X155.141 Y178.549 E.06854
G1 X153.765 Y178.652 E.04097
G1 X124.026 Y177.822 E.88333
G1 X121.482 Y177.245 E.07745
M73 P1 R12
G1 X116.589 Y175.066 E.15903
G1 X114.673 Y173.778 E.06855
G1 X113.306 Y171.917 E.06856
G1 X112.607 Y169.081 E.08672
G1 X111.885 Y136.443 E.9693
G1 X111.924 Y135.562 E.02618
G1 X112.117 Y133.803 E.05254
G1 X112.725 Y131.657 E.06623
G1 X118.701 Y119.068 E.41376
G1 X120 Y117.232 E.06678
G1 X120 Y117.232 F90000
G1 X120.295 Y117.443
G1 F1200
G1 X120.33 Y117.394 E.00179
G1 X121.588 Y116.441 E.04686
G1 X128.321 Y112.554 E.23083
G1 X131.527 Y111.702 E.09849
G1 X164.849 Y111.845 E.98938
G1 X165.755 Y111.914 E.02698
G1 X172.335 Y112.891 E.19751
G1 X174.464 Y113.608 E.0667
G1 X176.21 Y115.021 E.06669
G1 X177.356 Y116.953 E.0667
M73 P2 R12
G1 X177.754 Y119.43 E.07449
G1 X176.352 Y154.916 E1.05445
G1 X175.868 Y157.109 E.06668
G1 X174.979 Y158.617 E.05198
G1 X171.505 Y162.994 E.16592
G1 X162.134 Y174.12 E.43191
G1 X160.451 Y175.529 E.06517
G1 X157.131 Y177.446 E.11383
G1 X155.018 Y178.208 E.06669
G1 X153.775 Y178.296 E.037
G1 X124.036 Y177.466 E.88333
G1 X121.627 Y176.918 E.07335
G1 X116.734 Y174.74 E.15902
G1 X114.876 Y173.478 E.06669
G1 X113.572 Y171.649 E.06669
G1 X112.964 Y169.073 E.07859
G1 X112.242 Y136.435 E.9693
G1 X112.279 Y135.601 E.02479
M73 P3 R12
G1 X112.472 Y133.842 E.05254
G1 X113.048 Y131.81 E.06271
G1 X119.023 Y119.221 E.41375
G1 X120.26 Y117.492 E.06312
G10 ; retract
G1 X120.26 Y117.492 F90000
; printing object ESCHER_LIZARD_MODIFIED.stl id:0 copy 0
G1 X136.07 Y140.636
G11 ; unretract
;TYPE:External perimeter
;WIDTH:0.399999
G1 F1200
G1 X135.942 Y140.567 E.00432
G1 X135.803 Y140.619 E.00441
G1 X130.021 Y146.349 E.2417
G1 X122.522 Y146.349 E.22265
G1 X120.86 Y142.976 E.11165
G1 X120.726 Y139.174 E.11296
G1 X120.696 Y139.082 E.00287
G1 X118.805 Y136.244 E.10126
G1 X118.968 Y134.756 E.04444
G1 X124.145 Y135.325 E.15464
G1 X126.491 Y140.661 E.17307
G1 X126.58 Y140.751 E.00376
G1 X126.727 Y140.753 E.00437
G1 X128.872 Y139.809 E.06958
G1 X128.96 Y139.725 E.00361
G1 X130.494 Y136.624 E.10272
G1 X133.098 Y134.995 E.0912
G1 X133.737 Y134.577 E.02267
G1 X136.141 Y130.965 E.12883
G1 X136.123 Y130.831 E.00401
G1 X132.052 Y123.78 E.24174
G1 X131.944 Y123.697 E.00404
G1 X125.282 Y121.88 E.20503
G1 X131.495 Y118.293 E.21301
G1 X141.932 Y124.921 E.36709
G1 X143.833 Y129.732 E.15359
G1 X144.177 Y130.541 E.0261
G1 X144.318 Y130.578 E.00433
G1 X150.071 Y129.623 E.17315
G1 X157.951 Y131.595 E.24118
G1 X158.032 Y131.597 E.00241
G1 X158.153 Y131.504 E.00453
G1 X164.934 Y118.421 E.43753
G1 X170.913 Y119.309 E.17947
G1 X165.669 Y123.426 E.19795
M73 P4 R12
G1 X165.603 Y123.542 E.00396
G1 X164.054 Y134.668 E.33353
G1 X153.876 Y138.796 E.32611
G1 X146.581 Y135.869 E.23338
G1 X146.455 Y135.867 E.00374
G1 X146.351 Y135.962 E.00418
G1 X146.349 Y136.101 E.00413
G1 X149.263 Y143.478 E.2355
G1 X149.303 Y143.539 E.00217
G1 X149.437 Y143.59 E.00426
G1 X164.11 Y142.924 E.43611
G1 X165.976 Y149.452 E.20159
G1 X166.277 Y150.45 E.03095
G1 X169.743 Y154.667 E.16207
G1 X168.12 Y156.712 E.07752
G1 X166.471 Y158.789 E.07874
G1 X162.885 Y156.947 E.1197
G1 X161.726 Y153.499 E.108
G1 X161.725 Y150.029 E.10303
G1 X161.638 Y149.894 E.00477
G1 X157.605 Y147.531 E.13879
G1 X157.541 Y147.509 E.00201
G1 X157.41 Y147.541 E.004
G1 X152.68 Y150.977 E.17358
G1 X152.66 Y150.994 E.00078
G1 X152.607 Y151.121 E.00409
G1 X152.607 Y153.685 E.07613
G1 X152.659 Y153.811 E.00405
G1 X159.561 Y160.713 E.28981
G1 X157.101 Y169.892 E.28215
G1 X153.924 Y171.726 E.10892
G1 X144.745 Y169.267 E.28215
G1 X142.219 Y159.839 E.2898
G1 X142.135 Y159.731 E.00406
G1 X138.513 Y157.639 E.12419
G1 X138.377 Y157.621 E.00407
M73 P5 R12
G1 X128.552 Y160.262 E.30207
G1 X128.477 Y160.366 E.00381
G1 X125.924 Y169.892 E.29282
G1 X124.201 Y170.887 E.05908
G1 X119.521 Y168.803 E.15211
G1 X119.546 Y164.892 E.11612
G1 X122.358 Y163.257 E.09658
G1 X125 Y160.263 E.11856
G1 X125.045 Y160.137 E.00397
G1 X124.83 Y155.786 E.12934
G1 X135.492 Y150.217 E.35715
G1 X136.051 Y149.918 E.01882
G1 X136.107 Y149.787 E.00423
G1 X136.107 Y140.745 E.26847
G1 X136.09 Y140.693 E.00162
G1 X135.69 Y140.694 F90000
G1 X136.331 Y140.418
M73 P5 R11
;TYPE:Perimeter
G1 F1200
G1 X136.231 Y140.303 E.00452
G1 X135.969 Y140.211 E.00824
G1 X135.739 Y140.244 E.0069
G1 X135.552 Y140.365 E.00661
G1 X129.874 Y145.992 E.23735
G1 X122.744 Y145.992 E.2117
G1 X121.215 Y142.887 E.10276
G1 X121.083 Y139.162 E.11067
G1 X120.993 Y138.883 E.0087
G1 X119.174 Y136.154 E.09738
G1 X119.284 Y135.15 E.02999
G1 X123.901 Y135.657 E.13791
G1 X126.165 Y140.805 E.16698
G1 X126.222 Y140.905 E.00342
G1 X126.431 Y141.076 E.00802
G1 X126.655 Y141.125 E.00681
G1 X126.87 Y141.08 E.00652
G1 X129.106 Y140.086 E.07265
G1 X129.28 Y139.883 E.00794
G1 X130.769 Y136.873 E.09971
G1 X133.872 Y134.932 E.10867
G1 X134.034 Y134.776 E.00668
G1 X136.454 Y131.147 E.12951
G1 X136.499 Y130.853 E.00883
G1 X136.432 Y130.653 E.00626
G1 X132.361 Y123.602 E.24174
G1 X132.258 Y123.474 E.00488
G1 X132.038 Y123.353 E.00745
G1 X126.202 Y121.761 E.17961
G1 X131.486 Y118.71 E.18116
G1 X141.643 Y125.161 E.35726
G1 X143.791 Y130.598 E.17357
M73 P6 R11
G1 X143.884 Y130.752 E.00534
G1 X144.08 Y130.895 E.0072
G1 X144.377 Y130.93 E.00888
G1 X150.056 Y129.987 E.17093
G1 X157.864 Y131.942 E.23899
G1 X158.002 Y131.958 E.00412
G1 X158.278 Y131.876 E.00855
G1 X158.47 Y131.669 E.00838
G1 X165.134 Y118.812 E.42997
G1 X170.04 Y119.54 E.14726
G1 X165.449 Y123.145 E.17331
G1 X165.354 Y123.241 E.00401
G1 X165.249 Y123.492 E.00808
G1 X163.729 Y134.415 E.32744
G1 X153.875 Y138.411 E.31572
G1 X146.714 Y135.538 E.22909
G1 X146.461 Y135.502 E.00759
G1 X146.217 Y135.589 E.00769
G1 X146.063 Y135.748 E.00657
G1 X145.984 Y135.959 E.00669
G1 X146.016 Y136.232 E.00816
G1 X148.931 Y143.609 E.23551
G1 X148.984 Y143.71 E.00339
G1 X149.182 Y143.887 E.00789
G1 X149.453 Y143.947 E.00824
G1 X163.845 Y143.293 E.42776
G1 X165.9 Y150.484 E.22206
G1 X166.001 Y150.677 E.00647
G1 X169.284 Y154.671 E.15351
G1 X167.84 Y156.49 E.06896
G1 X166.373 Y158.337 E.07003
G1 X163.177 Y156.696 E.10667
G1 X162.083 Y153.44 E.10199
G1 X162.083 Y150.048 E.10071
G1 X162.03 Y149.814 E.00712
G1 X161.819 Y149.585 E.00925
G1 X157.786 Y147.223 E.13877
G1 X157.491 Y147.15 E.00902
G1 X157.2 Y147.252 E.00916
G1 X152.47 Y150.688 E.17358
G1 X152.324 Y150.849 E.00645
G1 X152.25 Y151.121 E.00837
G1 X152.25 Y153.685 E.07613
G1 X152.269 Y153.827 E.00425
G1 X152.406 Y154.064 E.00813
G1 X159.162 Y160.82 E.28368
G1 X156.794 Y169.657 E.27164
M73 P7 R11
G1 X153.873 Y171.343 E.10014
G1 X145.036 Y168.975 E.27164
G1 X142.564 Y159.747 E.28365
G1 X142.496 Y159.595 E.00494
G1 X142.314 Y159.421 E.00748
G1 X139.496 Y157.794 E.09661
G1 X138.562 Y157.276 E.03171
G1 X138.285 Y157.276 E.00822
G1 X128.51 Y159.895 E.30047
G1 X128.359 Y159.962 E.0049
G1 X128.224 Y160.086 E.00544
G1 X128.132 Y160.274 E.00621
G1 X125.617 Y169.657 E.28843
G1 X124.18 Y170.487 E.04927
G1 X119.879 Y168.572 E.13979
G1 X119.901 Y165.099 E.10312
G1 X121.703 Y164.059 E.06177
G1 X122.626 Y163.493 E.03215
G1 X125.268 Y160.5 E.11854
G1 X125.352 Y160.371 E.00457
G1 X125.401 Y160.119 E.00762
G1 X125.198 Y155.997 E.12254
G1 X136.241 Y150.222 E.37001
G1 X136.394 Y150.052 E.00679
G1 X136.464 Y149.787 E.00814
G1 X136.464 Y140.745 E.26847
G1 X136.409 Y140.507 E.00725
G1 X136.37 Y140.463 E.00175
G10 ; retract
G1 X136.37 Y140.463 F90000
G1 X168.951 Y119.487
G11 ; unretract
;TYPE:Solid infill
;WIDTH:0.401073
G1 F1200
G1 X169.269 Y119.805 E.01339
G1 X168.985 Y120.028 E.01075
G1 X168.547 Y119.589 E.01847
G1 X167.952 Y119.501 E.01791
G1 X168.702 Y120.251 E.03159
G1 X168.418 Y120.473 E.01074
G1 X167.357 Y119.413 E.04466
G1 X166.762 Y119.324 E.01792
G1 X168.134 Y120.696 E.05778
G1 X167.85 Y120.919 E.01075
G1 X166.168 Y119.236 E.07086
G1 X165.573 Y119.148 E.01791
G1 X167.567 Y121.142 E.08398
G1 X167.283 Y121.364 E.01074
G1 X165.195 Y119.276 E.08794
G1 X165.022 Y119.61 E.0112
G1 X166.999 Y121.587 E.08326
G1 X166.715 Y121.81 E.01075
G1 X164.849 Y119.943 E.07861
G1 X164.676 Y120.277 E.0112
G1 X166.432 Y122.033 E.07396
G1 X166.148 Y122.256 E.01075
G1 X164.503 Y120.611 E.06928
G1 X164.33 Y120.944 E.01118
G1 X165.864 Y122.478 E.06461
G1 X165.58 Y122.701 E.01075
G1 X164.157 Y121.278 E.05993
G1 X163.984 Y121.611 E.01118
G1 X165.297 Y122.924 E.0553
G1 X165.142 Y123.077 E.00649
G1 X165.065 Y123.199 E.0043
G1 X163.811 Y121.945 E.05281
G1 X163.638 Y122.279 E.0112
G1 X164.972 Y123.612 E.05616
G1 X164.91 Y124.056 E.01335
G1 X163.466 Y122.612 E.06082
G1 X163.293 Y122.946 E.0112
M73 P8 R11
G1 X164.847 Y124.5 E.06545
G1 X164.785 Y124.945 E.01338
G1 X163.12 Y123.279 E.07014
G1 X162.947 Y123.613 E.0112
G1 X164.723 Y125.389 E.0748
G1 X164.661 Y125.833 E.01335
G1 X162.774 Y123.947 E.07945
G1 X162.601 Y124.28 E.01118
G1 X164.598 Y126.277 E.08411
G1 X164.536 Y126.722 E.01338
G1 X162.428 Y124.614 E.08878
G1 X162.255 Y124.947 E.01118
G1 X164.474 Y127.166 E.09346
G1 X164.412 Y127.61 E.01335
G1 X162.082 Y125.281 E.09811
G1 X161.909 Y125.615 E.0112
G1 X164.349 Y128.055 E.10276
G1 X164.287 Y128.499 E.01335
G1 X161.736 Y125.948 E.10744
G1 X161.564 Y126.282 E.01119
G1 X164.225 Y128.943 E.11207
G1 X164.163 Y129.387 E.01335
G1 X161.391 Y126.615 E.11675
G1 X161.218 Y126.949 E.0112
G1 X164.1 Y129.832 E.1214
G1 X164.038 Y130.276 E.01335
G1 X161.045 Y127.282 E.12607
G1 X160.872 Y127.616 E.0112
G1 X163.976 Y130.72 E.13073
G1 X163.914 Y131.164 E.01335
G1 X160.699 Y127.95 E.13538
G1 X160.526 Y128.283 E.01118
G1 X163.851 Y131.609 E.14006
G1 X163.789 Y132.053 E.01335
G1 X160.353 Y128.617 E.14471
G1 X160.18 Y128.95 E.01118
G1 X163.727 Y132.497 E.14939
G1 X163.665 Y132.941 E.01335
G1 X160.007 Y129.284 E.15404
G1 X159.834 Y129.618 E.0112
G1 X163.602 Y133.386 E.15869
G1 X163.54 Y133.83 E.01335
G1 X159.661 Y129.951 E.16337
G1 X159.489 Y130.285 E.01119
G1 X163.445 Y134.241 E.16661
G1 X163.084 Y134.387 E.0116
G1 X159.316 Y130.618 E.15871
G1 X159.143 Y130.952 E.0112
G1 X162.724 Y134.533 E.15082
G1 X162.364 Y134.68 E.01158
G1 X158.97 Y131.286 E.14294
G1 X158.797 Y131.619 E.01118
G1 X162.003 Y134.826 E.13505
G1 X161.643 Y134.972 E.01157
G1 X158.608 Y131.937 E.12782
G1 X158.421 Y132.104 E.00747
G1 X158.316 Y132.151 E.00343
G1 X161.283 Y135.118 E.12496
G1 X160.922 Y135.264 E.0116
G1 X157.868 Y132.21 E.12862
G1 X157.204 Y132.053 E.02032
G1 X160.562 Y135.41 E.1414
G1 X160.202 Y135.556 E.01157
G1 X156.529 Y131.884 E.15467
G1 X155.853 Y131.714 E.02076
G1 X159.841 Y135.703 E.16798
G1 X159.481 Y135.849 E.01157
M73 P9 R11
G1 X155.178 Y131.545 E.18125
G1 X154.502 Y131.376 E.02075
G1 X159.12 Y135.995 E.19451
G1 X158.76 Y136.141 E.01157
G1 X153.826 Y131.207 E.2078
G1 X153.151 Y131.038 E.02072
G1 X158.4 Y136.287 E.22107
G1 X158.039 Y136.433 E.0116
G1 X152.475 Y130.869 E.23433
G1 X151.8 Y130.7 E.02072
G1 X157.679 Y136.579 E.2476
G1 X157.319 Y136.726 E.01158
G1 X151.124 Y130.531 E.26091
G1 X150.448 Y130.362 E.02075
G1 X156.958 Y136.872 E.27418
G1 X156.598 Y137.018 E.01157
G1 X149.87 Y130.29 E.28336
G1 X149.436 Y130.362 E.0131
G1 X156.238 Y137.164 E.28647
G1 X155.877 Y137.31 E.0116
G1 X149.001 Y130.434 E.28959
G1 X148.567 Y130.506 E.0131
G1 X155.517 Y137.456 E.29271
G1 X155.157 Y137.602 E.01157
G1 X148.132 Y130.578 E.29584
G1 X147.698 Y130.65 E.0131
G1 X154.796 Y137.749 E.29896
G1 X154.436 Y137.895 E.01157
G1 X147.263 Y130.722 E.3021
G1 X146.829 Y130.794 E.0131
G1 X154.075 Y138.041 E.30519
G1 X153.874 Y138.122 E.00645
G1 X153.501 Y137.972 E.01197
G1 X146.395 Y130.866 E.29928
G1 X145.96 Y130.939 E.01314
M73 P10 R11
G1 X152.655 Y137.633 E.28195
G1 X151.809 Y137.294 E.02714
G1 X145.526 Y131.011 E.26462
G1 X145.091 Y131.083 E.01313
G1 X150.963 Y136.954 E.24728
G1 X150.117 Y136.615 E.02714
G1 X144.517 Y131.015 E.23585
G10 ; retract
G1 X144.517 Y131.015 F90000
G1 X141.744 Y125.71
G11 ; unretract
G1 F1200
G1 X141.286 Y125.251 E.01931
G1 X139.898 Y124.37 E.04896
G1 X141.79 Y126.262 E.07968
G1 X142.12 Y127.099 E.02679
G1 X138.51 Y123.488 E.15206
G1 X137.122 Y122.607 E.04896
G1 X142.451 Y127.936 E.22444
G1 X142.782 Y128.773 E.0268
G1 X135.734 Y121.725 E.29683
G1 X134.346 Y120.844 E.04896
G1 X143.398 Y129.896 E.38123
G10 ; retract
G1 X143.398 Y129.896 F90000
G1 X149.56 Y136.564
G11 ; unretract
G1 F1200
G1 X144.192 Y131.196 E.22608
G1 X144.087 Y131.18 E.00316
G1 X143.895 Y131.102 E.00617
G1 X143.786 Y131.028 E.00392
G1 X143.682 Y130.928 E.0043
G1 X143.608 Y130.828 E.0037
G1 X143.543 Y130.7 E.00428
G1 X143.444 Y130.448 E.00806
G1 X132.958 Y119.962 E.44163
G1 X131.57 Y119.081 E.04896
G1 X148.425 Y135.936 E.70987
G1 X147.579 Y135.596 E.02715
G1 X131.179 Y119.197 E.69068
G1 X130.858 Y119.382 E.01103
M73 P11 R11
G1 X146.747 Y135.271 E.66918
G1 X146.633 Y135.24 E.00352
G1 X146.521 Y135.231 E.00335
G1 X146.383 Y135.242 E.00412
G1 X146.247 Y135.278 E.00419
G1 X130.537 Y119.567 E.66166
G1 X130.216 Y119.753 E.01105
G1 X145.939 Y135.476 E.66219
G1 X145.835 Y135.605 E.00493
G1 X145.748 Y135.792 E.00614
G1 X129.895 Y119.938 E.66769
G1 X129.574 Y120.124 E.01105
G1 X145.762 Y136.312 E.68177
G1 X146.09 Y137.146 E.02669
G1 X129.253 Y120.309 E.70911
G1 X128.931 Y120.494 E.01106
M73 P12 R11
G1 X131.315 Y122.878 E.1004
G1 X130.618 Y122.688 E.02151
G1 X128.61 Y120.68 E.08457
G1 X128.289 Y120.865 E.01103
G1 X129.922 Y122.498 E.06878
G1 X129.225 Y122.308 E.02151
G1 X127.968 Y121.051 E.05294
G1 X127.647 Y121.236 E.01103
G1 X128.529 Y122.118 E.03715
G1 X127.833 Y121.928 E.02149
G1 X127.326 Y121.421 E.02135
G1 X127.005 Y121.607 E.01105
G1 X127.365 Y121.967 E.01516
G10 ; retract
G1 X133.094 Y124.657 F90000
G11 ; unretract
G1 F1200
G1 X146.421 Y137.984 E.56128
G1 X146.751 Y138.821 E.02679
G1 X134.225 Y126.294 E.52757
G1 X134.917 Y127.493 E.04123
G1 X147.082 Y139.658 E.51234
G1 X147.413 Y140.495 E.0268
G1 X135.609 Y128.691 E.49714
G1 X136.301 Y129.89 E.04123
G1 X147.744 Y141.333 E.48193
G1 X148.074 Y142.17 E.02679
G1 X136.767 Y130.862 E.47623
G1 X136.77 Y130.974 E.00334
G1 X136.747 Y131.121 E.00443
G1 X136.682 Y131.284 E.00523
G1 X148.691 Y143.293 E.50577
G10 ; retract
G1 X148.691 Y143.293 F90000
G1 X163.018 Y143.438
G11 ; unretract
G1 F1200
G1 X163.843 Y144.263 E.03475
G1 X164.046 Y144.972 E.02196
G1 X162.688 Y143.614 E.05719
G1 X162.203 Y143.636 E.01446
M73 P13 R11
G1 X164.249 Y145.681 E.08615
G1 X164.451 Y146.391 E.02198
G1 X161.719 Y143.658 E.11508
G1 X161.234 Y143.68 E.01446
G1 X164.654 Y147.1 E.14404
G1 X164.856 Y147.809 E.02195
G1 X160.75 Y143.702 E.17295
G1 X160.265 Y143.724 E.01446
G1 X165.059 Y148.518 E.2019
G1 X165.262 Y149.227 E.02196
G1 X159.781 Y143.746 E.23084
G1 X159.296 Y143.768 E.01446
G1 X165.464 Y149.936 E.25977
G1 X165.645 Y150.567 E.01955
