; generated by PrusaSlicer 2.8.0 on 2024-07-02 at 21:54:52 UTC


;
;

;
;
; 

; external perimeters extrusion width = 0.68mm
; perimeters extrusion width = 0.68mm
; infill extrusion width = 0.68mm
; solid infill extrusion width = 0.68mm
; top infill extrusion width = 0.60mm
; support material extrusion width = 0.60mm
; first layer extrusion width = 0.60mm

; external perimeters extrusion width = 0.68mm
; perimeters extrusion width = 0.68mm
; infill extrusion width = 0.68mm
; solid infill extrusion width = 0.68mm
; top infill extrusion width = 0.60mm
; support material extrusion width = 0.60mm
; first layer extrusion width = 0.60mm

; external perimeters extrusion width = 0.68mm
; perimeters extrusion width = 0.68mm
; infill extrusion width = 0.68mm
; solid infill extrusion width = 0.68mm
; top infill extrusion width = 0.60mm
; support material extrusion width = 0.60mm
; first layer extrusion width = 0.60mm

; external perimeters extrusion width = 0.68mm
; perimeters extrusion width = 0.68mm
; infill extrusion width = 0.68mm
; solid infill extrusion width = 0.68mm
; top infill extrusion width = 0.60mm
; support material extrusion width = 0.60mm
; first layer extrusion width = 0.60mm

M73 P0 R25

; printing object Abstandshalter Türen.stl id:1 copy 0
; stop printing object Abstandshalter Türen.stl id:1 copy 0
; printing object Abstandshalter Türen.stl id:2 copy 0
; stop printing object Abstandshalter Türen.stl id:2 copy 0
; printing object Abstandshalter Türen.stl id:3 copy 0
; stop printing object Abstandshalter Türen.stl id:3 copy 0
; printing object Abstandshalter Türen.stl id:0 copy 0
; stop printing object Abstandshalter Türen.stl id:0 copy 0

;TYPE:Custom
M98 P"start-print.g" F"TPU" S0.6 T215 B60
G21 ; set units to millimeters
G90 ; use absolute coordinates
M83 ; use relative distances for extrusion
; Filament gcode
M107
;LAYER_CHANGE
;Z:0.3
;HEIGHT:0.3
G10 ; retract
G1 Z.3 F90000
G1 X112.811 Y104.521
G11 ; unretract
;TYPE:Skirt/Brim
;WIDTH:0.6
G1 F1200
G1 X113.314 Y104 E.04838
G1 X114.027 Y103.397 E.06238
G1 X115.058 Y102.734 E.08189
G1 X116.561 Y102.102 E.10892
G1 X117.784 Y101.824 E.08379
G1 X118.552 Y101.746 E.05157
G1 X171.273 Y101.738 E3.52205
G1 X172.821 Y101.937 E.10427
G1 X174.194 Y102.376 E.0963
G1 X175.515 Y103.075 E.09984
G1 X176.609 Y103.928 E.09268
G1 X177.611 Y105.037 E.09985
G1 X178.372 Y106.261 E.09629
G1 X178.67 Y106.917 E.04813
G1 X179.038 Y108.073 E.08105
G1 X179.254 Y109.552 E.09985
G1 X179.268 Y180 E4.70631
G1 X179.184 Y181.165 E.07803
G1 X178.91 Y182.402 E.08464
G1 X178.603 Y183.244 E.05987
G1 X177.953 Y184.469 E.09264
G1 X177.528 Y185.071 E.04923
G1 X176.649 Y186.035 E.08715
G1 X175.963 Y186.611 E.05984
G1 X174.894 Y187.292 E.08467
G1 X174.083 Y187.67 E.05978
G1 X172.874 Y188.051 E.08468
G1 X171.273 Y188.262 E.10788
G1 X118.727 Y188.262 E3.51036
G1 X117.848 Y188.186 E.05894
G1 X116.598 Y187.91 E.08552
G1 X115.261 Y187.372 E.09628
G1 X114.485 Y186.925 E.05983
G1 X113.521 Y186.189 E.08102
G1 X112.873 Y185.548 E.06089
G1 X112.397 Y184.973 E.04987
G1 X111.734 Y183.942 E.08189
G1 X111.351 Y183.132 E.05986
G1 X110.961 Y181.924 E.0848
G1 X110.738 Y180.273 E.1113
G1 X110.732 Y110 E4.69462
G1 X110.814 Y108.848 E.07715
G1 X111.076 Y107.647 E.08212
G1 X111.392 Y106.768 E.0624
G1 X112.047 Y105.531 E.09351
G1 X112.757 Y104.592 E.07864
G10 ; retract
G1 X112.757 Y104.592 F90000
M73 P1 R25
; printing object Abstandshalter Türen.stl id:0 copy 0
G1 X117.709 Y108.9
G11 ; unretract
;TYPE:External perimeter
;WIDTH:0.6
G1 F1200
G1 X118.03 Y108.606 E.02908
G1 X118.555 Y108.361 E.0387
G1 X119.018 Y108.3 E.0312
G1 X139.873 Y108.301 E1.39323
G1 X140.444 Y108.361 E.03836
G1 X140.83 Y108.525 E.02802
G1 X141.201 Y108.799 E.03081
G1 X141.464 Y109.152 E.02941
G1 X141.641 Y109.56 E.02971
G1 X141.692 Y109.999 E.02952
G1 X141.7 Y139.908 E1.99808
G1 X141.693 Y140.065 E.0105
G1 X141.598 Y140.575 E.03466
G1 X141.391 Y140.974 E.03003
G1 X141.091 Y141.3 E.0296
G1 X140.718 Y141.538 E.02956
G1 X140.29 Y141.674 E.03
G1 X139.987 Y141.7 E.02032
G1 X119.018 Y141.7 E1.40084
G1 X118.421 Y141.59 E.04055
G1 X117.909 Y141.301 E.03928
G1 X117.537 Y140.851 E.039
G1 X117.326 Y140.289 E.0401
G1 X117.3 Y139.987 E.02025
G1 X117.3 Y110.139 E1.99401
G1 X117.326 Y109.711 E.02865
G1 X117.461 Y109.283 E.02998
G1 X117.658 Y108.974 E.02448
G1 X118.118 Y108.588 F90000
G1 X118.391 Y109.018
;TYPE:Perimeter
G1 F1200
G1 X118.572 Y108.926 E.01356
G1 X119.053 Y108.836 E.03269
G1 X139.873 Y108.836 E1.39089
G1 X140.316 Y108.884 E.02977
G1 X140.666 Y109.049 E.02585
G1 X140.951 Y109.334 E.02693
G1 X141.122 Y109.699 E.02693
G1 X141.157 Y109.999 E.02018
G1 X141.164 Y139.908 E1.99808
G1 X141.144 Y140.202 E.01969
G1 X141.048 Y140.471 E.01908
G1 X140.846 Y140.775 E.02438
G1 X140.617 Y140.968 E.02001
G1 X140.346 Y141.094 E.01997
G1 X139.964 Y141.164 E.02594
G1 X119.139 Y141.164 E1.39122
G1 X118.683 Y141.116 E.03063
G1 X118.256 Y140.887 E.03237
G1 X118.04 Y140.651 E.02137
G1 X117.909 Y140.354 E.02169
G1 X117.836 Y139.964 E.02651
G1 X117.836 Y110.139 E1.99247
G1 X117.84 Y109.982 E.01049
G1 X117.951 Y109.511 E.03233
G1 X118.113 Y109.256 E.02018
G1 X118.318 Y109.069 E.01854
G10 ; retract
G1 X118.318 Y109.069 F90000
G1 X140.996 Y110.683
G11 ; unretract
;TYPE:Solid infill
;WIDTH:0.601108
G1 F1200
G1 X139.551 Y109.238 E.1368
G1 X138.792 Y109.238 E.05081
G1 X140.755 Y111.201 E.18584
G1 X140.756 Y111.96 E.05081
G1 X138.033 Y109.238 E.25775
G1 X137.274 Y109.238 E.05081
G1 X140.756 Y112.719 E.3296
G1 X140.756 Y113.479 E.05088
G1 X136.515 Y109.238 E.40151
G1 X135.756 Y109.238 E.05081
G1 X140.756 Y114.238 E.47336
G1 X140.756 Y114.997 E.05081
G1 X134.997 Y109.238 E.54522
G1 X134.238 Y109.238 E.05081
G1 X140.757 Y115.756 E.61712
G1 X140.757 Y116.516 E.05088
G1 X133.479 Y109.238 E.68903
G1 X132.72 Y109.238 E.05081
G1 X140.757 Y117.275 E.76088
G1 X140.757 Y118.034 E.05081
G1 X131.961 Y109.238 E.83274
G1 X131.202 Y109.238 E.05081
M73 P2 R25
G1 X140.757 Y118.793 E.9046
G1 X140.758 Y119.553 E.05088
G1 X130.443 Y109.238 E.97655
G1 X129.683 Y109.238 E.05088
G1 X140.758 Y120.312 E1.04845
G1 X140.758 Y121.071 E.05081
G1 X128.924 Y109.238 E1.12031
G1 X128.165 Y109.238 E.05081
G1 X140.758 Y121.83 E1.19216
G1 X140.758 Y122.59 E.05088
G1 X127.406 Y109.238 E1.26407
G1 X126.647 Y109.238 E.05081
G1 X140.758 Y123.349 E1.33592
G1 X140.759 Y124.108 E.05081
G1 X125.888 Y109.238 E1.40783
G1 X125.129 Y109.237 E.05081
G1 X140.759 Y124.867 E1.47973
G1 X140.759 Y125.627 E.05088
G1 X124.37 Y109.237 E1.55163
G1 X123.611 Y109.237 E.05081
G1 X140.759 Y126.386 E1.62349
G1 X140.759 Y127.145 E.05081
G1 X122.852 Y109.237 E1.69535
G1 X122.093 Y109.237 E.05081
G1 X140.76 Y127.904 E1.76725
G1 X140.76 Y128.663 E.05081
G1 X121.334 Y109.237 E1.83911
G1 X120.575 Y109.237 E.05081
M73 P2 R24
G1 X140.76 Y129.423 E1.91101
G1 X140.76 Y130.182 E.05081
M73 P3 R24
G1 X119.816 Y109.237 E1.98287
G1 X119.065 Y109.246 E.05028
G1 X140.76 Y130.941 E2.05392
G1 X140.761 Y131.7 E.05081
G1 X118.504 Y109.443 E2.10713
G1 X118.424 Y109.517 E.0073
G1 X118.318 Y109.682 E.01313
G1 X118.247 Y109.946 E.0183
G1 X140.761 Y132.46 E2.13146
G1 X140.761 Y133.219 E.05081
G1 X118.237 Y110.695 E2.1324
G1 X118.237 Y111.454 E.05081
G1 X140.761 Y133.978 E2.1324
G1 X140.761 Y134.737 E.05081
G1 X118.237 Y112.213 E2.1324
G1 X118.237 Y112.972 E.05081
G1 X140.762 Y135.497 E2.1325
G1 X140.762 Y136.256 E.05081
G1 X118.237 Y113.731 E2.1325
G1 X118.237 Y114.491 E.05088
M73 P4 R24
G1 X140.762 Y137.015 E2.13245
G1 X140.762 Y137.774 E.05081
G1 X118.237 Y115.25 E2.13245
G1 X118.237 Y116.009 E.05081
G1 X140.762 Y138.534 E2.1325
G1 X140.762 Y139.293 E.05081
G1 X118.237 Y116.768 E2.1325
G1 X118.237 Y117.527 E.05081
G1 X140.754 Y140.044 E2.13174
G1 X140.719 Y140.234 E.01293
G1 X140.616 Y140.432 E.01494
G1 X140.505 Y140.553 E.01099
G1 X118.237 Y118.286 E2.10812
G1 X118.237 Y119.045 E.05081
G1 X139.954 Y140.762 E2.056
G1 X139.196 Y140.763 E.05074
G1 X118.237 Y119.804 E1.98424
G1 X118.237 Y120.563 E.05081
G1 X138.437 Y140.763 E1.91238
G1 X137.678 Y140.763 E.05081
G1 X118.237 Y121.322 E1.84053
G1 X118.237 Y122.081 E.05081
M73 P5 R24
G1 X136.919 Y140.763 E1.76867
G1 X136.16 Y140.763 E.05081
G1 X118.237 Y122.84 E1.69681
G1 X118.237 Y123.599 E.05081
G1 X135.401 Y140.763 E1.62496
G1 X134.642 Y140.763 E.05081
G1 X118.237 Y124.358 E1.5531
G1 X118.237 Y125.117 E.05081
G1 X133.883 Y140.763 E1.48125
G1 X133.124 Y140.763 E.05081
G1 X118.237 Y125.876 E1.40939
G1 X118.237 Y126.635 E.05081
G1 X132.365 Y140.763 E1.33753
G1 X131.606 Y140.763 E.05081
G1 X118.237 Y127.394 E1.26568
G1 X118.237 Y128.153 E.05081
G1 X130.847 Y140.763 E1.19382
G1 X130.088 Y140.763 E.05081
G1 X118.237 Y128.912 E1.12196
G1 X118.237 Y129.671 E.05081
G1 X129.329 Y140.763 E1.05011
G1 X128.569 Y140.763 E.05088
G1 X118.237 Y130.431 E.97816
G1 X118.237 Y131.19 E.05081
G1 X127.81 Y140.763 E.9063
G1 X127.051 Y140.763 E.05081
G1 X118.237 Y131.949 E.83444
G1 X118.237 Y132.708 E.05081
G1 X126.292 Y140.763 E.76259
G1 X125.533 Y140.763 E.05081
G1 X118.237 Y133.467 E.69073
G1 X118.237 Y134.226 E.05081
M73 P6 R24
G1 X124.774 Y140.763 E.61887
G1 X124.015 Y140.763 E.05081
G1 X118.237 Y134.985 E.54702
G1 X118.237 Y135.744 E.05081
G1 X123.256 Y140.763 E.47516
G1 X122.497 Y140.763 E.05081
G1 X118.237 Y136.503 E.4033
G1 X118.237 Y137.262 E.05081
G1 X121.738 Y140.763 E.33145
G1 X120.979 Y140.763 E.05081
G1 X118.237 Y138.021 E.25959
G1 X118.237 Y138.78 E.05081
G1 X120.22 Y140.763 E.18774
G1 X119.461 Y140.763 E.05081
G1 X117.996 Y139.298 E.1387
G10 ; retract
G1 X117.996 Y139.298 F90000
; stop printing object Abstandshalter Türen.stl id:0 copy 0
; printing object Abstandshalter Türen.stl id:1 copy 0
G1 X148.3 Y139.298
G11 ; unretract
;TYPE:External perimeter
;WIDTH:0.6
G1 F1200
G1 X148.3 Y110.139 E1.94798
G1 X148.326 Y109.711 E.02865
G1 X148.461 Y109.283 E.02998
G1 X148.699 Y108.909 E.02962
G1 X149.03 Y108.606 E.02998
G1 X149.555 Y108.361 E.0387
G1 X150.018 Y108.3 E.0312
G1 X170.873 Y108.301 E1.39323
G1 X171.444 Y108.361 E.03836
G1 X171.83 Y108.525 E.02802
G1 X172.201 Y108.799 E.03081
G1 X172.464 Y109.152 E.02941
G1 X172.641 Y109.56 E.02971
G1 X172.692 Y109.999 E.02952
G1 X172.7 Y139.908 E1.99808
G1 X172.693 Y140.065 E.0105
G1 X172.598 Y140.575 E.03466
G1 X172.391 Y140.974 E.03003
G1 X172.091 Y141.3 E.0296
G1 X171.718 Y141.538 E.02956
G1 X171.29 Y141.674 E.03
G1 X170.987 Y141.7 E.02032
G1 X150.018 Y141.7 E1.40084
G1 X149.421 Y141.59 E.04055
G1 X148.909 Y141.301 E.03928
G1 X148.537 Y140.851 E.039
G1 X148.326 Y140.289 E.0401
G1 X148.3 Y139.987 E.02025
G1 X148.3 Y139.388 E.04002
G1 X148.3 Y138.788 F90000
G1 X148.836 Y138.788
;TYPE:Perimeter
G1 F1200
G1 X148.836 Y110.139 E1.91391
G1 X148.84 Y109.982 E.01049
G1 X148.951 Y109.511 E.03233
G1 X149.113 Y109.256 E.02018
G1 X149.349 Y109.04 E.02137
G1 X149.572 Y108.926 E.01673
G1 X150.053 Y108.836 E.03269
G1 X170.873 Y108.836 E1.39089
G1 X171.316 Y108.884 E.02977
G1 X171.666 Y109.049 E.02585
G1 X171.951 Y109.334 E.02693
G1 X172.122 Y109.699 E.02693
G1 X172.157 Y109.999 E.02018
G1 X172.164 Y139.908 E1.99808
G1 X172.144 Y140.202 E.01969
M73 P6 R23
G1 X172.048 Y140.471 E.01908
G1 X171.846 Y140.775 E.02438
G1 X171.617 Y140.968 E.02001
G1 X171.346 Y141.094 E.01997
G1 X170.964 Y141.164 E.02594
G1 X150.139 Y141.164 E1.39122
G1 X149.683 Y141.116 E.03063
G1 X149.256 Y140.887 E.03237
G1 X149.04 Y140.651 E.02137
G1 X148.909 Y140.354 E.02169
G1 X148.836 Y139.964 E.02651
G1 X148.836 Y138.878 E.07255
G10 ; retract
G1 X148.836 Y138.878 F90000
G1 X171.996 Y110.683
G11 ; unretract
;TYPE:Solid infill
;WIDTH:0.601108
G1 F1200
G1 X170.551 Y109.238 E.1368
G1 X169.792 Y109.238 E.05081
G1 X171.755 Y111.201 E.18584
G1 X171.756 Y111.96 E.05081
G1 X169.033 Y109.238 E.25775
G1 X168.274 Y109.238 E.05081
G1 X171.756 Y112.719 E.3296
G1 X171.756 Y113.479 E.05088
M73 P7 R23
G1 X167.515 Y109.238 E.40151
G1 X166.756 Y109.238 E.05081
G1 X171.756 Y114.238 E.47336
G1 X171.756 Y114.997 E.05081
G1 X165.997 Y109.238 E.54522
G1 X165.238 Y109.238 E.05081
G1 X171.757 Y115.756 E.61712
G1 X171.757 Y116.516 E.05088
G1 X164.479 Y109.238 E.68903
G1 X163.72 Y109.238 E.05081
G1 X171.757 Y117.275 E.76088
G1 X171.757 Y118.034 E.05081
G1 X162.961 Y109.238 E.83274
G1 X162.202 Y109.238 E.05081
G1 X171.757 Y118.793 E.9046
G1 X171.758 Y119.553 E.05088
G1 X161.443 Y109.238 E.97655
G1 X160.683 Y109.238 E.05088
G1 X171.758 Y120.312 E1.04845
G1 X171.758 Y121.071 E.05081
G1 X159.924 Y109.238 E1.12031
G1 X159.165 Y109.238 E.05081
G1 X171.758 Y121.83 E1.19216
G1 X171.758 Y122.59 E.05088
G1 X158.406 Y109.238 E1.26407
G1 X157.647 Y109.238 E.05081
G1 X171.758 Y123.349 E1.33592
G1 X171.759 Y124.108 E.05081
G1 X156.888 Y109.238 E1.40783
G1 X156.129 Y109.237 E.05081
G1 X171.759 Y124.867 E1.47973
G1 X171.759 Y125.627 E.05088
G1 X155.37 Y109.237 E1.55163
G1 X154.611 Y109.237 E.05081
G1 X171.759 Y126.386 E1.62349
G1 X171.759 Y127.145 E.05081
G1 X153.852 Y109.237 E1.69535
G1 X153.093 Y109.237 E.05081
M73 P8 R23
G1 X171.76 Y127.904 E1.76725
G1 X171.76 Y128.663 E.05081
G1 X152.334 Y109.237 E1.83911
G1 X151.575 Y109.237 E.05081
G1 X171.76 Y129.423 E1.91101
G1 X171.76 Y130.182 E.05081
G1 X150.816 Y109.237 E1.98287
G1 X150.065 Y109.246 E.05028
G1 X171.76 Y130.941 E2.05392
G1 X171.761 Y131.7 E.05081
G1 X149.504 Y109.443 E2.10713
G1 X149.424 Y109.517 E.0073
G1 X149.318 Y109.682 E.01313
G1 X149.247 Y109.946 E.0183
G1 X171.761 Y132.46 E2.13146
G1 X171.761 Y133.219 E.05081
G1 X149.237 Y110.695 E2.1324
G1 X149.237 Y111.454 E.05081
G1 X171.761 Y133.978 E2.1324
G1 X171.761 Y134.737 E.05081
G1 X149.237 Y112.213 E2.1324
G1 X149.237 Y112.972 E.05081
M73 P9 R23
G1 X171.762 Y135.497 E2.1325
G1 X171.762 Y136.256 E.05081
G1 X149.237 Y113.731 E2.1325
G1 X149.237 Y114.491 E.05088
G1 X171.762 Y137.015 E2.13245
G1 X171.762 Y137.774 E.05081
G1 X149.237 Y115.25 E2.13245
G1 X149.237 Y116.009 E.05081
G1 X171.762 Y138.534 E2.1325
G1 X171.762 Y139.293 E.05081
G1 X149.237 Y116.768 E2.1325
G1 X149.237 Y117.527 E.05081
G1 X171.754 Y140.044 E2.13174
G1 X171.719 Y140.234 E.01293
G1 X171.616 Y140.432 E.01494
G1 X171.505 Y140.553 E.01099
G1 X149.237 Y118.286 E2.10812
G1 X149.237 Y119.045 E.05081
G1 X170.954 Y140.762 E2.056
G1 X170.196 Y140.763 E.05074
G1 X149.237 Y119.804 E1.98424
G1 X149.237 Y120.563 E.05081
M73 P10 R23
G1 X169.437 Y140.763 E1.91238
G1 X168.678 Y140.763 E.05081
G1 X149.237 Y121.322 E1.84053
G1 X149.237 Y122.081 E.05081
G1 X167.919 Y140.763 E1.76867
G1 X167.16 Y140.763 E.05081
G1 X149.237 Y122.84 E1.69681
G1 X149.237 Y123.599 E.05081
G1 X166.401 Y140.763 E1.62496
G1 X165.642 Y140.763 E.05081
G1 X149.237 Y124.358 E1.5531
G1 X149.237 Y125.117 E.05081
G1 X164.883 Y140.763 E1.48125
G1 X164.124 Y140.763 E.05081
G1 X149.237 Y125.876 E1.40939
G1 X149.237 Y126.635 E.05081
M73 P10 R22
G1 X163.365 Y140.763 E1.33753
G1 X162.606 Y140.763 E.05081
G1 X149.237 Y127.394 E1.26568
G1 X149.237 Y128.153 E.05081
G1 X161.847 Y140.763 E1.19382
G1 X161.088 Y140.763 E.05081
G1 X149.237 Y128.912 E1.12196
G1 X149.237 Y129.671 E.05081
G1 X160.329 Y140.763 E1.05011
G1 X159.569 Y140.763 E.05088
M73 P11 R22
G1 X149.237 Y130.431 E.97816
G1 X149.237 Y131.19 E.05081
G1 X158.81 Y140.763 E.9063
G1 X158.051 Y140.763 E.05081
G1 X149.237 Y131.949 E.83444
G1 X149.237 Y132.708 E.05081
G1 X157.292 Y140.763 E.76259
G1 X156.533 Y140.763 E.05081
G1 X149.237 Y133.467 E.69073
G1 X149.237 Y134.226 E.05081
G1 X155.774 Y140.763 E.61887
G1 X155.015 Y140.763 E.05081
G1 X149.237 Y134.985 E.54702
G1 X149.237 Y135.744 E.05081
G1 X154.256 Y140.763 E.47516
G1 X153.497 Y140.763 E.05081
G1 X149.237 Y136.503 E.4033
G1 X149.237 Y137.262 E.05081
G1 X152.738 Y140.763 E.33145
G1 X151.979 Y140.763 E.05081
G1 X149.237 Y138.021 E.25959
G1 X149.237 Y138.78 E.05081
G1 X151.22 Y140.763 E.18774
G1 X150.461 Y140.763 E.05081
G1 X148.996 Y139.298 E.1387
G10 ; retract
G1 X148.996 Y139.298 F90000
; stop printing object Abstandshalter Türen.stl id:1 copy 0
; printing object Abstandshalter Türen.stl id:2 copy 0
G1 X149.867 Y148.32
G11 ; unretract
;TYPE:External perimeter
;WIDTH:0.6
G1 F1200
G1 X150.018 Y148.3 E.01018
G1 X170.873 Y148.301 E1.39323
G1 X171.444 Y148.361 E.03836
G1 X171.83 Y148.525 E.02802
G1 X172.201 Y148.799 E.03081
