; generated by PrusaSlicer 2.8.0 on 2024-07-02 at 15:06:37 UTC


;
;

;
;
; 

; external perimeters extrusion width = 0.68mm
; perimeters extrusion width = 0.68mm
; infill extrusion width = 0.68mm
; solid infill extrusion width = 0.68mm
; top infill extrusion width = 0.60mm
; first layer extrusion width = 0.60mm

M73 P0 R210

; printing object Schale Werkzeug.stl id:0 copy 0
; stop printing object Schale Werkzeug.stl id:0 copy 0

;TYPE:Custom
M98 P"start-print.g" F"TPU" S0.6 T215 B60
G21 ; set units to millimeters
G90 ; use absolute coordinates
M83 ; use relative distances for extrusion
; Filament gcode
M107
;LAYER_CHANGE
;Z:0.3
;HEIGHT:0.3
G10 ; retract
G1 Z.3 F90000
G1 X47.663 Y82.382
G11 ; unretract
;TYPE:Skirt/Brim
;WIDTH:0.6
G1 F1200
G1 X49.736 Y81.28 E.15684
G1 X51.76 Y80.369 E.14828
G1 X54.154 Y79.487 E.17044
G1 X56.092 Y78.909 E.1351
G1 X58.536 Y78.357 E.16739
G1 X60.773 Y78.008 E.15125
G1 X62.701 Y77.824 E.12939
G1 X64.588 Y77.755 E.12615
G1 X225.133 Y77.749 E10.72528
G1 X227.299 Y77.824 E.14479
G1 X229.227 Y78.008 E.12939
G1 X231.73 Y78.406 E.16931
G1 X234.352 Y79.034 E.18012
G1 X236.162 Y79.589 E.12647
G1 X237.972 Y80.263 E.12903
G1 X240.379 Y81.336 E.17605
G1 X242.661 Y82.573 E.17341
G1 X244.349 Y83.633 E.13316
G1 X245.873 Y84.719 E.12502
G1 X247.894 Y86.354 E.17366
G1 X249.759 Y88.116 E.1714
G1 X251.146 Y89.606 E.13599
G1 X252.378 Y91.1 E.12937
G1 X253.867 Y93.151 E.16932
G1 X255.277 Y95.449 E.18011
G1 X256.164 Y97.121 E.12644
G1 X256.968 Y98.878 E.12908
G1 X257.911 Y101.338 E.176
G1 X258.649 Y103.827 E.17343
G1 X259.094 Y105.77 E.13316
G1 X259.434 Y107.812 E.13829
G1 X259.676 Y110.201 E.16041
G1 X259.752 Y112.462 E.15113
G1 X259.752 Y177.538 E4.34743
G1 X259.676 Y179.799 E.15113
G1 X259.408 Y182.353 E.17156
G1 X259.065 Y184.377 E.13714
G1 X258.556 Y186.538 E.14832
G1 X257.911 Y188.662 E.14829
G1 X257.237 Y190.472 E.12903
G1 X256.013 Y193.175 E.19823
G1 X255.051 Y194.953 E.13505
G1 X254.049 Y196.571 E.12714
G1 X252.378 Y198.9 E.19149
G1 X251.049 Y200.503 E.13911
G1 X249.519 Y202.127 E.14906
G1 X247.894 Y203.646 E.1486
G1 X246.4 Y204.878 E.12937
G1 X243.986 Y206.602 E.19817
G1 X242.337 Y207.618 E.12939
G1 X240.264 Y208.72 E.15684
G1 X238.24 Y209.631 E.14828
G1 X235.846 Y210.513 E.17044
G1 X233.908 Y211.091 E.1351
G1 X231.464 Y211.643 E.16739
G1 X229.227 Y211.992 E.15125
G1 X227.299 Y212.176 E.12939
G1 X225.397 Y212.245 E.12715
G1 X64.962 Y212.252 E10.71793
G1 X62.846 Y212.185 E.14143
G1 X60.476 Y211.957 E.15906
G1 X58.536 Y211.643 E.13129
G1 X55.648 Y210.966 E.19816
G1 X53.718 Y210.369 E.13496
G1 X51.642 Y209.582 E.14832
G1 X49.621 Y208.664 E.14829
G1 X47.547 Y207.551 E.15724
G1 X45.651 Y206.367 E.14933
G1 X43.835 Y205.063 E.14936
G1 X42.106 Y203.646 E.14934
G1 X40.617 Y202.26 E.1359
G1 X38.951 Y200.503 E.16175
G1 X37.622 Y198.9 E.13911
G1 X35.898 Y196.486 E.19817
G1 X34.882 Y194.837 E.12939
G1 X33.78 Y192.764 E.15684
G1 X32.869 Y190.74 E.14828
G1 X32.052 Y188.549 E.15622
G1 X31.409 Y186.409 E.14928
G1 X30.906 Y184.23 E.1494
G1 X30.544 Y182.024 E.14934
G1 X30.324 Y179.799 E.14937
G1 X30.248 Y177.538 E.15113
G1 X30.248 Y112.462 E4.34743
G1 X30.338 Y110.02 E.16325
G1 X30.544 Y107.976 E.13724
G1 X30.906 Y105.77 E.14934
G1 X31.409 Y103.592 E.14933
G1 X31.987 Y101.654 E.1351
G1 X33.032 Y98.878 E.19816
G1 X33.889 Y97.015 E.137
G1 X34.949 Y95.047 E.14933
G1 X36.133 Y93.151 E.14933
G1 X37.437 Y91.334 E.14941
G1 X38.854 Y89.606 E.14929
G1 X40.24 Y88.117 E.1359
G1 X41.997 Y86.451 E.16175
G1 X43.6 Y85.122 E.13911
G1 X46.014 Y83.398 E.19817
G1 X47.586 Y82.429 E.12337
G10 ; retract
G1 X47.586 Y82.429 F90000
G1 X51.037 Y88.188
G11 ; unretract
G1 F1200
G1 X52.643 Y87.334 E.12152
G1 X54.306 Y86.583 E.1219
G1 X56.002 Y85.946 E.12103
G1 X57.717 Y85.426 E.11972
G1 X59.48 Y85.012 E.12098
G1 X61.284 Y84.711 E.12218
G1 X63.086 Y84.528 E.121
G1 X64.88 Y84.464 E.11993
G1 X225.116 Y84.464 E10.70463
G1 X226.962 Y84.533 E.12341
G1 X228.696 Y84.708 E.11643
G1 X230.398 Y84.988 E.11523
G1 X232.367 Y85.449 E.1351
G1 X234.018 Y85.953 E.11532
G1 X235.629 Y86.556 E.11492
G1 X237.393 Y87.351 E.12926
G1 X239.104 Y88.269 E.12972
G1 X240.564 Y89.18 E.11497
G1 X241.97 Y90.183 E.11538
G1 X243.555 Y91.481 E.13686
G1 X244.918 Y92.77 E.12533
G1 X246.095 Y94.032 E.11528
G1 X247.19 Y95.363 E.11514
G1 X248.377 Y97.023 E.13633
G1 X249.286 Y98.491 E.11535
G1 X250.099 Y100.007 E.11492
G1 X250.904 Y101.774 E.12972
G1 X251.582 Y103.586 E.12925
G1 X252.079 Y105.233 E.11493
G1 X252.474 Y106.914 E.11536
G1 X252.809 Y108.93 E.13653
G1 X252.979 Y110.697 E.11859
G1 X253.037 Y112.465 E.11818
G1 X253.037 Y177.536 E4.3471
G1 X252.973 Y179.396 E.12433
G1 X252.787 Y181.234 E.12342
G1 X252.492 Y183.002 E.11974
G1 X252.084 Y184.747 E.11972
G1 X251.571 Y186.447 E.11863
G1 X250.944 Y188.128 E.11986
G1 X250.099 Y189.995 E.13691
G1 X249.238 Y191.592 E.12121
G1 X248.268 Y193.142 E.12215
G1 X247.22 Y194.598 E.11985
G1 X246.082 Y195.983 E.11975
G1 X244.858 Y197.292 E.11972
G1 X243.553 Y198.52 E.11971
G1 X242.142 Y199.686 E.12228
G1 X240.657 Y200.758 E.12235
G1 X238.965 Y201.811 E.13314
G1 X237.373 Y202.659 E.1205
G1 X235.711 Y203.41 E.12184
G1 X234.015 Y204.048 E.12105
G1 X232.283 Y204.574 E.12093
G1 X230.521 Y204.988 E.12092
G1 X228.717 Y205.289 E.12218
G1 X226.914 Y205.472 E.12107
G1 X225.12 Y205.536 E.11993
G1 X64.965 Y205.537 E10.69922
G1 X63.253 Y205.482 E.11443
M73 P0 R209
G1 X61.433 Y205.309 E.12213
G1 X59.626 Y205.017 E.12228
G1 X57.842 Y204.608 E.12227
G1 X56.088 Y204.083 E.12231
G1 X54.327 Y203.425 E.12559
G1 X52.656 Y202.673 E.12242
G1 X51.04 Y201.814 E.12226
G1 X49.525 Y200.878 E.11897
G1 X47.997 Y199.792 E.12523
G1 X46.61 Y198.662 E.11952
G1 X45.084 Y197.232 E.13971
G1 X43.868 Y195.925 E.11926
G1 X42.71 Y194.507 E.1223
G1 X41.646 Y193.014 E.12248
G1 X40.688 Y191.463 E.12179
G1 X39.85 Y189.891 E.11901
G1 X39.11 Y188.259 E.11971
G1 X38.472 Y186.572 E.12049
G1 X37.949 Y184.868 E.11908
G1 X37.483 Y182.875 E.13673
G1 X37.191 Y181.067 E.12235
G1 X37.018 Y179.247 E.12213
G1 X36.963 Y177.535 E.11443
G1 X36.963 Y112.464 E4.3471
G1 X37.027 Y110.604 E.12433
G1 X37.208 Y108.802 E.12099
G1 X37.505 Y107.015 E.12102
G1 X37.916 Y105.252 E.12094
G1 X38.447 Y103.501 E.12224
G1 X39.082 Y101.809 E.12073
G1 X39.827 Y100.155 E.12119
G1 X40.686 Y98.54 E.1222
G1 X41.631 Y97.01 E.12014
G1 X42.708 Y95.497 E.12407
G1 X43.838 Y94.11 E.11952
G1 X45.268 Y92.584 E.13971
G1 X46.575 Y91.368 E.11926
G1 X47.993 Y90.211 E.12226
G1 X49.486 Y89.146 E.12252
G1 X50.961 Y88.235 E.11582
G1 X50.961 Y88.235 F90000
G1 X51.242 Y88.691
G1 F1200
G1 X51.312 Y88.648 E.00549
G1 X52.871 Y87.818 E.11799
G1 X54.518 Y87.075 E.12071
G1 X56.182 Y86.451 E.11872
G1 X57.865 Y85.941 E.11748
G1 X59.593 Y85.535 E.11858
G1 X61.363 Y85.24 E.11988
G1 X63.131 Y85.062 E.11871
G1 X64.895 Y85 E.11792
G1 X225.101 Y85 E10.70263
G1 X226.917 Y85.067 E.1214
G1 X228.617 Y85.238 E.11414
G1 X230.302 Y85.515 E.11408
G1 X232.219 Y85.964 E.13153
G1 X233.838 Y86.458 E.11308
G1 X235.434 Y87.055 E.11384
G1 X237.148 Y87.827 E.12558
G1 X238.828 Y88.728 E.12736
G1 X240.273 Y89.63 E.1138
G1 X241.651 Y90.614 E.11312
G1 X243.194 Y91.877 E.13321
G1 X244.532 Y93.141 E.12296
G1 X245.687 Y94.379 E.11311
G1 X246.771 Y95.697 E.114
G1 X247.926 Y97.312 E.13264
G1 X248.818 Y98.752 E.11316
G1 X249.623 Y100.253 E.11379
G1 X250.405 Y101.971 E.1261
G1 X251.072 Y103.749 E.12686
G1 X251.563 Y105.38 E.11379
G1 X251.951 Y107.028 E.11311
G1 X252.276 Y108.99 E.13286
G1 X252.444 Y110.724 E.11638
G1 X252.501 Y112.469 E.11664
G1 X252.501 Y177.532 E4.34656
G1 X252.439 Y179.351 E.12159
G1 X252.257 Y181.154 E.12106
G1 X251.968 Y182.888 E.11744
G1 X251.569 Y184.6 E.11744
G1 X251.061 Y186.284 E.11751
G1 X250.446 Y187.932 E.11751
G1 X249.623 Y189.749 E.13326
G1 X248.779 Y191.315 E.11884
G1 X247.828 Y192.837 E.11989
G1 X246.801 Y194.264 E.11745
G1 X245.674 Y195.636 E.11862
G1 X244.473 Y196.92 E.11745
G1 X243.192 Y198.124 E.11744
G1 X241.807 Y199.268 E.12001
G1 X240.351 Y200.318 E.11992
G1 X238.69 Y201.351 E.13067
G1 X237.129 Y202.182 E.11814
G1 X235.499 Y202.918 E.11948
G1 X233.835 Y203.543 E.11875
G1 X232.136 Y204.059 E.11862
G1 X230.407 Y204.464 E.11863
G1 X228.637 Y204.76 E.11989
G1 X226.869 Y204.938 E.11871
G1 X225.105 Y205 E.11792
G1 X64.969 Y205.001 E10.69795
G1 X63.278 Y204.947 E.11303
G1 X61.492 Y204.777 E.11985
G1 X59.72 Y204.49 E.11992
G1 X57.971 Y204.088 E.11989
G1 X56.251 Y203.572 E.11996
G1 X54.522 Y202.927 E.12328
G1 X52.884 Y202.188 E.12005
G1 X51.299 Y201.345 E.11993
G1 X49.814 Y200.427 E.11663
G1 X48.314 Y199.361 E.12294
G1 X46.956 Y198.253 E.11709
G1 X45.469 Y196.86 E.13612
G1 X44.277 Y195.58 E.11685
G1 X43.141 Y194.189 E.11998
G1 X42.097 Y192.724 E.12018
G1 X41.148 Y191.188 E.12062
G1 X40.327 Y189.647 E.11665
G1 X39.601 Y188.045 E.1175
G1 X38.976 Y186.39 E.11818
G1 X38.464 Y184.72 E.11669
G1 X38.01 Y182.78 E.1331
G1 X37.723 Y181.008 E.11992
G1 X37.553 Y179.222 E.11985
G1 X37.499 Y177.531 E.11303
G1 X37.499 Y112.468 E4.34656
G1 X37.562 Y110.632 E.12273
G1 X37.74 Y108.864 E.11871
G1 X38.032 Y107.112 E.11866
G1 X38.436 Y105.382 E.11868
G1 X38.951 Y103.681 E.11873
G1 X39.58 Y102.005 E.11959
G1 X40.312 Y100.384 E.11882
G1 X41.155 Y98.799 E.11993
G1 X42.073 Y97.314 E.11663
G1 X43.139 Y95.814 E.12294
G1 X44.247 Y94.456 E.11709
G1 X45.64 Y92.969 E.13612
G1 X46.92 Y91.777 E.11685
G1 X48.311 Y90.642 E.11994
G1 X49.776 Y89.597 E.12022
G1 X51.166 Y88.738 E.10916
G1 X51.448 Y89.194 F90000
G1 F1200
G1 X51.586 Y89.108 E.01086
G1 X53.115 Y88.295 E.11569
G1 X54.73 Y87.567 E.11835
G1 X56.362 Y86.956 E.11642
G1 X58.012 Y86.456 E.11518
G1 X59.707 Y86.059 E.1163
G1 X61.443 Y85.77 E.11757
G1 X63.176 Y85.596 E.11636
G1 X64.909 Y85.535 E.11585
G1 X225.086 Y85.535 E10.70069
G1 X226.872 Y85.6 E.11939
G1 X228.539 Y85.768 E.11193
G1 X230.206 Y86.042 E.11286
G1 X232.071 Y86.479 E.12797
G1 X233.674 Y86.968 E.11196
G1 X235.237 Y87.553 E.11149
G1 X236.919 Y88.312 E.12328
G1 X238.552 Y89.187 E.12377
G1 X239.969 Y90.07 E.11154
G1 X241.333 Y91.044 E.11197
G1 X242.833 Y92.273 E.12955
G1 X244.146 Y93.513 E.12065
G1 X245.289 Y94.738 E.11193
G1 X246.351 Y96.03 E.11173
G1 X247.476 Y97.602 E.12914
G1 X248.358 Y99.026 E.1119
G1 X249.147 Y100.498 E.11157
G1 X249.914 Y102.184 E.12374
G1 X250.561 Y103.912 E.12327
G1 X251.044 Y105.51 E.11152
G1 X251.427 Y107.142 E.11199
G1 X251.744 Y109.051 E.12928
G1 X251.909 Y110.75 E.11404
G1 X251.966 Y112.473 E.11517
G1 X251.966 Y177.527 E4.34596
G1 X251.905 Y179.307 E.11898
G1 X251.728 Y181.075 E.1187
G1 X251.445 Y182.775 E.11513
G1 X251.049 Y184.47 E.11628
G1 X250.55 Y186.12 E.11516
G1 X249.947 Y187.736 E.11523
G1 X249.147 Y189.503 E.12958
G1 X248.312 Y191.053 E.11762
G1 X247.378 Y192.545 E.11759
G1 X246.371 Y193.944 E.11515
G1 X245.266 Y195.289 E.11629
G1 X244.088 Y196.547 E.11514
G1 X242.832 Y197.728 E.11517
G1 X241.473 Y198.849 E.11769
G1 X240.045 Y199.878 E.11759
G1 X238.415 Y200.891 E.12821
G1 X236.885 Y201.705 E.11578
G1 X235.286 Y202.426 E.11718
G1 X233.655 Y203.039 E.1164
G1 X231.989 Y203.544 E.1163
G1 X230.293 Y203.941 E.11636
G1 X228.558 Y204.23 E.1175
G1 X226.824 Y204.404 E.11642
G1 X225.091 Y204.465 E.11585
G1 X64.974 Y204.466 E10.69668
G1 X63.304 Y204.412 E.11162
M73 P0 R208
G1 X61.552 Y204.244 E.11758
G1 X59.815 Y203.962 E.11756
G1 X58.1 Y203.568 E.11756
G1 X56.413 Y203.062 E.11766
G1 X54.718 Y202.428 E.1209
G1 X53.112 Y201.704 E.11769
G1 X51.559 Y200.877 E.11754
G1 X50.103 Y199.976 E.11439
G1 X48.632 Y198.93 E.12058
G1 X47.302 Y197.843 E.11475
G1 X45.855 Y196.488 E.13243
G1 X44.686 Y195.234 E.11453
G1 X43.572 Y193.871 E.1176
G1 X42.548 Y192.435 E.11783
G1 X41.608 Y190.914 E.11945
G1 X40.804 Y189.403 E.11434
G1 X40.093 Y187.832 E.1152
G1 X39.48 Y186.209 E.1159
G1 X38.979 Y184.572 E.11437
G1 X38.538 Y182.685 E.12946
G1 X38.256 Y180.948 E.11756
G1 X38.088 Y179.196 E.11758
G1 X38.034 Y177.526 E.11162
G1 X38.034 Y112.473 E4.34589
G1 X38.096 Y110.676 E.12012
G1 X38.27 Y108.943 E.11636
G1 X38.555 Y107.225 E.11634
G1 X38.951 Y105.529 E.11635
G1 X39.456 Y103.861 E.11643
G1 X40.072 Y102.218 E.11722
M73 P1 R208
G1 X40.796 Y100.612 E.11769
G1 X41.623 Y99.059 E.11754
G1 X42.524 Y97.603 E.11439
G1 X43.57 Y96.132 E.12058
G1 X44.657 Y94.801 E.1148
G1 X46.012 Y93.355 E.13239
G1 X47.266 Y92.186 E.11453
G1 X48.629 Y91.072 E.1176
G1 X50.065 Y90.048 E.11783
G1 X51.371 Y89.241 E.10256
G1 X51.653 Y89.697 F90000
G1 F1200
G1 X51.86 Y89.568 E.01629
G1 X53.343 Y88.78 E.11219
G1 X54.942 Y88.059 E.11718
G1 X56.541 Y87.46 E.11407
G1 X58.158 Y86.971 E.11286
G1 X59.82 Y86.583 E.11402
G1 X61.522 Y86.3 E.11526
G1 X63.221 Y86.13 E.11407
G1 X64.923 Y86.071 E.11377
G1 X225.072 Y86.071 E10.69882
G1 X226.827 Y86.134 E.11732
G1 X228.46 Y86.298 E.10964
G1 X230.093 Y86.565 E.11054
G1 X231.924 Y86.993 E.12562
G1 X233.494 Y87.472 E.10966
G1 X235.041 Y88.052 E.11037
G1 X236.691 Y88.796 E.12092
G1 X238.276 Y89.646 E.12015
G1 X239.678 Y90.521 E.11041
G1 X241.014 Y91.475 E.10967
G1 X242.472 Y92.669 E.1259
G1 X243.76 Y93.885 E.11833
G1 X244.881 Y95.085 E.1097
G1 X245.932 Y96.363 E.11054
G1 X247.025 Y97.892 E.12556
G1 X247.89 Y99.287 E.10966
G1 X248.671 Y100.743 E.11038
G1 X249.416 Y102.381 E.12021
G1 X250.051 Y104.075 E.12086
G1 X250.529 Y105.657 E.11041
G1 X250.904 Y107.255 E.10966
G1 X251.212 Y109.112 E.12575
G1 X251.375 Y110.793 E.11283
G1 X251.43 Y112.478 E.11263
G1 X251.43 Y177.523 E4.34536
G1 X251.37 Y179.28 E.11745
G1 X251.198 Y180.996 E.11521
G1 X250.921 Y182.662 E.11283
G1 X250.534 Y184.324 E.114
G1 X250.046 Y185.941 E.11284
G1 X249.448 Y187.54 E.11405
G1 X248.671 Y189.258 E.12596
G1 X247.853 Y190.777 E.11526
G1 X246.938 Y192.239 E.11522
G1 X245.952 Y193.611 E.11287
G1 X244.869 Y194.929 E.11396
G1 X243.715 Y196.163 E.11287
G1 X242.471 Y197.332 E.11404
G1 X241.139 Y198.43 E.11532
G1 X239.74 Y199.438 E.11519
G1 X238.14 Y200.431 E.1258
G1 X236.657 Y201.22 E.11222
G1 X235.074 Y201.935 E.11604
G1 X233.475 Y202.534 E.11407
G1 X231.842 Y203.029 E.114
G1 X230.18 Y203.417 E.11402
G1 X228.479 Y203.7 E.1152
G1 X226.78 Y203.87 E.11407
G1 X225.077 Y203.929 E.11384
G1 X64.978 Y203.93 E10.69548
G1 X63.33 Y203.877 E.11015
G1 X61.612 Y203.712 E.1153
G1 X59.91 Y203.435 E.1152
G1 X58.229 Y203.048 E.11524
G1 X56.576 Y202.551 E.11531
G1 X54.914 Y201.93 E.11853
G1 X53.341 Y201.219 E.11532
G1 X51.818 Y200.408 E.11527
G1 X50.392 Y199.526 E.11201
G1 X48.95 Y198.499 E.11827
G1 X47.647 Y197.434 E.11242
G1 X46.24 Y196.116 E.12879
G1 X45.095 Y194.888 E.11217
G1 X44.003 Y193.552 E.11527
G1 X42.999 Y192.146 E.11542
G1 X42.068 Y190.64 E.11828
G1 X41.281 Y189.159 E.11204
G1 X40.584 Y187.619 E.11293
G1 X39.984 Y186.028 E.11359
G1 X39.494 Y184.424 E.11204
G1 X39.065 Y182.59 E.12583
G1 X38.788 Y180.888 E.1152
G1 X38.623 Y179.17 E.1153
G1 X38.57 Y177.522 E.11015
G1 X38.57 Y112.477 E4.34536
G1 X38.63 Y110.721 E.11738
G1 X38.8 Y109.022 E.11407
G1 X39.082 Y107.321 E.11519
G1 X39.471 Y105.659 E.11403
G1 X39.966 Y104.024 E.11412
G1 X40.57 Y102.414 E.11488
G1 X41.281 Y100.841 E.11532
G1 X42.092 Y99.318 E.11527
G1 X42.974 Y97.892 E.11201
G1 X44.001 Y96.45 E.11827
G1 X45.066 Y95.147 E.11242
G1 X46.384 Y93.74 E.12879
G1 X47.612 Y92.595 E.11217
G1 X48.948 Y91.503 E.11527
G1 X50.354 Y90.499 E.11542
G1 X51.576 Y89.744 E.09596
G1 X51.857 Y90.199 F90000
G1 F1200
G1 X52.119 Y90.037 E.02058
G1 X53.571 Y89.264 E.10989
G1 X55.139 Y88.557 E.11491
G1 X56.705 Y87.97 E.11173
G1 X58.305 Y87.486 E.11167
G1 X59.933 Y87.106 E.11168
G1 X61.601 Y86.83 E.11295
G1 X63.265 Y86.664 E.11172
G1 X64.936 Y86.606 E.1117
G1 X225.057 Y86.606 E10.69695
G1 X226.782 Y86.668 E.11531
G1 X228.399 Y86.83 E.10857
G1 X229.998 Y87.092 E.10825
G1 X231.776 Y87.508 E.12199
G1 X233.329 Y87.982 E.10847
G1 X234.845 Y88.55 E.10815
G1 X236.446 Y89.273 E.11736
G1 X238 Y90.106 E.11779
G1 X239.374 Y90.961 E.10811
G1 X240.696 Y91.906 E.10856
G1 X242.112 Y93.065 E.12224
G1 X243.375 Y94.257 E.11602
G1 X244.484 Y95.444 E.10852
G1 X245.512 Y96.696 E.10822
G1 X246.575 Y98.181 E.122
G1 X247.43 Y99.562 E.10851
G1 X248.195 Y100.988 E.10811
G1 X248.924 Y102.594 E.11783
G1 X249.541 Y104.238 E.11731
G1 X250.009 Y105.788 E.10817
G1 X250.38 Y107.369 E.10849
G1 X250.68 Y109.173 E.12217
G1 X250.84 Y110.819 E.11048
G1 X250.895 Y112.482 E.11116
G1 X250.895 Y177.518 E4.34476
