; generated by PrusaSlicer 2.8.0 on 2024-06-30 at 18:54:15 UTC


;
;

;
;
; 

; external perimeters extrusion width = 0.68mm
; perimeters extrusion width = 0.68mm
; infill extrusion width = 0.68mm
; solid infill extrusion width = 0.68mm
; top infill extrusion width = 0.60mm
; first layer extrusion width = 0.60mm

M73 P0 R16

; printing object Shape-Box id:0 copy 0
; stop printing object Shape-Box id:0 copy 0

;TYPE:Custom
M98 P"start-print.g" F"TPU" S0.6 T215 B60
G21 ; set units to millimeters
G90 ; use absolute coordinates
M83 ; use relative distances for extrusion
; Filament gcode
M107
;LAYER_CHANGE
;Z:0.3
;HEIGHT:0.3
G10 ; retract
G1 Z.3 F90000
G1 X135.269 Y100.888
G11 ; unretract
;TYPE:Skirt/Brim
;WIDTH:0.6
G1 F1200
G1 X137.008 Y99.492 E.14898
G1 X140 Y98.732 E.20623
G1 X150 Y98.732 E.66805
G1 X152.195 Y99.129 E.14902
G1 X154.112 Y100.269 E.149
G1 X155.508 Y102.008 E.14898
G1 X156.268 Y105 E.20623
G1 X156.268 Y185 E5.34443
G1 X155.871 Y187.195 E.14902
G1 X154.731 Y189.112 E.149
G1 X152.992 Y190.508 E.14898
G1 X150 Y191.268 E.20623
G1 X140 Y191.268 E.66805
G1 X137.805 Y190.871 E.14902
G1 X135.888 Y189.731 E.149
G1 X134.492 Y187.992 E.14898
G1 X133.732 Y185 E.20623
G1 X133.732 Y105 E5.34443
G1 X134.129 Y102.805 E.14902
M73 P1 R15
G1 X135.223 Y100.966 E.14295
G10 ; retract
G1 X135.223 Y100.966 F90000
; printing object Shape-Box id:0 copy 0
G1 X140.3 Y105.3
G11 ; unretract
;TYPE:External perimeter
;WIDTH:0.6
G1 F1200
G1 X149.7 Y105.3 E.62797
G1 X149.7 Y110 E.31399
G1 X149.7 Y184.7 E4.99036
G1 X140.3 Y184.7 E.62797
G1 X140.3 Y105.39 E5.29833
G1 X140.893 Y105.301 F90000
M73 P2 R15
G1 X140.836 Y105.836
;TYPE:Perimeter
G1 F1200
G1 X149.164 Y105.836 E.55635
G1 X149.164 Y110 E.27818
G1 X149.164 Y184.164 E4.95455
G1 X140.836 Y184.164 E.55635
G1 X140.836 Y105.926 E5.22672
G10 ; retract
G1 X140.836 Y105.926 F90000
M73 P3 R15
G1 X149.004 Y107.086
G11 ; unretract
;TYPE:Solid infill
;WIDTH:0.603295
G1 F1200
G1 X148.155 Y106.237 E.0807
G1 X147.393 Y106.237 E.05122
G1 X148.763 Y107.607 E.13023
G1 X148.763 Y108.369 E.05122
G1 X146.631 Y106.237 E.20266
G1 X145.869 Y106.237 E.05122
G1 X148.763 Y109.131 E.2751
G1 X148.763 Y109.894 E.05129
G1 X145.106 Y106.237 E.34763
G1 X144.344 Y106.237 E.05122
G1 X148.763 Y110.656 E.42006
G1 X148.763 Y111.418 E.05122
G1 X143.582 Y106.237 E.4925
G1 X142.82 Y106.237 E.05122
G1 X148.763 Y112.18 E.56493
G1 X148.763 Y112.942 E.05122
G1 X142.058 Y106.237 E.63737
G1 X141.296 Y106.237 E.05122
G1 X148.763 Y113.704 E.7098
G1 X148.763 Y114.466 E.05122
G1 X141.237 Y106.941 E.71536
G1 X141.237 Y107.703 E.05122
G1 X148.763 Y115.229 E.71541
G1 X148.763 Y115.991 E.05122
G1 X141.237 Y108.465 E.71541
G1 X141.237 Y109.227 E.05122
G1 X148.763 Y116.753 E.71541
G1 X148.763 Y117.515 E.05122
G1 X141.237 Y109.99 E.71536
G1 X141.237 Y110.752 E.05122
G1 X148.763 Y118.277 E.71536
G1 X148.763 Y119.039 E.05122
G1 X141.237 Y111.514 E.71536
G1 X141.237 Y112.276 E.05122
G1 X148.763 Y119.801 E.71536
G1 X148.763 Y120.564 E.05129
G1 X141.237 Y113.038 E.71541
G1 X141.237 Y113.8 E.05122
G1 X148.763 Y121.326 E.71541
G1 X148.763 Y122.088 E.05122
G1 X141.237 Y114.562 E.71541
G1 X141.237 Y115.325 E.05129
M73 P4 R15
G1 X148.763 Y122.85 E.71536
G1 X148.763 Y123.612 E.05122
G1 X141.237 Y116.087 E.71536
G1 X141.237 Y116.849 E.05122
G1 X148.763 Y124.374 E.71536
G1 X148.763 Y125.136 E.05122
G1 X141.237 Y117.611 E.71536
G1 X141.237 Y118.373 E.05122
G1 X148.763 Y125.898 E.71536
G1 X148.763 Y126.661 E.05129
G1 X141.237 Y119.135 E.71541
G1 X141.237 Y119.897 E.05122
G1 X148.763 Y127.423 E.71541
G1 X148.763 Y128.185 E.05122
G1 X141.237 Y120.66 E.71536
G1 X141.237 Y121.422 E.05122
G1 X148.763 Y128.947 E.71536
G1 X148.763 Y129.709 E.05122
G1 X141.237 Y122.184 E.71536
G1 X141.237 Y122.946 E.05122
G1 X148.763 Y130.471 E.71536
G1 X148.763 Y131.233 E.05122
G1 X141.237 Y123.708 E.71536
G1 X141.237 Y124.47 E.05122
G1 X148.763 Y131.996 E.71541
G1 X148.763 Y132.758 E.05122
G1 X141.237 Y125.232 E.71541
G1 X141.237 Y125.995 E.05129
G1 X148.763 Y133.52 E.71536
G1 X148.763 Y134.282 E.05122
G1 X141.237 Y126.757 E.71536
G1 X141.237 Y127.519 E.05122
G1 X148.763 Y135.044 E.71536
G1 X148.763 Y135.806 E.05122
M73 P5 R15
G1 X141.237 Y128.281 E.71536
G1 X141.237 Y129.043 E.05122
G1 X148.763 Y136.568 E.71536
G1 X148.763 Y137.331 E.05129
G1 X141.237 Y129.805 E.71541
G1 X141.237 Y130.567 E.05122
G1 X148.763 Y138.093 E.71541
G1 X148.763 Y138.855 E.05122
G1 X141.237 Y131.33 E.71536
G1 X141.237 Y132.092 E.05122
G1 X148.763 Y139.617 E.71536
G1 X148.763 Y140.379 E.05122
G1 X141.237 Y132.854 E.71536
G1 X141.237 Y133.616 E.05122
G1 X148.763 Y141.141 E.71536
G1 X148.763 Y141.903 E.05122
G1 X141.237 Y134.378 E.71536
G1 X141.237 Y135.14 E.05122
G1 X148.763 Y142.666 E.71541
G1 X148.763 Y143.428 E.05122
G1 X141.237 Y135.902 E.71541
G1 X141.237 Y136.664 E.05122
G1 X148.763 Y144.19 E.71541
G1 X148.763 Y144.952 E.05122
G1 X141.237 Y137.427 E.71536
G1 X141.237 Y138.189 E.05122
G1 X148.763 Y145.714 E.71536
G1 X148.763 Y146.476 E.05122
G1 X141.237 Y138.951 E.71536
G1 X141.237 Y139.713 E.05122
G1 X148.763 Y147.238 E.71536
G1 X148.763 Y148.001 E.05129
G1 X141.237 Y140.475 E.71541
G1 X141.237 Y141.237 E.05122
M73 P6 R15
G1 X148.763 Y148.763 E.71541
G1 X148.763 Y149.525 E.05122
G1 X141.237 Y141.999 E.71541
G1 X141.237 Y142.762 E.05129
G1 X148.763 Y150.287 E.71536
G1 X148.763 Y151.049 E.05122
G1 X141.237 Y143.524 E.71536
G1 X141.237 Y144.286 E.05122
G1 X148.763 Y151.811 E.71536
G1 X148.763 Y152.573 E.05122
G1 X141.237 Y145.048 E.71536
G1 X141.237 Y145.81 E.05122
G1 X148.763 Y153.336 E.71541
G1 X148.763 Y154.098 E.05122
G1 X141.237 Y146.572 E.71541
G1 X141.237 Y147.334 E.05122
G1 X148.763 Y154.86 E.71541
G1 X148.763 Y155.622 E.05122
G1 X141.237 Y148.097 E.71536
G1 X141.237 Y148.859 E.05122
G1 X148.763 Y156.384 E.71536
G1 X148.763 Y157.146 E.05122
G1 X141.237 Y149.621 E.71536
G1 X141.237 Y150.383 E.05122
G1 X148.763 Y157.908 E.71536
G1 X148.763 Y158.67 E.05122
G1 X141.237 Y151.145 E.71536
G1 X141.237 Y151.907 E.05122
G1 X148.763 Y159.433 E.71541
G1 X148.763 Y160.195 E.05122
G1 X141.237 Y152.669 E.71541
G1 X141.237 Y153.432 E.05129
G1 X148.763 Y160.957 E.71536
G1 X148.763 Y161.719 E.05122
M73 P7 R15
G1 X141.237 Y154.194 E.71536
G1 X141.237 Y154.956 E.05122
G1 X148.763 Y162.481 E.71536
G1 X148.763 Y163.243 E.05122
G1 X141.237 Y155.718 E.71536
G1 X141.237 Y156.48 E.05122
M73 P7 R14
G1 X148.763 Y164.005 E.71536
G1 X148.763 Y164.768 E.05129
G1 X141.237 Y157.242 E.71541
G1 X141.237 Y158.004 E.05122
G1 X148.763 Y165.53 E.71541
G1 X148.763 Y166.292 E.05122
G1 X141.237 Y158.767 E.71536
G1 X141.237 Y159.529 E.05122
G1 X148.763 Y167.054 E.71536
G1 X148.763 Y167.816 E.05122
G1 X141.237 Y160.291 E.71536
G1 X141.237 Y161.053 E.05122
G1 X148.763 Y168.578 E.71536
G1 X148.763 Y169.34 E.05122
G1 X141.237 Y161.815 E.71536
G1 X141.237 Y162.577 E.05122
G1 X148.763 Y170.103 E.71541
G1 X148.763 Y170.865 E.05122
G1 X141.237 Y163.339 E.71541
G1 X141.237 Y164.102 E.05129
G1 X148.763 Y171.627 E.71536
G1 X148.763 Y172.389 E.05122
G1 X141.237 Y164.864 E.71536
G1 X141.237 Y165.626 E.05122
G1 X148.763 Y173.151 E.71536
G1 X148.763 Y173.913 E.05122
G1 X141.237 Y166.388 E.71536
G1 X141.237 Y167.15 E.05122
M73 P8 R14
G1 X148.763 Y174.675 E.71536
G1 X148.763 Y175.438 E.05129
G1 X141.237 Y167.912 E.71541
G1 X141.237 Y168.674 E.05122
G1 X148.763 Y176.2 E.71541
G1 X148.763 Y176.962 E.05122
G1 X141.237 Y169.436 E.71541
G1 X141.237 Y170.199 E.05129
G1 X148.763 Y177.724 E.71536
G1 X148.763 Y178.486 E.05122
G1 X141.237 Y170.961 E.71536
G1 X141.237 Y171.723 E.05122
G1 X148.763 Y179.248 E.71536
G1 X148.763 Y180.01 E.05122
G1 X141.237 Y172.485 E.71536
G1 X141.237 Y173.247 E.05122
G1 X148.763 Y180.773 E.71541
G1 X148.763 Y181.535 E.05122
G1 X141.237 Y174.009 E.71541
G1 X141.237 Y174.771 E.05122
G1 X148.763 Y182.297 E.71541
G1 X148.763 Y183.059 E.05122
G1 X141.237 Y175.534 E.71536
G1 X141.237 Y176.296 E.05122
G1 X148.704 Y183.763 E.7098
G1 X147.942 Y183.763 E.05122
G1 X141.237 Y177.058 E.63737
G1 X141.237 Y177.82 E.05122
G1 X147.18 Y183.763 E.56493
G1 X146.418 Y183.763 E.05122
G1 X141.237 Y178.582 E.4925
G1 X141.237 Y179.344 E.05122
G1 X145.656 Y183.763 E.42006
G1 X144.894 Y183.763 E.05122
G1 X141.237 Y180.106 E.34763
G1 X141.237 Y180.869 E.05129
M73 P9 R14
G1 X144.131 Y183.763 E.2751
G1 X143.369 Y183.763 E.05122
G1 X141.237 Y181.631 E.20266
G1 X141.237 Y182.393 E.05122
G1 X142.607 Y183.763 E.13023
G1 X141.845 Y183.763 E.05122
G1 X140.996 Y182.914 E.0807
;LAYER_CHANGE
;Z:0.6
;HEIGHT:0.3
G10 ; retract
G1 Z.6 F90000
;LAYER 1
G1 X140.996 Y182.914 Z.6
G1 X140.338 Y184.663
G11 ; unretract
;TYPE:External perimeter
;WIDTH:0.675
G1 F1637.682
G1 X140.338 Y105.338 E6.04137
G1 X149.663 Y105.338 E.71019
G1 X149.663 Y110 E.35506
G1 X149.663 Y184.663 E5.68632
G1 X140.428 Y184.663 E.70334
G1 X140.338 Y184.069 F90000
G1 X140.948 Y184.052
;TYPE:Perimeter
G1 F1637.682
G1 X140.948 Y105.948 E5.94838
G1 X149.052 Y105.948 E.6172
M73 P10 R14
G1 X149.052 Y110 E.3086
G1 X149.052 Y184.052 E5.63978
G1 X141.038 Y184.052 E.61034
G10 ; retract
G1 X141.038 Y184.052 F90000
G1 X141.572 Y106.456
G11 ; unretract
;TYPE:Solid infill
;WIDTH:0.823153
G1 F1317.919
G1 X141.505 Y106.389 E.00897
G1 X141.413 Y106.413 E.009
G1 X141.389 Y106.505 E.009
G1 X141.456 Y106.572 E.00897
G1 X141.547 Y106.547 E.00893
;WIDTH:0.675
G1 F1637.682
G1 X142.523 Y106.406 E.0751
G1 X141.34 Y107.595 E.12774
;WIDTH:0.64146
G1 F1732.864
G1 X141.273 Y107.668 E.00713
;WIDTH:0.60792
G1 F1839.792
G1 X141.207 Y107.74 E.00662
;WIDTH:0.574381
G1 F1960.784
G1 X141.162 Y107.695 E.00405
G1 X141.1 Y107.712 E.00409
G1 X141.084 Y107.773 E.00401
G1 X141.129 Y107.819 E.00409
G1 X141.191 Y107.802 E.00409
;WIDTH:0.675
G1 F1637.682
G1 X141.406 Y108.386 E.0474
G1 X143.386 Y106.406 E.21326
G1 X144.25 Y106.406 E.0658
G1 X141.406 Y109.25 E.30632
G1 X141.406 Y110.113 E.06573
G1 X145.113 Y106.406 E.39927
G1 X145.977 Y106.406 E.0658
G1 X141.406 Y110.977 E.49232
G1 X141.406 Y111.84 E.06573
G1 X146.84 Y106.406 E.58528
G1 X147.704 Y106.406 E.0658
G1 X141.406 Y112.704 E.67833
G1 X141.406 Y113.567 E.06573
G1 X148.567 Y106.406 E.77128
G1 X148.594 Y107.243 E.06378
G1 X141.406 Y114.431 E.77419
G1 X141.406 Y115.294 E.06573
G1 X148.594 Y108.107 E.77414
G1 X148.594 Y108.97 E.06573
G1 X141.406 Y116.158 E.77419
G1 X141.406 Y117.022 E.0658
G1 X148.594 Y109.834 E.77419
G1 X148.594 Y110.697 E.06573
G1 X141.406 Y117.885 E.77419
G1 X141.406 Y118.749 E.0658
G1 X148.594 Y111.561 E.77419
G1 X148.594 Y112.424 E.06573
G1 X141.406 Y119.612 E.77419
G1 X141.406 Y120.476 E.0658
G1 X148.594 Y113.288 E.77419
G1 X148.594 Y114.151 E.06573
G1 X141.406 Y121.339 E.77419
M73 P11 R14
G1 X141.406 Y122.203 E.0658
G1 X148.594 Y115.015 E.77419
G1 X148.594 Y115.879 E.0658
G1 X141.406 Y123.066 E.77414
G1 X141.406 Y123.93 E.0658
G1 X148.594 Y116.742 E.77419
G1 X148.594 Y117.606 E.0658
G1 X141.406 Y124.793 E.77414
G1 X141.406 Y125.657 E.0658
G1 X148.594 Y118.469 E.77419
G1 X148.594 Y119.333 E.0658
G1 X141.406 Y126.521 E.77419
G1 X141.406 Y127.384 E.06573
G1 X148.594 Y120.196 E.77419
G1 X148.594 Y121.06 E.0658
G1 X141.406 Y128.248 E.77419
G1 X141.406 Y129.111 E.06573
G1 X148.594 Y121.923 E.77419
G1 X148.594 Y122.787 E.0658
G1 X141.406 Y129.975 E.77419
G1 X141.406 Y130.838 E.06573
G1 X148.594 Y123.65 E.77419
G1 X148.594 Y124.514 E.0658
G1 X141.406 Y131.702 E.77419
G1 X141.406 Y132.565 E.06573
G1 X148.594 Y125.378 E.77414
G1 X148.594 Y126.241 E.06573
G1 X141.406 Y133.429 E.77419
G1 X141.406 Y134.292 E.06573
G1 X148.594 Y127.105 E.77414
G1 X148.594 Y127.968 E.06573
G1 X141.406 Y135.156 E.77419
G1 X141.406 Y136.02 E.0658
G1 X148.594 Y128.832 E.77419
G1 X148.594 Y129.695 E.06573
G1 X141.406 Y136.883 E.77419
G1 X141.406 Y137.747 E.0658
G1 X148.594 Y130.559 E.77419
G1 X148.594 Y131.422 E.06573
G1 X141.406 Y138.61 E.77419
G1 X141.406 Y139.474 E.0658
G1 X148.594 Y132.286 E.77419
G1 X148.594 Y133.149 E.06573
G1 X141.406 Y140.337 E.77419
G1 X141.406 Y141.201 E.0658
G1 X148.594 Y134.013 E.77419
G1 X148.594 Y134.877 E.0658
G1 X141.406 Y142.064 E.77414
M73 P12 R14
G1 X141.406 Y142.928 E.0658
G1 X148.594 Y135.74 E.77419
G1 X148.594 Y136.604 E.0658
G1 X141.406 Y143.791 E.77414
G1 X141.406 Y144.655 E.0658
G1 X148.594 Y137.467 E.77419
G1 X148.594 Y138.331 E.0658
G1 X141.406 Y145.519 E.77419
G1 X141.406 Y146.382 E.06573
G1 X148.594 Y139.194 E.77419
G1 X148.594 Y140.058 E.0658
G1 X141.406 Y147.246 E.77419
G1 X141.406 Y148.109 E.06573
G1 X148.594 Y140.921 E.77419
G1 X148.594 Y141.785 E.0658
G1 X141.406 Y148.973 E.77419
G1 X141.406 Y149.836 E.06573
G1 X148.594 Y142.648 E.77419
G1 X148.594 Y143.512 E.0658
G1 X141.406 Y150.7 E.77419
G1 X141.406 Y151.563 E.06573
G1 X148.594 Y144.376 E.77414
G1 X148.594 Y145.239 E.06573
G1 X141.406 Y152.427 E.77419
G1 X141.406 Y153.29 E.06573
G1 X148.594 Y146.103 E.77414
G1 X148.594 Y146.966 E.06573
G1 X141.406 Y154.154 E.77419
G1 X141.406 Y155.018 E.0658
G1 X148.594 Y147.83 E.77419
G1 X148.594 Y148.693 E.06573
G1 X141.406 Y155.881 E.77419
G1 X141.406 Y156.745 E.0658
G1 X148.594 Y149.557 E.77419
G1 X148.594 Y150.42 E.06573
G1 X141.406 Y157.608 E.77419
G1 X141.406 Y158.472 E.0658
G1 X148.594 Y151.284 E.77419
G1 X148.594 Y152.147 E.06573
G1 X141.406 Y159.335 E.77419
G1 X141.406 Y160.199 E.0658
G1 X148.594 Y153.011 E.77419
G1 X148.594 Y153.875 E.0658
G1 X141.406 Y161.062 E.77414
G1 X141.406 Y161.926 E.0658
G1 X148.594 Y154.738 E.77419
G1 X148.594 Y155.602 E.0658
G1 X141.406 Y162.789 E.77414
M73 P13 R14
G1 X141.406 Y163.653 E.0658
G1 X148.594 Y156.465 E.77419
G1 X148.594 Y157.329 E.0658
G1 X141.406 Y164.517 E.77419
G1 X141.406 Y165.38 E.06573
G1 X148.594 Y158.192 E.77419
G1 X148.594 Y159.056 E.0658
G1 X141.406 Y166.244 E.77419
G1 X141.406 Y167.107 E.06573
G1 X148.594 Y159.919 E.77419
G1 X148.594 Y160.783 E.0658
G1 X141.406 Y167.971 E.77419
G1 X141.406 Y168.834 E.06573
G1 X148.594 Y161.646 E.77419
G1 X148.594 Y162.51 E.0658
G1 X141.406 Y169.698 E.77419
G1 X141.406 Y170.561 E.06573
M73 P13 R13
G1 X148.594 Y163.374 E.77414
G1 X148.594 Y164.237 E.06573
G1 X141.406 Y171.425 E.77419
G1 X141.406 Y172.288 E.06573
G1 X148.594 Y165.101 E.77414
G1 X148.594 Y165.964 E.06573
G1 X141.406 Y173.152 E.77419
G1 X141.406 Y174.016 E.0658
G1 X148.594 Y166.828 E.77419
G1 X148.594 Y167.691 E.06573
G1 X141.406 Y174.879 E.77419
G1 X141.406 Y175.743 E.0658
G1 X148.594 Y168.555 E.77419
G1 X148.594 Y169.418 E.06573
G1 X141.406 Y176.606 E.77419
G1 X141.406 Y177.47 E.0658
G1 X148.594 Y170.282 E.77419
G1 X148.594 Y171.145 E.06573
G1 X141.406 Y178.333 E.77419
G1 X141.406 Y179.197 E.0658
G1 X148.594 Y172.009 E.77419
G1 X148.594 Y172.873 E.0658
G1 X141.406 Y180.06 E.77414
G1 X141.406 Y180.924 E.0658
G1 X148.594 Y173.736 E.77419
G1 X148.594 Y174.6 E.0658
G1 X141.406 Y181.787 E.77414
G1 X141.406 Y182.651 E.0658
G1 X148.594 Y175.463 E.77419
G1 X148.594 Y176.327 E.0658
M73 P14 R13
G1 X141.406 Y183.515 E.77419
G1 X141.332 Y183.615 E.00947
;WIDTH:0.64146
G1 F1732.864
G1 X141.259 Y183.715 E.00891
;WIDTH:0.60792
G1 F1839.792
G1 X141.185 Y183.815 E.00843
;WIDTH:0.574381
G1 F1960.784
G1 X141.364 Y183.824 E.0114
;WIDTH:0.675
G1 F1637.682
G1 X142.19 Y183.594 E.0653
G1 X148.594 Y177.19 E.68975
G1 X148.594 Y178.054 E.0658
G1 X143.054 Y183.594 E.59669
G1 X143.917 Y183.594 E.06573
G1 X148.594 Y178.917 E.50374
G1 X148.594 Y179.781 E.0658
G1 X144.781 Y183.594 E.41068
G1 X145.644 Y183.594 E.06573
G1 X148.594 Y180.644 E.31773
G1 X148.594 Y181.508 E.0658
G1 X146.508 Y183.594 E.22468
G1 X147.372 Y183.594 E.0658
G1 X148.594 Y182.372 E.13162
G1 X148.588 Y183.462 E.08302
;WIDTH:0.885182
G1 F1218.321
G1 X148.515 Y183.39 E.0105
G1 X148.416 Y183.416 E.01048
G1 X148.39 Y183.515 E.01048
G1 X148.462 Y183.588 E.0105
G1 X148.561 Y183.561 E.01051
;LAYER_CHANGE
;Z:0.9
;HEIGHT:0.3
G10 ; retract
G1 Z.9 F90000
;LAYER 2
G1 X148.561 Y183.561 Z.9
G1 X149.663 Y184.663
G11 ; unretract
;TYPE:External perimeter
;WIDTH:0.675
G1 F1637.682
G1 X140.338 Y184.663 E.71019
G1 X140.338 Y105.338 E6.04137
G1 X149.663 Y105.338 E.71019
G1 X149.663 Y110 E.35506
G1 X149.663 Y184.573 E5.67946
G1 X149.069 Y184.662 F90000
G1 X149.052 Y184.052
;TYPE:Perimeter
G1 F1637.682
G1 X140.948 Y184.052 E.6172
G1 X140.948 Y105.948 E5.94838
