; generated by PrusaSlicer 2.7.4 on 2024-06-18 at 23:12:23 UTC


;
;

;
;
; 

; external perimeters extrusion width = 0.68mm
; perimeters extrusion width = 0.68mm
; infill extrusion width = 0.68mm
; solid infill extrusion width = 0.68mm
; top infill extrusion width = 0.60mm
; support material extrusion width = 0.60mm
; first layer extrusion width = 0.60mm

; external perimeters extrusion width = 0.68mm
; perimeters extrusion width = 0.68mm
; infill extrusion width = 0.68mm
; solid infill extrusion width = 0.68mm
; top infill extrusion width = 0.60mm
; support material extrusion width = 0.60mm
; first layer extrusion width = 0.60mm

M73 P0 R12

; printing object Alignment Block.stl id:1 copy 0
; stop printing object Alignment Block.stl id:1 copy 0
; printing object Alignment Block.stl id:0 copy 0
; stop printing object Alignment Block.stl id:0 copy 0

;TYPE:Custom
M98 P"check-filament.g" F"PETG"
M98 P"revo/check-nozzle.g" S0.6

M140 S85
M116 ; wait for all temps to be reached

T0 ; select first tool
G10 P0 S240 ; set nozzle temperature
M703 ; configure it

G28 ; home all axes
M116 ; wait for all temps to be reached
M98 P"feed.g" ; feed filament into the nozzle
G21 ; set units to millimeters
G90 ; use absolute coordinates
M83 ; use relative distances for extrusion
; Filament gcode
M107
;LAYER_CHANGE
;Z:0.3
;HEIGHT:0.3
G10 ; retract
G1 Z.3 F90000
G1 X118.149 Y130.787
G11 ; unretract
;TYPE:Skirt/Brim
;WIDTH:0.6
G1 F1200
M73 P0 R11
G1 X118.778 Y130.249 E.05529
G1 X119.762 Y129.592 E.07904
G1 X120.498 Y129.217 E.05518
G1 X121.608 Y128.808 E.07903
G1 X122.412 Y128.615 E.05524
G1 X123.736 Y128.47 E.08898
G1 X166.257 Y128.469 E2.84063
G1 X167.588 Y128.615 E.08945
G1 X169.027 Y129.021 E.09989
G1 X170.676 Y129.861 E.12363
G1 X171.735 Y130.68 E.08944
G1 X172.653 Y131.655 E.08946
G1 X173.484 Y132.899 E.09994
G1 X174.192 Y134.608 E.12358
G1 X174.466 Y135.919 E.08947
G1 X174.536 Y137 E.07237
G1 X174.536 Y153 E1.06889
G1 X174.385 Y154.588 E.10657
G1 X173.979 Y156.027 E.09989
G1 X173.484 Y157.101 E.079
G1 X173.052 Y157.807 E.05529
G1 X171.851 Y159.213 E.12353
G1 X171.222 Y159.751 E.05529
G1 X170.238 Y160.408 E.07904
G1 X169.502 Y160.783 E.05518
G1 X168.392 Y161.192 E.07903
G1 X167.588 Y161.385 E.05524
G1 X166.257 Y161.531 E.08945
G1 X123.587 Y161.524 E2.85059
G1 X122.412 Y161.385 E.07904
M73 P1 R11
G1 X121.608 Y161.192 E.05524
G1 X120.498 Y160.783 E.07903
G1 X119.762 Y160.408 E.05518
G1 X118.778 Y159.751 E.07904
G1 X118.149 Y159.213 E.05529
G1 X117.347 Y158.345 E.07895
G1 X116.592 Y157.238 E.08952
G1 X116.217 Y156.502 E.05518
G1 X115.808 Y155.392 E.07903
G1 X115.615 Y154.588 E.05524
G1 X115.476 Y153.414 E.07898
G1 X115.516 Y136.075 E1.15834
G1 X115.645 Y135.258 E.05526
G1 X115.966 Y134.12 E.07899
G1 X116.283 Y133.356 E.05526
G1 X116.861 Y132.324 E.07902
G1 X117.347 Y131.655 E.05524
G1 X118.088 Y130.853 E.07295
G10 ; retract
G1 X118.088 Y130.853 F90000
; printing object Alignment Block.stl id:0 copy 0
G1 X148.387 Y136.47
G11 ; unretract
;TYPE:External perimeter
;WIDTH:0.6
G1 F1200
G1 X148.55 Y136.118 E.02591
G1 X148.902 Y135.705 E.03625
G1 X149.225 Y135.49 E.02592
G1 X149.861 Y135.306 E.04423
G1 X165.882 Y135.3 E1.07029
G1 X166.396 Y135.349 E.03449
G1 X166.765 Y135.485 E.02627
G1 X167.2 Y135.8 E.03588
G1 X167.512 Y136.23 E.03549
G1 X167.594 Y136.482 E.0177
G1 X167.694 Y136.902 E.02884
G1 X167.7 Y152.978 E1.07396
G1 X167.614 Y153.524 E.03693
G1 X167.37 Y154.002 E.03585
G1 X167.098 Y154.295 E.02671
G1 X166.772 Y154.513 E.0262
G1 X166.396 Y154.651 E.02676
G1 X165.983 Y154.7 E.02778
G1 X150.124 Y154.7 E1.05947
G1 X149.609 Y154.652 E.03455
G1 X149.114 Y154.447 E.03579
G1 X148.797 Y154.176 E.02786
G1 X148.555 Y153.891 E.02498
G1 X148.347 Y153.385 E.03655
G1 X148.3 Y152.984 E.02697
G1 X148.3 Y137.022 E1.06635
G1 X148.373 Y136.559 E.03131
G1 X148.651 Y136.027 F90000
G1 X148.937 Y136.598
;TYPE:Perimeter
G1 F1200
G1 X148.955 Y136.518 E.00548
G1 X149.183 Y136.201 E.02609
G1 X149.46 Y135.977 E.0238
G1 X149.892 Y135.842 E.03024
G1 X165.882 Y135.836 E1.06822
G1 X166.107 Y135.854 E.01508
G1 X166.511 Y135.962 E.02794
G1 X166.816 Y136.184 E.0252
G1 X167.028 Y136.476 E.02411
G1 X167.158 Y136.903 E.02982
G1 X167.164 Y152.831 E1.06408
G1 X167.098 Y153.357 E.03542
M73 P2 R11
G1 X166.927 Y153.692 E.02513
G1 X166.748 Y153.885 E.01759
G1 X166.407 Y154.076 E.02611
G1 X165.951 Y154.164 E.03103
G1 X150.124 Y154.164 E1.05733
G1 X149.746 Y154.129 E.02536
G1 X149.397 Y153.984 E.02525
G1 X149.098 Y153.729 E.02625
G1 X148.87 Y153.249 E.0355
G1 X148.836 Y152.952 E.01997
G1 X148.836 Y137.169 E1.05439
G1 X148.852 Y136.961 E.01394
G1 X148.916 Y136.685 E.01893
G10 ; retract
G1 X148.916 Y136.685 F90000
G1 X156.522 Y143.08
G11 ; unretract
;TYPE:External perimeter
G1 F1200
G1 X156.898 Y142.841 E.02976
G1 X157.365 Y142.661 E.03344
G1 X157.914 Y142.578 E.03709
G1 X158.358 Y142.603 E.02971
G1 X158.844 Y142.728 E.03352
G1 X159.238 Y142.917 E.02919
G1 X159.64 Y143.216 E.03347
G1 X159.934 Y143.54 E.02923
G1 X160.193 Y143.969 E.03348
G1 X160.343 Y144.379 E.02917
G1 X160.42 Y144.874 E.03347
G1 X160.385 Y145.428 E.03708
G1 X160.271 Y145.849 E.02914
G1 X160.107 Y146.198 E.02576
G1 X159.815 Y146.605 E.03346
G1 X159.396 Y146.981 E.03761
G1 X159.027 Y147.196 E.02853
G1 X158.676 Y147.328 E.02505
G1 X158.306 Y147.404 E.02523
G1 X157.798 Y147.415 E.03395
G1 X157.246 Y147.303 E.03763
G1 X156.734 Y147.067 E.03766
G1 X156.318 Y146.74 E.03535
G1 X156.13 Y146.541 E.01829
G1 X155.821 Y146.061 E.03814
G1 X155.639 Y145.551 E.03618
G1 X155.582 Y145.158 E.02653
G1 X155.607 Y144.613 E.03645
G1 X155.698 Y144.24 E.02565
G1 X155.848 Y143.885 E.02575
G1 X156.124 Y143.466 E.03352
G1 X156.457 Y143.143 E.03099
G1 X156.969 Y142.83 F90000
G1 X156.234 Y142.64
;TYPE:Perimeter
G1 F1200
G1 X156.705 Y142.342 E.03723
G1 X157.173 Y142.161 E.03352
G1 X157.841 Y142.048 E.04526
G1 X158.491 Y142.084 E.04349
G1 X158.977 Y142.209 E.03352
G1 X159.558 Y142.487 E.04303
G1 X159.96 Y142.786 E.03347
G1 X160.392 Y143.263 E.04299
G1 X160.652 Y143.692 E.03351
G1 X160.872 Y144.297 E.04301
G1 X160.949 Y144.791 E.0334
G1 X160.919 Y145.469 E.04534
G1 X160.759 Y146.07 E.04155
G1 X160.542 Y146.509 E.03271
G1 X160.251 Y146.917 E.03348
G1 X159.749 Y147.384 E.0458
G1 X159.22 Y147.696 E.04103
G1 X158.79 Y147.852 E.03056
G1 X158.318 Y147.939 E.03206
G1 X157.809 Y147.95 E.03401
G1 X157.132 Y147.827 E.04597
G1 X156.503 Y147.55 E.04591
G1 X156.008 Y147.188 E.04097
G1 X155.683 Y146.836 E.03201
G1 X155.402 Y146.412 E.03398
G1 X155.318 Y146.245 E.01249
G1 X155.112 Y145.644 E.04244
G1 X155.046 Y145.138 E.03409
G1 X155.085 Y144.491 E.0433
G1 X155.202 Y144.038 E.03126
G1 X155.401 Y143.59 E.03275
G1 X155.676 Y143.172 E.03343
G1 X156.154 Y142.691 E.0453
G1 X156.158 Y142.688 E.00033
G10 ; retract
G1 X156.158 Y142.688 F90000
G1 X165.307 Y136.004
G11 ; unretract
;TYPE:Solid infill
;WIDTH:0.600565
G1 F1200
G1 X166.757 Y137.454 E.13714
G1 X166.757 Y138.212 E.05069
G1 X164.79 Y136.245 E.18603
G1 X164.031 Y136.245 E.05076
G1 X166.757 Y138.971 E.25782
G1 X166.758 Y139.729 E.05069
G1 X163.273 Y136.245 E.32955
G1 X162.515 Y136.244 E.05069
G1 X166.758 Y140.488 E.40134
G1 X166.758 Y141.246 E.05069
G1 X161.756 Y136.244 E.47307
G1 X160.998 Y136.244 E.05069
G1 X166.758 Y142.005 E.54481
G1 X166.759 Y142.764 E.05076
G1 X160.239 Y136.244 E.61664
G1 X159.481 Y136.244 E.05069
G1 X166.759 Y143.522 E.68833
G1 X166.759 Y144.281 E.05076
M73 P3 R11
G1 X158.723 Y136.244 E.76007
G1 X157.964 Y136.244 E.05076
G1 X166.76 Y145.039 E.83185
G1 X166.76 Y145.798 E.05076
G1 X157.206 Y136.244 E.90359
G1 X156.448 Y136.244 E.05069
G1 X166.76 Y146.556 E.97527
G1 X166.76 Y147.315 E.05076
G1 X155.689 Y136.244 E1.04706
G1 X154.931 Y136.244 E.05069
G1 X166.761 Y148.074 E1.11884
G1 X166.761 Y148.832 E.05069
G1 X154.173 Y136.244 E1.19053
G1 X153.414 Y136.244 E.05076
G1 X158.961 Y141.79 E.52457
G1 X159.291 Y141.897 E.0232
G1 X159.604 Y142.047 E.02321
G1 X159.792 Y142.161 E.0147
G1 X160.204 Y142.467 E.03432
G1 X160.341 Y142.587 E.01218
G1 X160.601 Y142.873 E.02585
G1 X160.733 Y143.049 E.01471
G1 X160.999 Y143.49 E.03444
G1 X161.094 Y143.689 E.01475
G1 X161.222 Y144.052 E.02574
G1 X167.002 Y149.832 E.54665
G10 ; retract
G1 X167.002 Y149.832 F90000
G1 X161.095 Y144.683
G11 ; unretract
G1 F1200
G1 X166.762 Y150.349 E.53592
G1 X166.762 Y151.108 E.05076
M73 P4 R11
G1 X161.296 Y145.641 E.517
G1 X161.187 Y146.066 E.02934
G1 X161.12 Y146.224 E.01148
G1 X166.762 Y151.866 E.5336
G1 X166.763 Y152.625 E.05076
G1 X160.874 Y146.736 E.55696
G1 X160.556 Y147.177 E.03636
G1 X166.677 Y153.298 E.5789
G1 X166.594 Y153.46 E.01217
G1 X166.486 Y153.577 E.01065
G1 X166.306 Y153.685 E.01404
G1 X160.17 Y147.549 E.58032
G1 X160.008 Y147.691 E.01441
G1 X159.736 Y147.873 E.02189
G1 X165.625 Y153.763 E.55701
G1 X164.867 Y153.763 E.05069
G1 X159.225 Y148.12 E.53365
G1 X158.883 Y148.242 E.02428
G1 X158.641 Y148.295 E.01657
G1 X164.109 Y153.763 E.51715
G1 X163.351 Y153.763 E.05069
G1 X157.687 Y148.1 E.53564
G10 ; retract
G1 X157.687 Y148.1 F90000
G1 X158.311 Y141.898
G11 ; unretract
G1 F1200
G1 X152.656 Y136.244 E.53478
G1 X151.898 Y136.244 E.05069
G1 X157.363 Y141.709 E.51686
G1 X157.249 Y141.725 E.0077
G1 X157.034 Y141.784 E.01491
G1 X156.779 Y141.883 E.01829
G1 X151.139 Y136.244 E.53337
G1 X150.381 Y136.244 E.05069
G1 X156.265 Y142.127 E.55644
G1 X156.055 Y142.26 E.01662
G1 X155.827 Y142.447 E.01972
G1 X149.7 Y136.321 E.57942
G1 X149.637 Y136.342 E.00444
G1 X149.531 Y136.413 E.00853
G1 X149.347 Y136.628 E.01892
G1 X149.316 Y136.695 E.00494
G1 X155.446 Y142.825 E.57976
G1 X155.345 Y142.945 E.01049
G1 X155.132 Y143.269 E.02593
G1 X149.237 Y137.375 E.55748
G1 X149.237 Y138.133 E.05069
G1 X154.876 Y143.772 E.53332
G1 X154.827 Y143.894 E.00879
M73 P5 R11
G1 X154.705 Y144.359 E.03215
G1 X149.237 Y138.891 E.51715
G1 X149.237 Y139.649 E.05069
G1 X154.897 Y145.309 E.5353
G10 ; retract
G1 X154.897 Y145.309 F90000
G1 X148.996 Y140.167
G11 ; unretract
G1 F1200
G1 X154.784 Y145.955 E.54741
G1 X154.943 Y146.39 E.03097
G1 X155.063 Y146.627 E.01777
G1 X155.351 Y147.063 E.03494
G1 X155.49 Y147.234 E.01474
G1 X155.855 Y147.587 E.03396
G1 X156.135 Y147.796 E.02337
G1 X156.324 Y147.91 E.01476
G1 X156.79 Y148.132 E.03452
G1 X157.049 Y148.22 E.01829
G1 X162.592 Y153.763 E.52424
G1 X161.834 Y153.763 E.05069
G1 X149.237 Y141.166 E1.19138
G1 X149.237 Y141.924 E.05069
G1 X161.076 Y153.763 E1.11969
G1 X160.317 Y153.763 E.05076
G1 X149.237 Y142.683 E1.04791
G1 X149.237 Y143.441 E.05069
G1 X159.559 Y153.763 E.97622
G1 X158.801 Y153.763 E.05069
G1 X149.237 Y144.199 E.90453
G1 X149.237 Y144.957 E.05069
G1 X158.043 Y153.763 E.83284
G1 X157.284 Y153.763 E.05076
G1 X149.237 Y145.716 E.76106
G1 X149.237 Y146.474 E.05069
M73 P6 R11
G1 X156.526 Y153.763 E.68937
G1 X155.768 Y153.763 E.05069
G1 X149.237 Y147.232 E.61768
G1 X149.237 Y147.99 E.05069
G1 X155.01 Y153.763 E.54599
G1 X154.251 Y153.763 E.05076
G1 X149.237 Y148.749 E.47421
G1 X149.237 Y149.507 E.05069
G1 X153.493 Y153.763 E.40252
G1 X152.735 Y153.763 E.05069
G1 X149.237 Y150.265 E.33083
G1 X149.237 Y151.024 E.05076
G1 X151.976 Y153.763 E.25905
G1 X151.218 Y153.763 E.05069
G1 X149.237 Y151.782 E.18736
G1 X149.237 Y152.54 E.05069
G1 X150.701 Y154.004 E.13846
G10 ; retract
G1 X150.701 Y154.004 F90000
; stop printing object Alignment Block.stl id:0 copy 0
; printing object Alignment Block.stl id:1 copy 0
G1 X141.614 Y153.524
G11 ; unretract
;TYPE:External perimeter
;WIDTH:0.6
G1 F1200
G1 X141.37 Y154.002 E.03585
G1 X141.098 Y154.295 E.02671
G1 X140.772 Y154.513 E.0262
G1 X140.396 Y154.651 E.02676
G1 X139.983 Y154.7 E.02778
G1 X124.124 Y154.7 E1.05947
G1 X123.609 Y154.652 E.03455
G1 X123.114 Y154.447 E.03579
G1 X122.797 Y154.176 E.02786
G1 X122.555 Y153.891 E.02498
G1 X122.347 Y153.385 E.03655
G1 X122.3 Y152.984 E.02697
G1 X122.3 Y137.022 E1.06635
G1 X122.387 Y136.47 E.03733
G1 X122.55 Y136.118 E.02591
G1 X122.902 Y135.705 E.03625
G1 X123.225 Y135.49 E.02592
G1 X123.861 Y135.306 E.04423
G1 X139.882 Y135.3 E1.07029
G1 X140.396 Y135.349 E.03449
G1 X140.765 Y135.485 E.02627
G1 X141.2 Y135.8 E.03588
G1 X141.512 Y136.23 E.03549
G1 X141.594 Y136.482 E.0177
G1 X141.694 Y136.902 E.02884
G1 X141.7 Y152.978 E1.07396
G1 X141.628 Y153.435 E.03091
M73 P7 R11
G1 X141.363 Y153.974 F90000
G1 X141.098 Y153.357
;TYPE:Perimeter
G1 F1200
G1 X140.927 Y153.692 E.02513
G1 X140.748 Y153.885 E.01759
G1 X140.407 Y154.076 E.02611
G1 X139.951 Y154.164 E.03103
G1 X124.124 Y154.164 E1.05733
G1 X123.746 Y154.129 E.02536
G1 X123.397 Y153.984 E.02525
G1 X123.098 Y153.729 E.02625
G1 X122.87 Y153.249 E.0355
G1 X122.836 Y152.952 E.01997
G1 X122.836 Y137.169 E1.05439
G1 X122.852 Y136.961 E.01394
G1 X122.955 Y136.518 E.03038
G1 X123.183 Y136.201 E.02609
G1 X123.46 Y135.977 E.0238
G1 X123.892 Y135.842 E.03024
G1 X139.882 Y135.836 E1.06822
G1 X140.107 Y135.854 E.01508
G1 X140.511 Y135.962 E.02794
G1 X140.816 Y136.184 E.0252
G1 X141.028 Y136.476 E.02411
G1 X141.158 Y136.903 E.02982
G1 X141.164 Y152.831 E1.06408
G1 X141.109 Y153.267 E.02936
G10 ; retract
G1 X141.109 Y153.267 F90000
G1 X133.396 Y146.981
G11 ; unretract
;TYPE:External perimeter
G1 F1200
G1 X133.027 Y147.196 E.02853
G1 X132.676 Y147.328 E.02505
G1 X132.306 Y147.404 E.02523
G1 X131.798 Y147.415 E.03395
G1 X131.246 Y147.303 E.03763
G1 X130.734 Y147.067 E.03766
G1 X130.318 Y146.74 E.03535
G1 X130.13 Y146.541 E.01829
G1 X129.821 Y146.061 E.03814
G1 X129.639 Y145.551 E.03618
G1 X129.582 Y145.158 E.02653
G1 X129.607 Y144.613 E.03645
G1 X129.698 Y144.24 E.02565
G1 X129.848 Y143.885 E.02575
G1 X130.124 Y143.466 E.03352
G1 X130.522 Y143.08 E.03704
G1 X130.898 Y142.841 E.02976
G1 X131.365 Y142.661 E.03344
G1 X131.914 Y142.578 E.03709
G1 X132.358 Y142.603 E.02971
G1 X132.844 Y142.728 E.03352
G1 X133.238 Y142.917 E.02919
G1 X133.64 Y143.216 E.03347
G1 X133.934 Y143.54 E.02923
G1 X134.193 Y143.969 E.03348
G1 X134.343 Y144.379 E.02917
G1 X134.42 Y144.874 E.03347
G1 X134.385 Y145.428 E.03708
G1 X134.271 Y145.849 E.02914
G1 X134.107 Y146.198 E.02576
G1 X133.815 Y146.605 E.03346
G1 X133.463 Y146.921 E.0316
G1 X132.94 Y147.215 F90000
G1 X133.67 Y147.431
;TYPE:Perimeter
G1 F1200
G1 X133.22 Y147.696 E.03489
G1 X132.79 Y147.852 E.03056
G1 X132.318 Y147.939 E.03206
G1 X131.809 Y147.95 E.03401
G1 X131.132 Y147.827 E.04597
G1 X130.503 Y147.55 E.04591
G1 X130.008 Y147.188 E.04097
G1 X129.683 Y146.836 E.03201
G1 X129.402 Y146.412 E.03398
G1 X129.318 Y146.245 E.01249
G1 X129.112 Y145.644 E.04244
G1 X129.046 Y145.138 E.03409
G1 X129.085 Y144.491 E.0433
G1 X129.202 Y144.038 E.03126
G1 X129.401 Y143.59 E.03275
G1 X129.676 Y143.172 E.03343
G1 X130.154 Y142.691 E.0453
G1 X130.705 Y142.342 E.04357
G1 X131.173 Y142.161 E.03352
G1 X131.841 Y142.048 E.04526
G1 X132.491 Y142.084 E.04349
G1 X132.977 Y142.209 E.03352
G1 X133.558 Y142.487 E.04303
G1 X133.96 Y142.786 E.03347
G1 X134.392 Y143.263 E.04299
G1 X134.652 Y143.692 E.03351
G1 X134.872 Y144.297 E.04301
G1 X134.949 Y144.791 E.0334
G1 X134.919 Y145.469 E.04534
G1 X134.759 Y146.07 E.04155
G1 X134.542 Y146.509 E.03271
G1 X134.251 Y146.917 E.03348
G1 X133.749 Y147.384 E.0458
G10 ; retract
G1 X133.749 Y147.384 F90000
G1 X139.307 Y136.004
G11 ; unretract
;TYPE:Solid infill
;WIDTH:0.600565
G1 F1200
G1 X140.757 Y137.454 E.13714
G1 X140.757 Y138.212 E.05069
G1 X138.79 Y136.245 E.18603
G1 X138.031 Y136.245 E.05076
G1 X140.757 Y138.971 E.25782
G1 X140.758 Y139.729 E.05069
G1 X137.273 Y136.245 E.32955
G1 X136.515 Y136.244 E.05069
G1 X140.758 Y140.488 E.40134
G1 X140.758 Y141.246 E.05069
G1 X135.756 Y136.244 E.47307
G1 X134.998 Y136.244 E.05069
M73 P8 R11
G1 X140.758 Y142.005 E.54481
G1 X140.759 Y142.764 E.05076
G1 X134.239 Y136.244 E.61664
G1 X133.481 Y136.244 E.05069
G1 X140.759 Y143.522 E.68833
G1 X140.759 Y144.281 E.05076
G1 X132.723 Y136.244 E.76007
G1 X131.964 Y136.244 E.05076
G1 X140.76 Y145.039 E.83185
G1 X140.76 Y145.798 E.05076
G1 X131.206 Y136.244 E.90359
G1 X130.448 Y136.244 E.05069
M73 P8 R10
G1 X140.76 Y146.556 E.97527
G1 X140.76 Y147.315 E.05076
G1 X129.689 Y136.244 E1.04706
G1 X128.931 Y136.244 E.05069
G1 X140.761 Y148.074 E1.11884
G1 X140.761 Y148.832 E.05069
G1 X128.173 Y136.244 E1.19053
G1 X127.414 Y136.244 E.05076
