; generated by PrusaSlicer 2.7.4 on 2024-06-18 at 13:50:34 UTC


;
;

;
;
; 

; external perimeters extrusion width = 0.68mm
; perimeters extrusion width = 0.68mm
; infill extrusion width = 0.68mm
; solid infill extrusion width = 0.68mm
; top infill extrusion width = 0.60mm
; support material extrusion width = 0.60mm
; first layer extrusion width = 0.60mm

M73 P0 R14

; printing object DistanzstückKabelkette.stl id:0 copy 0
; stop printing object DistanzstückKabelkette.stl id:0 copy 0

;TYPE:Custom
M98 P"check-filament.g" F"PETG"
M98 P"revo/check-nozzle.g" S0.6

M140 S85
M116 ; wait for all temps to be reached

T0 ; select first tool
G10 P0 S240 ; set nozzle temperature
M703 ; configure it

G28 ; home all axes
M116 ; wait for all temps to be reached
M98 P"feed.g" ; feed filament into the nozzle
G21 ; set units to millimeters
G90 ; use absolute coordinates
M83 ; use relative distances for extrusion
; Filament gcode
M107
;LAYER_CHANGE
;Z:0.3
;HEIGHT:0.3
G10 ; retract
G1 Z.3 F90000
G1 X115.061 Y120.721
G11 ; unretract
;TYPE:Skirt/Brim
;WIDTH:0.6
G1 F1200
G1 X116.811 Y119.262 E.15221
G1 X120.057 Y118.398 E.2244
G1 X169.943 Y118.398 E3.33265
G1 X172.186 Y118.795 E.15217
G1 X174.156 Y119.938 E.15215
G1 X175.615 Y121.687 E.15216
G1 X176.478 Y124.934 E.22445
G1 X176.478 Y140.174 E1.01811
G1 X176.081 Y142.417 E.15217
G1 X174.939 Y144.387 E.15212
G1 X173.922 Y145.359 E.09398
G1 X141.486 Y170.251 E2.73144
G1 X139.465 Y171.301 E.15215
G1 X137.507 Y171.602 E.13234
G1 X120.057 Y171.602 E1.16575
G1 X117.814 Y171.205 E.15217
G1 X115.844 Y170.062 E.15215
G1 X114.385 Y168.313 E.15216
G1 X113.522 Y165.066 E.22445
G1 X113.522 Y124.934 E2.68103
M73 P1 R14
G1 X113.919 Y122.691 E.15217
G1 X115.016 Y120.798 E.14616
G10 ; retract
G1 X115.016 Y120.798 F90000
; printing object DistanzstückKabelkette.stl id:0 copy 0
G1 X120.357 Y125.234
G11 ; unretract
;TYPE:External perimeter
;WIDTH:0.6
G1 F1200
G1 X169.643 Y125.234 E3.29257
G1 X169.643 Y129.431 E.28038
G1 X169.643 Y139.874 E.69765
G1 X137.475 Y139.874 E2.14899
G1 X137.428 Y139.878 E.00315
G1 X137.267 Y139.973 E.01249
G1 X137.207 Y140.142 E.01198
G1 X137.207 Y164.766 E1.64501
G1 X120.357 Y164.766 E1.12567
G1 X120.357 Y125.324 E2.63494
M73 P2 R14
G1 X120.951 Y125.235 F90000
G1 X120.893 Y125.77
;TYPE:Perimeter
G1 F1200
G1 X169.107 Y125.77 E3.22095
G1 X169.107 Y129.431 E.24457
M73 P2 R13
G1 X169.107 Y139.338 E.66184
G1 X137.475 Y139.338 E2.11319
G1 X137.187 Y139.392 E.01958
G1 X136.916 Y139.565 E.02148
G1 X136.731 Y139.838 E.02203
G1 X136.671 Y140.142 E.0207
G1 X136.671 Y164.23 E1.60921
G1 X120.893 Y164.23 E1.05405
M73 P3 R13
G1 X120.893 Y125.86 E2.56332
G10 ; retract
G1 X120.893 Y125.86 F90000
G1 X163.246 Y136.669
G11 ; unretract
;TYPE:External perimeter
G1 F1200
G1 X162.782 Y136.836 E.03294
G1 X162.291 Y136.888 E.03298
G1 X161.801 Y136.821 E.03304
G1 X161.342 Y136.639 E.03299
G1 X160.94 Y136.352 E.033
G1 X160.619 Y135.977 E.03298
G1 X160.396 Y135.536 E.03301
G1 X160.286 Y135.055 E.03296
G1 X160.294 Y134.561 E.03301
G1 X160.419 Y134.084 E.03294
G1 X160.619 Y133.703 E.02875
G1 X160.989 Y133.286 E.03724
G1 X161.4 Y133.012 E.033
G1 X161.864 Y132.844 E.03297
G1 X162.347 Y132.792 E.03245
G1 X162.844 Y132.859 E.0335
G1 X163.303 Y133.041 E.03299
G1 X163.705 Y133.328 E.033
G1 X164.027 Y133.703 E.03302
G1 X164.246 Y134.136 E.03242
G1 X164.36 Y134.625 E.03354
G1 X164.352 Y135.119 E.03301
G1 X164.2 Y135.646 E.03664
G1 X163.99 Y136.03 E.02924
G1 X163.657 Y136.394 E.03296
G1 X163.321 Y136.619 E.02701
G1 X162.755 Y136.819 F90000
G1 X163.454 Y137.144
;TYPE:Perimeter
G1 F1200
G1 X163.034 Y137.322 E.03047
G1 X162.42 Y137.42 E.04154
G1 X161.799 Y137.368 E.04163
G1 X161.21 Y137.169 E.04153
G1 X160.685 Y136.835 E.04157
G1 X160.255 Y136.385 E.04158
G1 X159.945 Y135.845 E.0416
G1 X159.773 Y135.247 E.04157
G1 X159.75 Y134.625 E.04158
G1 X159.876 Y134.016 E.04155
G1 X160.145 Y133.454 E.04162
G1 X160.54 Y132.973 E.04158
G1 X161.038 Y132.601 E.04153
G1 X161.611 Y132.358 E.04158
G1 X162.218 Y132.261 E.04107
G1 X162.844 Y132.312 E.04196
G1 X163.436 Y132.511 E.04172
G1 X163.961 Y132.845 E.04157
G1 X164.391 Y133.295 E.04158
G1 X164.697 Y133.827 E.041
G1 X164.872 Y134.431 E.04201
G1 X164.895 Y135.055 E.04171
G1 X164.769 Y135.664 E.04155
G1 X164.501 Y136.226 E.0416
G1 X164.106 Y136.707 E.04158
G1 X163.607 Y137.079 E.04158
G1 X163.537 Y137.109 E.00509
G10 ; retract
G1 X163.537 Y137.109 F90000
G1 X128.658 Y133.041
G11 ; unretract
;TYPE:External perimeter
G1 F1200
G1 X129.059 Y133.328 E.03294
G1 X129.381 Y133.703 E.03302
G1 X129.604 Y134.144 E.03301
G1 X129.714 Y134.625 E.03296
G1 X129.706 Y135.119 E.03301
G1 X129.581 Y135.596 E.03294
G1 X129.344 Y136.03 E.03303
G1 X129.011 Y136.394 E.03296
G1 X128.6 Y136.669 E.03304
G1 X128.136 Y136.836 E.03294
G1 X127.645 Y136.888 E.03298
G1 X127.156 Y136.821 E.03297
G1 X126.697 Y136.639 E.03299
G1 X126.295 Y136.352 E.033
G1 X125.973 Y135.977 E.03302
G1 X125.751 Y135.536 E.03298
G1 X125.641 Y135.063 E.03244
G1 X125.64 Y134.626 E.02919
G1 X125.774 Y134.084 E.0373
G1 X126.01 Y133.65 E.033
G1 X126.343 Y133.286 E.03296
G1 X126.754 Y133.011 E.03304
G1 X127.218 Y132.844 E.03294
G1 X127.701 Y132.792 E.03245
G1 X128.199 Y132.859 E.03357
G1 X128.574 Y133.008 E.02696
G1 X129.06 Y133.36 F90000
G1 X128.931 Y132.6
;TYPE:Perimeter
G1 F1200
G1 X129.315 Y132.845 E.03043
G1 X129.745 Y133.295 E.04158
G1 X130.055 Y133.835 E.0416
G1 X130.227 Y134.433 E.04157
G1 X130.25 Y135.055 E.04158
G1 X130.124 Y135.664 E.04155
G1 X129.89 Y136.161 E.0367
G1 X129.745 Y136.385 E.01783
G1 X129.381 Y136.785 E.03613
G1 X128.962 Y137.079 E.03419
G1 X128.389 Y137.322 E.04158
G1 X127.774 Y137.42 E.0416
G1 X127.154 Y137.368 E.04156
G1 X126.564 Y137.169 E.0416
G1 X126.039 Y136.835 E.04157
G1 X125.609 Y136.385 E.04158
G1 X125.299 Y135.845 E.0416
G1 X125.129 Y135.255 E.04102
G1 X125.105 Y134.628 E.04192
G1 X125.231 Y134.016 E.04174
G1 X125.499 Y133.454 E.0416
G1 X125.894 Y132.973 E.04158
G1 X126.393 Y132.601 E.04158
G1 X126.966 Y132.358 E.04158
G1 X127.572 Y132.261 E.041
G1 X128.198 Y132.312 E.04196
G1 X128.79 Y132.511 E.04172
G1 X128.855 Y132.552 E.00513
G10 ; retract
G1 X128.855 Y132.552 F90000
G1 X126.01 Y153.97
G11 ; unretract
;TYPE:External perimeter
G1 F1200
G1 X126.343 Y153.606 E.03296
G1 X126.754 Y153.332 E.033
G1 X127.218 Y153.164 E.03297
G1 X127.734 Y153.116 E.03462
G1 X128.199 Y153.179 E.03135
G1 X128.658 Y153.361 E.03299
G1 X129.059 Y153.648 E.03294
G1 X129.381 Y154.023 E.03302
G1 X129.6 Y154.456 E.03242
G1 X129.714 Y154.945 E.03354
G1 X129.706 Y155.439 E.03301
G1 X129.581 Y155.916 E.03294
G1 X129.344 Y156.35 E.03303
G1 X129.06 Y156.672 E.02868
G1 X128.6 Y156.989 E.03732
G1 X128.136 Y157.156 E.03294
G1 X127.645 Y157.208 E.03298
G1 X127.156 Y157.141 E.03297
G1 X126.697 Y156.959 E.03299
G1 X126.295 Y156.672 E.033
G1 X125.973 Y156.297 E.03302
G1 X125.751 Y155.856 E.03298
G1 X125.64 Y155.375 E.03298
G1 X125.648 Y154.881 E.03301
G1 X125.774 Y154.404 E.03296
G1 X125.967 Y154.049 E.02699
G1 X126.374 Y153.609 F90000
G1 X125.605 Y153.645
;TYPE:Perimeter
G1 F1200
G1 X125.894 Y153.293 E.03043
G1 X126.392 Y152.921 E.04153
G1 X126.966 Y152.678 E.04164
G1 X127.572 Y152.581 E.041
G1 X128.097 Y152.62 E.03517
G1 X128.389 Y152.678 E.01989
G1 X128.876 Y152.869 E.03495
G1 X129.315 Y153.165 E.03537
G1 X129.745 Y153.615 E.04158
G1 X130.052 Y154.147 E.04103
G1 X130.226 Y154.751 E.04199
G1 X130.25 Y155.375 E.04172
G1 X130.124 Y155.984 E.04155
G1 X129.855 Y156.546 E.04162
G1 X129.46 Y157.027 E.04158
G1 X128.962 Y157.399 E.04153
G1 X128.389 Y157.642 E.04158
G1 X127.774 Y157.74 E.0416
G1 X127.154 Y157.688 E.04156
G1 X126.564 Y157.489 E.0416
G1 X126.039 Y157.155 E.04157
G1 X125.609 Y156.705 E.04158
G1 X125.299 Y156.165 E.0416
G1 X125.128 Y155.567 E.04155
G1 X125.105 Y154.945 E.04158
G1 X125.231 Y154.336 E.04155
G1 X125.499 Y153.774 E.0416
G1 X125.548 Y153.715 E.00512
G10 ; retract
G1 X125.548 Y153.715 F90000
G1 X168.946 Y127.02
G11 ; unretract
;TYPE:Solid infill
;WIDTH:0.603406
G1 F1200
G1 X168.098 Y126.171 E.08067
G1 X167.335 Y126.171 E.0513
G1 X168.705 Y127.542 E.1303
M73 P4 R13
G1 X168.705 Y128.304 E.05123
G1 X166.573 Y126.171 E.20275
G1 X165.811 Y126.171 E.05123
G1 X168.705 Y129.066 E.2752
G1 X168.705 Y129.828 E.05123
G1 X165.048 Y126.171 E.3477
G1 X164.286 Y126.171 E.05123
G1 X168.705 Y130.591 E.4202
G1 X168.705 Y131.353 E.05123
G1 X163.524 Y126.171 E.49265
G1 X162.761 Y126.171 E.0513
G1 X168.705 Y132.115 E.56514
G1 X168.705 Y132.878 E.0513
G1 X161.999 Y126.171 E.63764
G1 X161.237 Y126.171 E.05123
G1 X168.705 Y133.64 E.71009
G1 X168.705 Y134.402 E.05123
G1 X160.475 Y126.171 E.78254
G1 X159.712 Y126.171 E.0513
G1 X168.705 Y135.164 E.85503
G1 X168.705 Y135.927 E.0513
G1 X158.95 Y126.171 E.92753
G1 X158.188 Y126.171 E.05123
G1 X168.705 Y136.689 E.99998
G1 X168.705 Y137.451 E.05123
G1 X165.152 Y133.898 E.33781
G1 X165.056 Y133.647 E.01807
G1 X164.852 Y133.259 E.02947
G1 X164.697 Y133.034 E.01837
G1 X164.401 Y132.701 E.02995
G1 X164.196 Y132.518 E.01847
G1 X163.769 Y132.227 E.03474
G1 X163.584 Y132.137 E.01383
G1 X163.274 Y132.019 E.0223
G1 X157.425 Y126.171 E.55606
G1 X156.663 Y126.171 E.05123
G1 X162.352 Y131.861 E.54095
G1 X162.177 Y131.861 E.01177
G1 X161.659 Y131.93 E.03513
G1 X155.901 Y126.171 E.54751
G1 X155.139 Y126.171 E.05123
G1 X161.093 Y132.125 E.56609
G1 X160.817 Y132.266 E.02084
G1 X160.612 Y132.407 E.01673
G1 X154.376 Y126.171 E.59291
G1 X153.614 Y126.171 E.05123
G1 X160.197 Y132.754 E.6259
G1 X159.949 Y133.034 E.02515
M73 P5 R13
G1 X159.853 Y133.173 E.01136
G1 X152.852 Y126.171 E.66569
G1 X152.089 Y126.171 E.0513
G1 X159.582 Y133.664 E.71242
G1 X159.488 Y133.912 E.01783
G1 X159.408 Y134.253 E.02355
G1 X151.327 Y126.171 E.76837
G1 X150.565 Y126.171 E.05123
G1 X159.61 Y135.216 E.85998
G10 ; retract
G1 X159.61 Y135.216 F90000
G1 X165.047 Y134.555
G11 ; unretract
G1 F1200
G1 X168.705 Y138.214 E.34784
G1 X168.705 Y138.937 E.04861
G1 X168.666 Y138.937 E.00262
G1 X165.224 Y135.494 E.32731
G1 X165.158 Y135.768 E.01895
G1 X165.037 Y136.069 E.02181
G1 X167.904 Y138.937 E.27264
G1 X167.142 Y138.937 E.05123
G1 X164.76 Y136.555 E.22648
G1 X164.697 Y136.646 E.00744
G1 X164.411 Y136.968 E.02895
G1 X166.379 Y138.937 E.18716
G1 X165.617 Y138.937 E.05123
G1 X163.986 Y137.306 E.15507
G1 X163.829 Y137.415 E.01285
G1 X163.495 Y137.577 E.02496
G1 X164.855 Y138.937 E.12931
G1 X164.092 Y138.937 E.0513
G1 X162.918 Y137.762 E.11167
G1 X162.323 Y137.828 E.04025
G1 X162.209 Y137.816 E.00771
G1 X163.33 Y138.937 E.10658
G1 X162.568 Y138.937 E.05123
G1 X161.243 Y137.611 E.12603
G1 X161.06 Y137.542 E.01315
G1 X160.817 Y137.415 E.01843
G1 X160.45 Y137.161 E.03001
G1 X160.244 Y136.979 E.01848
G1 X159.949 Y136.646 E.02991
G1 X159.793 Y136.42 E.01846
G1 X159.586 Y136.025 E.02998
G1 X159.542 Y135.911 E.00822
G1 X149.802 Y126.171 E.92606
G1 X149.04 Y126.171 E.05123
G1 X161.805 Y138.937 E1.21372
G1 X161.043 Y138.937 E.05123
G1 X148.278 Y126.171 E1.21372
G1 X147.516 Y126.171 E.05123
G1 X160.281 Y138.937 E1.21372
G1 X159.519 Y138.937 E.05123
G1 X146.753 Y126.171 E1.21376
G1 X145.991 Y126.171 E.05123
M73 P6 R13
G1 X158.756 Y138.937 E1.21372
G1 X157.994 Y138.937 E.05123
G1 X145.229 Y126.171 E1.21372
G1 X144.466 Y126.171 E.0513
G1 X157.232 Y138.937 E1.21376
G1 X156.469 Y138.937 E.0513
G1 X143.704 Y126.171 E1.21372
G1 X142.942 Y126.171 E.05123
G1 X155.707 Y138.937 E1.21372
G1 X154.945 Y138.937 E.05123
G1 X142.179 Y126.171 E1.21376
G1 X141.417 Y126.171 E.05123
G1 X154.183 Y138.937 E1.21376
G1 X153.42 Y138.937 E.0513
G1 X140.655 Y126.171 E1.21372
G1 X139.893 Y126.171 E.05123
G1 X152.658 Y138.937 E1.21372
G1 X151.896 Y138.937 E.05123
M73 P7 R13
G1 X139.13 Y126.171 E1.21376
G1 X138.368 Y126.171 E.05123
G1 X151.133 Y138.937 E1.21372
G1 X150.371 Y138.937 E.05123
G1 X137.606 Y126.171 E1.21372
G1 X136.843 Y126.171 E.0513
G1 X149.609 Y138.937 E1.21376
G1 X148.846 Y138.937 E.0513
G1 X136.081 Y126.171 E1.21372
G1 X135.319 Y126.171 E.05123
G1 X148.084 Y138.937 E1.21372
G1 X147.322 Y138.937 E.05123
G1 X134.557 Y126.171 E1.21372
G1 X133.794 Y126.171 E.0513
G1 X146.56 Y138.937 E1.21376
G1 X145.797 Y138.937 E.0513
G1 X133.032 Y126.171 E1.21372
G1 X132.27 Y126.171 E.05123
M73 P8 R13
G1 X145.035 Y138.937 E1.21372
G1 X144.273 Y138.937 E.05123
G1 X131.507 Y126.171 E1.21376
G1 X130.745 Y126.171 E.05123
G1 X143.51 Y138.937 E1.21372
G1 X142.748 Y138.937 E.05123
G1 X129.983 Y126.171 E1.21372
G1 X129.22 Y126.171 E.0513
G1 X141.986 Y138.937 E1.21376
G1 X141.223 Y138.937 E.0513
G1 X128.458 Y126.171 E1.21372
G1 X127.696 Y126.171 E.05123
G1 X140.461 Y138.937 E1.21372
G1 X139.699 Y138.937 E.05123
G1 X126.934 Y126.171 E1.21372
G1 X126.171 Y126.171 E.0513
G1 X138.937 Y138.937 E1.21376
G1 X138.174 Y138.937 E.0513
M73 P9 R13
G1 X125.409 Y126.171 E1.21372
G1 X124.647 Y126.171 E.05123
G1 X137.418 Y138.942 E1.21424
G1 X137.197 Y138.968 E.01496
G1 X136.959 Y139.052 E.01697
G1 X136.84 Y139.127 E.00946
G1 X123.884 Y126.171 E1.23183
G1 X123.122 Y126.171 E.05123
G1 X136.453 Y139.502 E1.26748
G1 X136.359 Y139.685 E.01383
G1 X136.299 Y139.874 E.01333
G1 X136.275 Y140.087 E.01441
G1 X130.635 Y134.447 E.53624
G1 X130.652 Y134.62 E.01169
M73 P9 R12
G1 X130.64 Y135.213 E.03988
G1 X136.27 Y140.844 E.53534
G1 X136.27 Y141.606 E.05123
G1 X130.49 Y135.826 E.54955
G1 X130.472 Y135.897 E.00492
G1 X130.241 Y136.339 E.03353
G1 X136.27 Y142.368 E.57322
G1 X136.27 Y143.13 E.05123
G1 X129.924 Y136.785 E.60332
G1 X129.756 Y136.979 E.01725
G1 X129.543 Y137.166 E.01906
G1 X136.27 Y143.893 E.63959
G1 X136.27 Y144.655 E.05123
G1 X129.082 Y137.468 E.68337
G1 X128.939 Y137.543 E.01086
G1 X128.54 Y137.687 E.02852
G1 X136.27 Y145.417 E.73495
G1 X136.27 Y146.18 E.0513
G1 X127.675 Y137.585 E.81719
G10 ; retract
G1 X127.675 Y137.585 F90000
G1 X128.382 Y132.193
G11 ; unretract
G1 F1200
M73 P10 R12
G1 X122.36 Y126.171 E.57256
G1 X121.597 Y126.171 E.0513
G1 X127.314 Y131.888 E.54356
G1 X127.039 Y131.923 E.01864
G1 X126.695 Y132.031 E.02424
G1 X121.295 Y126.631 E.51342
G1 X121.295 Y127.393 E.05123
G1 X126.17 Y132.269 E.46355
G1 X125.804 Y132.519 E.0298
G1 X125.727 Y132.587 E.00691
G1 X121.295 Y128.155 E.42138
G1 X121.295 Y128.918 E.0513
G1 X125.354 Y132.977 E.38592
G1 X125.147 Y133.26 E.02357
G1 X125.053 Y133.439 E.01359
G1 X121.295 Y129.68 E.35735
G1 X121.295 Y130.442 E.05123
G1 X124.827 Y133.975 E.33586
G1 X124.736 Y134.345 E.02562
G1 X124.703 Y134.613 E.01815
G1 X121.295 Y131.204 E.32407
G1 X121.295 Y131.967 E.0513
G1 X124.762 Y135.434 E.32963
G1 X124.843 Y135.769 E.02317
G1 X124.94 Y136.025 E.0184
G1 X125.147 Y136.42 E.02998
G1 X125.303 Y136.646 E.01846
G1 X125.599 Y136.979 E.02995
G1 X125.804 Y137.161 E.01843
G1 X126.171 Y137.415 E.03001
G1 X126.415 Y137.543 E.01852
G1 X126.969 Y137.743 E.0396
G1 X127.085 Y137.757 E.00786
G1 X136.27 Y146.942 E.87329
G1 X136.27 Y147.704 E.05123
G1 X121.295 Y132.729 E1.42379
G1 X121.295 Y133.491 E.05123
G1 X136.27 Y148.466 E1.42379
G1 X136.27 Y149.229 E.0513
G1 X121.295 Y134.254 E1.42379
G1 X121.295 Y135.016 E.05123
G1 X136.27 Y149.991 E1.42379
G1 X136.27 Y150.753 E.05123
M73 P11 R12
G1 X121.295 Y135.778 E1.42379
G1 X121.295 Y136.541 E.0513
G1 X136.27 Y151.516 E1.42379
G1 X136.27 Y152.278 E.05123
G1 X121.295 Y137.303 E1.42379
G1 X121.295 Y138.065 E.05123
G1 X136.27 Y153.04 E1.42379
G1 X136.27 Y153.803 E.0513
G1 X121.295 Y138.827 E1.42384
G1 X121.295 Y139.59 E.0513
G1 X136.27 Y154.565 E1.42379
G1 X136.27 Y155.327 E.05123
G1 X121.295 Y140.352 E1.42379
G1 X121.295 Y141.114 E.05123
G1 X136.27 Y156.089 E1.42379
G1 X136.27 Y156.852 E.0513
M73 P12 R12
G1 X121.295 Y141.877 E1.42379
G1 X121.295 Y142.639 E.05123
G1 X136.27 Y157.614 E1.42379
G1 X136.27 Y158.376 E.05123
G1 X121.295 Y143.401 E1.42379
G1 X121.295 Y144.163 E.05123
G1 X136.27 Y159.139 E1.42384
G1 X136.27 Y159.901 E.05123
G1 X130.457 Y154.088 E.55269
G1 X130.411 Y153.967 E.0087
G1 X130.207 Y153.579 E.02947
G1 X130.051 Y153.354 E.01841
G1 X129.655 Y152.92 E.0395
G1 X129.062 Y152.512 E.04839
G1 X128.763 Y152.394 E.02161
G1 X121.295 Y144.926 E.71004
G1 X121.295 Y145.688 E.05123
G1 X127.785 Y152.178 E.61706
G1 X127.53 Y152.181 E.01714
G1 X127.086 Y152.241 E.03012
G1 X121.295 Y146.45 E.5506
G1 X121.295 Y147.213 E.0513
G1 X126.506 Y152.424 E.49545
