; generated by PrusaSlicer 2.7.4 on 2024-06-14 at 08:01:22 UTC


;
;

;
;
; 

; external perimeters extrusion width = 0.68mm
; perimeters extrusion width = 0.68mm
; infill extrusion width = 0.68mm
; solid infill extrusion width = 0.68mm
; top infill extrusion width = 0.60mm
; support material extrusion width = 0.60mm
; first layer extrusion width = 0.80mm

; external perimeters extrusion width = 0.68mm
; perimeters extrusion width = 0.68mm
; infill extrusion width = 0.68mm
; solid infill extrusion width = 0.68mm
; top infill extrusion width = 0.60mm
; support material extrusion width = 0.60mm
; first layer extrusion width = 0.80mm

M73 P0 R37

; printing object Ender_6_Chain_Mount_Bttm_1.stl id:0 copy 0
; stop printing object Ender_6_Chain_Mount_Bttm_1.stl id:0 copy 0
; printing object Ender_6_Chain_Mount_Bttm_2.stl id:1 copy 0
; stop printing object Ender_6_Chain_Mount_Bttm_2.stl id:1 copy 0

;TYPE:Custom
M98 P"check-filament.g" F"PETG"
M98 P"revo/check-nozzle.g" S0.6

M140 S85
M116 ; wait for all temps to be reached

T0 ; select first tool
G10 P0 S240 ; set nozzle temperature
M703 ; configure it

G28 ; home all axes
M116 ; wait for all temps to be reached
M98 P"feed.g" ; feed filament into the nozzle
G21 ; set units to millimeters
G90 ; use absolute coordinates
M83 ; use relative distances for extrusion
; Filament gcode
M107
;LAYER_CHANGE
;Z:0.4
;HEIGHT:0.4
G10 ; retract
G1 Z.4 F30000
G1 X88.45 Y122.599
G11 ; unretract
;TYPE:Skirt/Brim
;WIDTH:0.8
G1 F1200
G1 X89.624 Y121.851 E.16533
G1 X90.556 Y121.416 E.12215
G1 X91.814 Y121.013 E.15689
G1 X169.591 Y102.901 E9.48435
G1 X171.114 Y102.726 E.18207
G1 X198.546 Y102.726 E3.25797
G1 X200.821 Y103.123 E.27427
G1 X202.826 Y104.267 E.27416
G1 X204.326 Y106.023 E.27428
G1 X205.141 Y108.183 E.27419
G1 X205.26 Y109.44 E.14996
G1 X205.26 Y176.95 E8.01784
G1 X204.863 Y179.225 E.27427
G1 X203.719 Y181.23 E.27416
G1 X201.963 Y182.73 E.27428
G1 X199.803 Y183.545 E.27419
G1 X198.546 Y183.664 E.14996
G1 X137.586 Y183.664 E7.23993
G1 X135.549 Y183.348 E.24482
G1 X89.417 Y168.662 E5.7498
G1 X87.37 Y167.593 E.27427
G1 X85.806 Y165.895 E.27417
G1 X84.91 Y163.767 E.27422
G1 X84.74 Y162.264 E.17964
G1 X84.756 Y129.492 E3.89217
G1 X84.836 Y128.688 E.09596
G1 X85.137 Y127.329 E.16531
G1 X85.489 Y126.363 E.12211
G1 X86.132 Y125.128 E.16536
G1 X86.722 Y124.286 E.12211
G1 X87.662 Y123.26 E.16526
G1 X88.381 Y122.656 E.11152
G10 ; retract
G1 X88.381 Y122.656 F30000
; printing object Ender_6_Chain_Mount_Bttm_1.stl id:0 copy 0
G1 X93.449 Y127.937
G11 ; unretract
;TYPE:External perimeter
G1 F1200
G1 X93.614 Y127.901 E.02006
G1 X94.011 Y127.866 E.04733
G1 X129.042 Y127.866 E4.16046
G1 X129.426 Y127.901 E.04579
G1 X129.591 Y127.937 E.02006
G1 X129.95 Y128.068 E.04539
G1 X130.273 Y128.254 E.04427
G1 X130.558 Y128.494 E.04425
G1 X130.798 Y128.779 E.04425
G1 X130.984 Y129.102 E.04427
G1 X131.112 Y129.452 E.04426
G1 X131.176 Y129.82 E.04436
G1 X131.186 Y161.864 E3.80571
G1 X91.854 Y161.864 E4.67127
G1 X91.854 Y130.015 E3.78255
M73 P1 R37
G1 X91.888 Y129.631 E.04578
G1 X91.987 Y129.266 E.04492
G1 X92.052 Y129.11 E.02007
G1 X92.242 Y128.779 E.04533
G1 X92.482 Y128.494 E.04425
G1 X92.774 Y128.248 E.04535
G1 X93.093 Y128.066 E.04362
G1 X93.364 Y127.968 E.03423
G1 X93.957 Y127.879 F30000
G10 ; retract
G1 X94.11 Y131.336
G11 ; unretract
G1 F1200
G1 X94.34 Y131.285 E.02798
G1 X94.575 Y131.259 E.02808
G1 X94.81 Y131.259 E.02791
G1 X95.045 Y131.285 E.02808
G1 X95.275 Y131.336 E.02798
G1 X95.487 Y131.407 E.02655
G1 X95.712 Y131.509 E.02934
G1 X95.915 Y131.632 E.02819
G1 X96.103 Y131.774 E.02798
G1 X96.274 Y131.937 E.02806
G1 X96.427 Y132.116 E.02797
G1 X96.559 Y132.312 E.02806
G1 X96.67 Y132.52 E.028
G1 X96.757 Y132.739 E.02799
G1 X96.82 Y132.966 E.02798
G1 X96.858 Y133.199 E.02804
G1 X96.871 Y133.435 E.02807
G1 X96.858 Y133.67 E.02795
G1 X96.82 Y133.903 E.02804
G1 X96.757 Y134.13 E.02798
G1 X96.67 Y134.35 E.0281
G1 X96.559 Y134.558 E.028
G1 X96.427 Y134.753 E.02797
G1 X96.274 Y134.933 E.02806
G1 X96.103 Y135.095 E.02798
G1 X95.915 Y135.238 E.02805
G1 X95.713 Y135.36 E.02803
G1 X95.499 Y135.459 E.028
G1 X95.275 Y135.534 E.02805
G1 X95.045 Y135.585 E.02798
G1 X94.81 Y135.61 E.02807
G1 X94.575 Y135.61 E.02791
G1 X94.34 Y135.585 E.02807
G1 X94.11 Y135.534 E.02798
G1 X93.886 Y135.459 E.02805
G1 X93.672 Y135.36 E.028
G1 X93.47 Y135.238 E.02803
G1 X93.282 Y135.095 E.02805
G1 X93.111 Y134.933 E.02798
G1 X92.958 Y134.753 E.02806
G1 X92.826 Y134.558 E.02797
G1 X92.715 Y134.35 E.028
G1 X92.628 Y134.13 E.0281
G1 X92.565 Y133.903 E.02798
G1 X92.529 Y133.683 E.02648
G1 X92.514 Y133.436 E.02939
G1 X92.527 Y133.199 E.02819
G1 X92.565 Y132.966 E.02804
G1 X92.628 Y132.739 E.02798
G1 X92.711 Y132.532 E.02649
G1 X92.825 Y132.313 E.02932
G1 X92.958 Y132.116 E.02823
G1 X93.111 Y131.937 E.02797
G1 X93.282 Y131.774 E.02806
G1 X93.47 Y131.632 E.02798
G1 X93.672 Y131.51 E.02803
G1 X93.886 Y131.411 E.028
G1 X94.024 Y131.364 E.01731
G1 X94.617 Y131.273 F30000
G10 ; retract
G1 X93.651 Y128.632
G11 ; unretract
;TYPE:Perimeter
G1 F1200
G1 X93.723 Y128.608 E.00901
G1 X94.043 Y128.58 E.03815
G1 X129.01 Y128.581 E4.15286
G1 X129.391 Y128.624 E.04554
G1 X129.647 Y128.717 E.03235
G1 X129.861 Y128.841 E.02937
G1 X130.051 Y129.001 E.0295
G1 X130.211 Y129.19 E.02941
G1 X130.334 Y129.405 E.02942
G1 X130.419 Y129.638 E.02946
G1 X130.462 Y129.882 E.02943
G1 X130.463 Y131.413 E.18183
G1 X129.971 Y131.04 E.07333
G1 X129.7 Y130.876 E.03762
G1 X129.404 Y130.742 E.03859
G1 X129.122 Y130.647 E.03534
G1 X128.816 Y130.579 E.03723
G1 X128.504 Y130.545 E.03727
G1 X128.191 Y130.545 E.03717
G1 X127.879 Y130.579 E.03727
G1 X127.573 Y130.647 E.03723
G1 X127.276 Y130.747 E.03722
G1 X126.992 Y130.878 E.03714
G1 X126.724 Y131.04 E.03719
G1 X126.474 Y131.229 E.03722
G1 X126.244 Y131.447 E.03764
G1 X126.035 Y131.696 E.03861
G1 X125.868 Y131.943 E.03541
G1 X125.721 Y132.22 E.03724
G1 X125.605 Y132.511 E.03721
G1 X125.521 Y132.813 E.03723
G1 X125.471 Y133.122 E.03718
G1 X125.454 Y133.435 E.03723
G1 X125.471 Y133.748 E.03723
G1 X125.521 Y134.057 E.03718
G1 X125.605 Y134.359 E.03723
G1 X125.721 Y134.65 E.03721
G1 X125.868 Y134.927 E.03724
G1 X126.044 Y135.186 E.03719
G1 X126.247 Y135.425 E.03724
G1 X126.474 Y135.64 E.03713
G1 X126.724 Y135.83 E.03729
G1 X126.992 Y135.992 E.03719
G1 X127.276 Y136.123 E.03714
G1 X127.573 Y136.223 E.03722
G1 X127.879 Y136.29 E.0372
G1 X128.191 Y136.324 E.03727
G1 X128.504 Y136.324 E.03717
G1 X128.816 Y136.29 E.03727
G1 X129.122 Y136.223 E.0372
G1 X129.419 Y136.123 E.03722
G1 X129.703 Y135.992 E.03714
G1 X129.971 Y135.83 E.03719
G1 X130.464 Y135.456 E.07349
G1 X130.472 Y161.15 E3.05155
G1 X92.568 Y161.15 E4.50168
G1 X92.568 Y135.45 E3.05227
G1 X93.069 Y135.83 E.07468
G1 X93.337 Y135.992 E.03719
G1 X93.621 Y136.123 E.03714
G1 X93.918 Y136.223 E.03722
G1 X94.224 Y136.29 E.0372
G1 X94.536 Y136.324 E.03727
G1 X94.849 Y136.324 E.03717
G1 X95.161 Y136.29 E.03727
G1 X95.467 Y136.223 E.0372
G1 X95.764 Y136.123 E.03722
G1 X96.048 Y135.992 E.03714
G1 X96.316 Y135.83 E.03719
G1 X96.566 Y135.64 E.03729
G1 X96.793 Y135.425 E.03713
G1 X96.996 Y135.186 E.03724
G1 X97.172 Y134.927 E.03719
G1 X97.319 Y134.65 E.03724
G1 X97.435 Y134.359 E.03721
G1 X97.519 Y134.057 E.03723
G1 X97.569 Y133.748 E.03718
G1 X97.586 Y133.435 E.03723
G1 X97.569 Y133.122 E.03723
G1 X97.519 Y132.813 E.03718
G1 X97.435 Y132.511 E.03723
G1 X97.319 Y132.22 E.03721
G1 X97.172 Y131.943 E.03724
G1 X96.996 Y131.684 E.03719
G1 X96.793 Y131.445 E.03724
G1 X96.566 Y131.229 E.03721
G1 X96.316 Y131.04 E.03722
G1 X96.045 Y130.876 E.03762
G1 X95.749 Y130.742 E.03859
G1 X95.467 Y130.647 E.03534
G1 X95.161 Y130.579 E.03723
G1 X94.849 Y130.545 E.03727
G1 X94.536 Y130.545 E.03717
G1 X94.224 Y130.579 E.03727
G1 X93.918 Y130.646 E.0372
G1 X93.621 Y130.747 E.03726
G1 X93.337 Y130.878 E.03714
G1 X93.069 Y131.04 E.03719
G1 X92.568 Y131.42 E.07468
G1 X92.568 Y130.03 E.16508
G1 X92.59 Y129.773 E.03063
G1 X92.693 Y129.426 E.04299
G1 X92.83 Y129.19 E.03241
G1 X92.989 Y129.001 E.02933
G1 X93.197 Y128.826 E.03228
G1 X93.379 Y128.722 E.0249
G1 X93.565 Y128.66 E.02329
G10 ; retract
G1 X93.565 Y128.66 F30000
G1 X114.92 Y142.301
G11 ; unretract
;TYPE:External perimeter
G1 F1200
G1 X115.078 Y142.08 E.03227
G1 X115.26 Y141.868 E.03318
G1 X115.64 Y141.528 E.06056
G1 X115.871 Y141.37 E.03324
G1 X116.107 Y141.237 E.03217
G1 X116.355 Y141.126 E.03227
G1 X116.611 Y141.037 E.03219
G1 X116.874 Y140.971 E.0322
G1 X117.142 Y140.928 E.03224
G1 X117.413 Y140.91 E.03226
G1 X117.684 Y140.915 E.03219
G1 X117.955 Y140.944 E.03237
G1 X118.236 Y141.001 E.03405
G1 X118.496 Y141.079 E.03224
G1 X118.756 Y141.182 E.03321
G1 X119.201 Y141.43 E.0605
G1 X119.425 Y141.597 E.03318
G1 X119.628 Y141.778 E.0323
G1 X119.824 Y141.987 E.03403
G1 X119.991 Y142.202 E.03233
G1 X120.138 Y142.43 E.03222
G1 X120.264 Y142.67 E.03219
G1 X120.369 Y142.92 E.0322
G1 X120.451 Y143.179 E.03227
G1 X120.512 Y143.452 E.03322
G1 X120.557 Y143.959 E.06045
G1 X120.545 Y144.239 E.03328
G1 X120.507 Y144.523 E.03403
G1 X120.447 Y144.788 E.03227
G1 X120.363 Y145.047 E.03234
G1 X120.257 Y145.296 E.03214
G1 X120.126 Y145.543 E.03321
G1 X119.83 Y145.958 E.06054
G1 X119.64 Y146.163 E.0332
G1 X119.437 Y146.345 E.03238
G1 X119.208 Y146.516 E.03394
G1 X118.976 Y146.658 E.03231
G1 X118.733 Y146.779 E.03224
G1 X118.481 Y146.878 E.03216
G1 X118.22 Y146.955 E.03232
G1 X117.954 Y147.008 E.03221
G1 X117.684 Y147.037 E.03225
G1 X117.413 Y147.042 E.03219
G1 X117.142 Y147.023 E.03226
G1 X116.866 Y146.98 E.03317
G1 X116.377 Y146.835 E.06058
G1 X116.108 Y146.715 E.03498
G1 X115.871 Y146.581 E.03233
G1 X115.647 Y146.428 E.03222
G1 X115.437 Y146.256 E.03224
G1 X115.238 Y146.06 E.03317
G1 X114.924 Y145.658 E.06058
G1 X114.782 Y145.418 E.03312
G1 X114.665 Y145.172 E.03235
G1 X114.565 Y144.903 E.03408
G1 X114.495 Y144.641 E.03221
G1 X114.448 Y144.374 E.0322
G1 X114.424 Y144.103 E.03231
G1 X114.425 Y143.832 E.03219
G1 X114.45 Y143.562 E.0322
G1 X114.5 Y143.287 E.0332
G1 X114.655 Y142.801 E.06058
G1 X114.774 Y142.548 E.03321
G1 X114.874 Y142.378 E.02342
G1 X115.242 Y141.905 F30000
G1 X114.305 Y141.937
;TYPE:Perimeter
G1 F1200
G1 X114.32 Y141.911 E.00356
G1 X114.516 Y141.638 E.03991
G1 X114.749 Y141.367 E.04245
G1 X115.198 Y140.965 E.07158
G1 X115.494 Y140.763 E.04256
G1 X115.785 Y140.599 E.03967
G1 X116.09 Y140.462 E.03971
G1 X116.407 Y140.352 E.03985
G1 X116.731 Y140.27 E.03969
G1 X117.062 Y140.218 E.03979
G1 X117.395 Y140.195 E.03964
G1 X117.73 Y140.201 E.03979
G1 X118.064 Y140.238 E.03991
G1 X118.409 Y140.307 E.04179
G1 X118.731 Y140.403 E.03991
G1 X119.063 Y140.536 E.04248
G1 X119.589 Y140.829 E.07151
G1 X119.877 Y141.043 E.04261
G1 X120.128 Y141.266 E.03988
G1 X120.368 Y141.523 E.04176
G1 X120.574 Y141.788 E.03986
G1 X120.755 Y142.069 E.0397
G1 X120.911 Y142.365 E.03974
G1 X121.04 Y142.674 E.03977
G1 X121.141 Y142.993 E.03974
G1 X121.219 Y143.342 E.04247
G1 X121.272 Y143.943 E.07165
G1 X121.257 Y144.302 E.04267
G1 X121.211 Y144.65 E.04169
G1 X121.136 Y144.978 E.03996
G1 X121.033 Y145.296 E.0397
G1 X120.903 Y145.604 E.0397
G1 X120.734 Y145.92 E.04256
G1 X120.385 Y146.411 E.07154
G1 X120.141 Y146.673 E.04252
G1 X119.891 Y146.897 E.03987
G1 X119.609 Y147.108 E.04183
G1 X119.323 Y147.284 E.03988
G1 X119.023 Y147.433 E.03978
G1 X118.712 Y147.555 E.03968
G1 X118.391 Y147.649 E.03972
G1 X118.062 Y147.714 E.03983
G1 X117.73 Y147.75 E.03966
G1 X117.395 Y147.757 E.0398
G1 X117.062 Y147.734 E.03964
G1 X116.708 Y147.678 E.04257
G1 X116.129 Y147.506 E.07174
G1 X115.787 Y147.353 E.0445
G1 X115.494 Y147.189 E.03988
G1 X115.218 Y147 E.03973
G1 X114.959 Y146.787 E.03983
G1 X114.704 Y146.536 E.0425
G1 X114.333 Y146.062 E.07149
G1 X114.151 Y145.754 E.04249
G1 X114.006 Y145.45 E.04
G1 X113.884 Y145.12 E.04179
G1 X113.797 Y144.796 E.03984
G1 X113.739 Y144.466 E.03979
G1 X113.71 Y144.133 E.0397
G1 X113.711 Y143.798 E.03979
G1 X113.742 Y143.465 E.03972
G1 X113.805 Y143.113 E.04247
G1 X113.989 Y142.539 E.07159
G1 X114.142 Y142.214 E.04266
G1 X114.259 Y142.015 E.02742
G10 ; retract
G1 X114.259 Y142.015 F30000
G1 X108.606 Y144.254
G11 ; unretract
;TYPE:External perimeter
G1 F1200
G1 X108.569 Y144.524 E.03237
G1 X108.509 Y144.788 E.03215
G1 X108.425 Y145.047 E.03234
G1 X108.319 Y145.296 E.03214
G1 X108.188 Y145.543 E.03321
G1 X107.892 Y145.958 E.06054
G1 X107.702 Y146.163 E.0332
G1 X107.499 Y146.345 E.03238
G1 X107.27 Y146.516 E.03394
G1 X107.038 Y146.658 E.03231
G1 X106.795 Y146.779 E.03224
G1 X106.543 Y146.878 E.03216
G1 X106.282 Y146.955 E.03232
G1 X106.016 Y147.008 E.03221
G1 X105.746 Y147.037 E.03225
G1 X105.475 Y147.042 E.03219
G1 X105.204 Y147.023 E.03226
G1 X104.928 Y146.98 E.03317
G1 X104.44 Y146.835 E.06046
G1 X104.184 Y146.722 E.03323
G1 X103.947 Y146.59 E.03222
G1 X103.721 Y146.438 E.03235
G1 X103.5 Y146.256 E.034
G1 X103.306 Y146.066 E.03225
G1 X103.124 Y145.853 E.03327
G1 X102.847 Y145.425 E.06055
G1 X102.727 Y145.173 E.03315
G1 X102.632 Y144.918 E.03232
G1 X102.557 Y144.641 E.03408
G1 X102.51 Y144.374 E.0322
G1 X102.486 Y144.095 E.03326
G1 X102.508 Y143.586 E.06051
G1 X102.557 Y143.311 E.03317
G1 X102.627 Y143.049 E.03221
G1 X102.721 Y142.793 E.03239
G1 X102.844 Y142.534 E.03405
G1 X102.982 Y142.3 E.03226
G1 X103.14 Y142.08 E.03217
G1 X103.317 Y141.874 E.03226
G1 X103.517 Y141.679 E.03317
G1 X103.926 Y141.374 E.06059
G1 X104.169 Y141.237 E.03313
G1 X104.417 Y141.126 E.03227
G1 X104.673 Y141.037 E.03219
G1 X104.936 Y140.971 E.0322
G1 X105.204 Y140.928 E.03224
G1 X105.475 Y140.91 E.03226
G1 X105.746 Y140.915 E.03219
G1 X106.017 Y140.944 E.03237
G1 X106.298 Y141.001 E.03405
G1 X106.558 Y141.079 E.03224
G1 X106.81 Y141.179 E.0322
G1 X107.06 Y141.305 E.03325
G1 X107.481 Y141.591 E.06045
G1 X107.69 Y141.777 E.03323
G1 X107.876 Y141.975 E.03226
G1 X108.044 Y142.189 E.03231
G1 X108.2 Y142.429 E.034
G1 X108.326 Y142.67 E.0323
G1 X108.431 Y142.92 E.0322
G1 X108.515 Y143.187 E.03324
G1 X108.605 Y143.688 E.06045
G1 X108.618 Y143.968 E.03329
G1 X108.61 Y144.165 E.02342
G1 X108.506 Y144.756 F30000
G1 X109.104 Y145.268
;TYPE:Perimeter
G1 F1200
G1 X109.095 Y145.296 E.00349
G1 X108.965 Y145.604 E.0397
G1 X108.796 Y145.92 E.04256
G1 X108.447 Y146.411 E.07154
G1 X108.203 Y146.673 E.04252
G1 X107.953 Y146.897 E.03987
G1 X107.671 Y147.108 E.04183
G1 X107.385 Y147.284 E.03988
G1 X107.085 Y147.433 E.03978
G1 X106.774 Y147.555 E.03968
G1 X106.453 Y147.649 E.03972
G1 X106.124 Y147.714 E.03983
G1 X105.792 Y147.75 E.03966
G1 X105.457 Y147.757 E.0398
G1 X105.124 Y147.734 E.03964
G1 X104.77 Y147.678 E.04257
G1 X104.192 Y147.507 E.07159
G1 X103.865 Y147.362 E.04248
G1 X103.573 Y147.199 E.03972
G1 X103.294 Y147.011 E.03996
G1 X103.022 Y146.788 E.04177
G1 X102.783 Y146.553 E.03981
G1 X102.551 Y146.28 E.04255
G1 X102.223 Y145.775 E.07152
G1 X102.069 Y145.452 E.0425
G1 X101.951 Y145.137 E.03995
G1 X101.859 Y144.797 E.04183
G1 X101.801 Y144.466 E.03991
G1 X101.77 Y144.11 E.04244
G1 X101.797 Y143.508 E.07157
G1 X101.859 Y143.156 E.04245
G1 X101.946 Y142.833 E.03973
G1 X102.061 Y142.517 E.03994
G1 X102.212 Y142.199 E.04181
G1 X102.383 Y141.91 E.03988
G1 X102.578 Y141.638 E.03975
G1 X102.796 Y141.384 E.03975
G1 X103.053 Y141.135 E.0425
G1 X103.535 Y140.774 E.07152
G1 X103.847 Y140.599 E.04249
G1 X104.152 Y140.462 E.03971
G1 X104.469 Y140.352 E.03985
G1 X104.793 Y140.27 E.03969
G1 X105.124 Y140.218 E.03979
G1 X105.457 Y140.195 E.03964
G1 X105.792 Y140.201 E.03979
G1 X106.126 Y140.238 E.03991
G1 X106.471 Y140.307 E.04179
G1 X106.793 Y140.403 E.03991
G1 X107.104 Y140.527 E.03976
G1 X107.423 Y140.688 E.04244
G1 X107.921 Y141.027 E.07155
G1 X108.188 Y141.265 E.04248
G1 X108.418 Y141.509 E.03982
G1 X108.625 Y141.773 E.03984
G1 X108.817 Y142.068 E.0418
G1 X108.973 Y142.365 E.03984
G1 X109.102 Y142.674 E.03977
G1 X109.21 Y143.015 E.04248
G1 X109.316 Y143.608 E.07154
G1 X109.333 Y143.967 E.04268
G1 X109.318 Y144.319 E.04184
G1 X109.272 Y144.652 E.03992
G1 X109.198 Y144.978 E.0397
G1 X109.132 Y145.182 E.02546
G10 ; retract
G1 X109.132 Y145.182 F30000
G1 X110.138 Y149.111
G11 ; unretract
;TYPE:External perimeter
G1 F1200
G1 X110.386 Y149 E.03227
G1 X110.642 Y148.911 E.03219
G1 X110.905 Y148.845 E.0322
G1 X111.173 Y148.802 E.03224
