; generated by PrusaSlicer 2.8.0 on 2024-07-02 at 20:03:40 UTC


;
;

;
;
; 

; external perimeters extrusion width = 0.68mm
; perimeters extrusion width = 0.68mm
; infill extrusion width = 0.68mm
; solid infill extrusion width = 0.68mm
; top infill extrusion width = 0.60mm
; support material extrusion width = 0.60mm
; first layer extrusion width = 0.60mm

; external perimeters extrusion width = 0.68mm
; perimeters extrusion width = 0.68mm
; infill extrusion width = 0.68mm
; solid infill extrusion width = 0.68mm
; top infill extrusion width = 0.60mm
; support material extrusion width = 0.60mm
; first layer extrusion width = 0.60mm

; external perimeters extrusion width = 0.68mm
; perimeters extrusion width = 0.68mm
; infill extrusion width = 0.68mm
; solid infill extrusion width = 0.68mm
; top infill extrusion width = 0.60mm
; support material extrusion width = 0.60mm
; first layer extrusion width = 0.60mm

; external perimeters extrusion width = 0.68mm
; perimeters extrusion width = 0.68mm
; infill extrusion width = 0.68mm
; solid infill extrusion width = 0.68mm
; top infill extrusion width = 0.60mm
; support material extrusion width = 0.60mm
; first layer extrusion width = 0.60mm

; external perimeters extrusion width = 0.68mm
; perimeters extrusion width = 0.68mm
; infill extrusion width = 0.68mm
; solid infill extrusion width = 0.68mm
; top infill extrusion width = 0.60mm
; support material extrusion width = 0.60mm
; first layer extrusion width = 0.60mm

M73 P0 R67

; printing object Alignment Block.stl id:1 copy 0
; stop printing object Alignment Block.stl id:1 copy 0
; printing object Alignment Block.stl id:0 copy 0
; stop printing object Alignment Block.stl id:0 copy 0
; printing object Lagerhalter.stl id:2 copy 0
; stop printing object Lagerhalter.stl id:2 copy 0
; printing object Striphalter.stl id:4 copy 0
; stop printing object Striphalter.stl id:4 copy 0
; printing object Servohalter.stl id:3 copy 0
; stop printing object Servohalter.stl id:3 copy 0

;TYPE:Custom
M98 P"start-print.g" F"PETG" S0.6 T240 B85
G21 ; set units to millimeters
G90 ; use absolute coordinates
M83 ; use relative distances for extrusion
; Filament gcode
M107
;LAYER_CHANGE
;Z:0.3
;HEIGHT:0.3
G10 ; retract
G1 Z.3 F90000
G1 X93.55 Y101.177
G11 ; unretract
;TYPE:Skirt/Brim
;WIDTH:0.6
G1 F1200
G1 X95.155 Y100.044 E.13125
G1 X132.117 Y79.969 E2.80996
G1 X230.16 Y34.269 E7.22639
G1 X230.992 Y33.941 E.05975
G1 X232.391 Y33.597 E.09624
G1 X233.479 Y33.502 E.07296
G1 X234.916 Y33.597 E.09621
G1 X236.643 Y34.06 E.11945
G1 X237.934 Y34.696 E.09614
G1 X239.097 Y35.547 E.09627
G1 X252.597 Y49.047 E1.27544
G1 X253.448 Y50.209 E.09622
G1 X254.203 Y51.829 E.1194
G1 X254.546 Y53.228 E.09623
G1 X254.642 Y54.316 E.07297
G1 X254.546 Y55.753 E.09621
G1 X254.278 Y56.933 E.08084
G1 X216.335 Y174.513 E8.25384
G1 X215.446 Y176.438 E.14165
G1 X214.82 Y177.431 E.07842
G1 X214.124 Y178.334 E.07616
G1 X213.324 Y179.192 E.07837
G1 X212.472 Y179.949 E.07614
G1 X211.525 Y180.644 E.07847
G1 X210.547 Y181.229 E.07613
G1 X180.418 Y197.63 E2.29168
G1 X60.453 Y255.692 E8.90363
G1 X59.538 Y256.059 E.06586
G1 X58.139 Y256.403 E.09624
G1 X56.702 Y256.498 E.09621
G1 X55.614 Y256.403 E.07296
G1 X53.888 Y255.94 E.11938
G1 X52.596 Y255.304 E.0962
G1 X51.701 Y254.677 E.073
G1 X51.031 Y254.084 E.05977
G1 X37.772 Y240.826 E1.25262
G1 X37.179 Y240.155 E.05982
G1 X36.378 Y238.958 E.09622
G1 X35.797 Y237.641 E.09616
G1 X35.514 Y236.585 E.07304
G1 X35.358 Y234.805 E.11937
G1 X35.514 Y233.373 E.09623
G1 X36.05 Y231.654 E.12029
G1 X90.482 Y105.308 E9.19058
G1 X91.312 Y103.744 E.11829
G1 X92.222 Y102.505 E.1027
G1 X93.487 Y101.241 E.11947
G10 ; retract
G1 X93.487 Y101.241 F90000
; printing object Alignment Block.stl id:1 copy 0
G1 X148.294 Y95.746
G11 ; unretract
;TYPE:External perimeter
;WIDTH:0.6
G1 F1200
G1 X148.277 Y95.527 E.01467
G1 X148.317 Y95.119 E.02739
G1 X148.469 Y94.606 E.03574
G1 X148.684 Y94.205 E.0304
G1 X148.903 Y93.924 E.0238
G1 X149.342 Y93.544 E.03879
G1 X149.748 Y93.32 E.03098
G1 X150.138 Y93.193 E.0274
G1 X150.66 Y93.127 E.03515
G1 X151.122 Y93.162 E.03095
G1 X151.51 Y93.264 E.0268
G1 X151.883 Y93.434 E.02738
G1 X152.318 Y93.744 E.03568
G1 X152.707 Y94.189 E.03949
G1 X152.933 Y94.605 E.03163
G1 X153.084 Y95.109 E.03515
G1 X153.126 Y95.571 E.03099
G1 X153.089 Y95.97 E.02677
G1 X152.985 Y96.358 E.02684
G1 X152.749 Y96.846 E.03621
G1 X152.462 Y97.214 E.03118
G1 X152.055 Y97.56 E.03569
G1 X151.646 Y97.781 E.03106
G1 X151.142 Y97.932 E.03515
G1 X150.68 Y97.973 E.03099
G1 X150.27 Y97.934 E.02751
G1 X149.759 Y97.781 E.03563
G1 X149.247 Y97.487 E.03944
G1 X148.903 Y97.175 E.03103
G1 X148.656 Y96.848 E.02738
G1 X148.424 Y96.375 E.0352
G1 X148.307 Y95.927 E.03093
G1 X148.3 Y95.836 E.0061
G1 X148.312 Y95.236 F90000
G1 X147.774 Y95.169
;TYPE:Perimeter
G1 F1200
G1 X147.784 Y95.046 E.00824
G1 X147.956 Y94.454 E.04118
G1 X148.189 Y93.987 E.03487
G1 X148.48 Y93.595 E.03261
G1 X148.995 Y93.136 E.04609
G1 X149.451 Y92.868 E.03533
G1 X150.033 Y92.667 E.04113
G1 X150.593 Y92.595 E.03772
G1 X151.121 Y92.621 E.03532
G1 X151.725 Y92.773 E.04161
G1 X152.194 Y92.998 E.03475
G1 X152.629 Y93.308 E.03568
G1 X153.115 Y93.842 E.04824
G1 X153.382 Y94.298 E.0353
G1 X153.597 Y94.956 E.04624
G1 X153.659 Y95.481 E.03532
G1 X153.621 Y96.043 E.03763
G1 X153.467 Y96.592 E.03809
G1 X153.23 Y97.08 E.03624
G1 X152.923 Y97.503 E.03492
G1 X152.401 Y97.968 E.0467
G1 X151.951 Y98.231 E.03482
G1 X151.295 Y98.445 E.0461
G1 X150.77 Y98.507 E.03532
G1 X150.117 Y98.447 E.04381
G1 X149.606 Y98.295 E.03562
G1 X148.973 Y97.947 E.04826
G1 X148.572 Y97.603 E.0353
G1 X148.175 Y97.084 E.04365
G1 X147.943 Y96.611 E.0352
G1 X147.795 Y96.104 E.03528
G1 X147.741 Y95.549 E.03725
G1 X147.766 Y95.258 E.01951
G10 ; retract
G1 X147.766 Y95.258 F90000
G1 X147.766 Y85.849
G11 ; unretract
;TYPE:External perimeter
G1 F1200
G1 X158.574 Y85.849 E.72203
G1 X159.123 Y85.904 E.03686
G1 X159.492 Y86.052 E.02656
G1 X159.793 Y86.266 E.02467
G1 X160.124 Y86.62 E.03238
G1 X160.349 Y87.132 E.03736
G1 X160.395 Y87.547 E.02789
G1 X160.395 Y103.685 E1.0781
G1 X160.307 Y104.101 E.02841
G1 X160.121 Y104.482 E.02832
G1 X159.745 Y104.89 E.03707
G1 X159.253 Y105.156 E.03736
G1 X158.689 Y105.249 E.03819
G1 X135.327 Y105.249 E1.56071
G1 X134.899 Y105.173 E.02904
G1 X134.655 Y104.979 E.02082
G1 X134.545 Y104.78 E.01519
G1 X134.502 Y104.525 E.01728
G1 X134.502 Y86.675 E1.19248
G1 X134.578 Y86.246 E.02911
G1 X134.772 Y86.003 E.02077
G1 X134.971 Y85.893 E.01519
G1 X135.226 Y85.849 E.01729
G1 X147.676 Y85.849 E.83173
G1 X148.276 Y85.849 F90000
M73 P1 R67
G1 X148.276 Y86.385
;TYPE:Perimeter
G1 F1200
G1 X158.574 Y86.385 E.68796
G1 X159.002 Y86.429 E.02874
G1 X159.322 Y86.569 E.02333
G1 X159.626 Y86.852 E.02775
G1 X159.794 Y87.167 E.02385
G1 X159.859 Y87.547 E.02575
G1 X159.859 Y103.47 E1.06374
G1 X159.827 Y103.784 E.02109
G1 X159.664 Y104.197 E.02966
G1 X159.415 Y104.466 E.02449
G1 X159.079 Y104.648 E.02553
G1 X158.667 Y104.714 E.02787
G1 X135.294 Y104.714 E1.56144
G1 X135.084 Y104.636 E.01497
G1 X135.037 Y104.48 E.01088
G1 X135.037 Y86.642 E1.19167
G1 X135.115 Y86.432 E.01497
G1 X135.271 Y86.385 E.01088
G1 X148.186 Y86.385 E.86279
G10 ; retract
G1 X159.698 Y87.48 F90000
G11 ; unretract
;TYPE:Solid infill
;WIDTH:0.604411
G1 F1200
G1 X159.267 Y87.048 E.0411
G1 X159.095 Y86.902 E.0152
G1 X159.006 Y86.855 E.00678
G1 X158.911 Y86.822 E.00677
G1 X158.629 Y86.787 E.01914
G1 X158.242 Y86.787 E.02607
G1 X159.457 Y88.003 E.11578
G1 X159.457 Y88.766 E.05139
G1 X157.478 Y86.787 E.18851
G1 X156.714 Y86.787 E.05146
G1 X159.457 Y89.53 E.26128
G1 X159.457 Y90.294 E.05146
G1 X155.95 Y86.787 E.33406
G1 X155.187 Y86.787 E.05139
G1 X159.457 Y91.058 E.40679
G1 X159.457 Y91.821 E.05139
G1 X154.423 Y86.787 E.47951
G1 X153.659 Y86.787 E.05146
G1 X159.457 Y92.585 E.55229
G1 X159.457 Y93.349 E.05146
G1 X152.895 Y86.787 E.62506
G1 X152.132 Y86.787 E.05139
G1 X159.457 Y94.112 E.69774
G1 X159.457 Y94.876 E.05146
G1 X151.368 Y86.787 E.77052
G1 X150.604 Y86.787 E.05146
G1 X159.457 Y95.64 E.84329
G1 X159.457 Y96.404 E.05146
G1 X149.841 Y86.787 E.91602
G1 X149.077 Y86.787 E.05146
G1 X159.457 Y97.167 E.98875
G1 X159.457 Y97.931 E.05146
G1 X148.313 Y86.787 E1.06152
G1 X147.549 Y86.787 E.05146
G1 X159.457 Y98.695 E1.1343
G1 X159.457 Y99.459 E.05146
G1 X146.786 Y86.787 E1.20702
G1 X146.022 Y86.787 E.05146
G1 X151.542 Y92.307 E.52581
G1 X151.878 Y92.402 E.02352
G1 X152.218 Y92.551 E.025
G1 X152.422 Y92.667 E.01581
G1 X152.867 Y92.984 E.0368
G1 X153.028 Y93.123 E.01433
G1 X153.426 Y93.587 E.04118
G1 X153.558 Y93.78 E.01575
G1 X153.738 Y94.112 E.02544
G1 X153.829 Y94.33 E.01591
G1 X153.942 Y94.707 E.02651
G1 X159.457 Y100.222 E.52533
G1 X159.457 Y100.986 E.05146
G1 X154.061 Y95.59 E.514
G1 X154.017 Y96.111 E.03522
G1 X153.978 Y96.27 E.01103
G1 X159.457 Y101.75 E.52195
G1 X159.457 Y102.513 E.05139
G1 X153.79 Y96.846 E.53981
G1 X153.533 Y97.352 E.03823
G1 X159.457 Y103.277 E.56434
G1 X159.457 Y103.587 E.02088
G1 X159.414 Y103.794 E.01424
G1 X159.347 Y103.931 E.01027
G1 X153.202 Y97.785 E.58539
G1 X153.128 Y97.876 E.0079
G1 X152.805 Y98.152 E.02862
G1 X158.925 Y104.272 E.58296
G1 X158.826 Y104.297 E.00688
G1 X158.65 Y104.312 E.0119
G1 X158.201 Y104.312 E.03024
G1 X152.357 Y98.468 E.55667
G1 X152.136 Y98.588 E.01694
G1 X151.829 Y98.704 E.02211
G1 X157.437 Y104.312 E.53419
G1 X156.673 Y104.312 E.05146
G1 X151.229 Y98.867 E.51862
G1 X150.702 Y98.912 E.03563
G1 X150.495 Y98.897 E.01398
G1 X156.151 Y104.553 E.53876
G10 ; retract
G1 X156.151 Y104.553 F90000
G1 X150.914 Y92.443
G11 ; unretract
G1 F1200
G1 X145.258 Y86.787 E.53876
G1 X144.495 Y86.787 E.05139
G1 X149.977 Y92.269 E.52219
M73 P1 R66
G1 X149.398 Y92.454 E.04094
G1 X143.731 Y86.787 E.53981
G1 X142.967 Y86.787 E.05146
G1 X148.897 Y92.717 E.56486
G1 X148.74 Y92.825 E.01284
G1 X148.471 Y93.054 E.02379
G1 X142.203 Y86.787 E.59701
G1 X141.44 Y86.787 E.05139
G1 X148.092 Y93.439 E.63364
G1 X147.941 Y93.634 E.01661
G1 X147.784 Y93.895 E.02052
G1 X140.676 Y86.787 E.67707
G1 X139.912 Y86.787 E.05146
G1 X147.551 Y94.425 E.72761
G1 X147.384 Y95.023 E.04182
G1 X139.148 Y86.787 E.78452
G1 X138.385 Y86.787 E.05139
G1 X147.62 Y96.022 E.87968
G10 ; retract
G1 X147.62 Y96.022 F90000
G1 X155.387 Y104.552
G11 ; unretract
G1 F1200
G1 X149.524 Y98.69 E.55843
G1 X149.227 Y98.565 E.0217
G1 X148.762 Y98.289 E.03642
G1 X148.575 Y98.15 E.01569
G1 X148.297 Y97.896 E.02536
G1 X148.167 Y97.755 E.01292
G1 X147.941 Y97.465 E.02476
G1 X147.817 Y97.266 E.01579
G1 X147.554 Y96.72 E.04082
G1 X137.621 Y86.787 E.94617
G1 X136.857 Y86.787 E.05146
G1 X154.382 Y104.311 E1.6693
G1 X153.618 Y104.311 E.05146
G1 X136.094 Y86.787 E1.66925
G1 X135.443 Y86.787 E.04385
G1 X135.443 Y86.9 E.00761
G1 X152.854 Y104.311 E1.65849
G1 X152.09 Y104.311 E.05146
G1 X135.443 Y87.664 E1.58571
G1 X135.443 Y88.427 E.05139
G1 X151.326 Y104.311 E1.51298
G1 X150.562 Y104.31 E.05146
G1 X135.443 Y89.191 E1.44016
G1 X135.443 Y89.954 E.05139
G1 X149.799 Y104.31 E1.36748
G1 X149.035 Y104.31 E.05146
G1 X135.442 Y90.718 E1.29475
G1 X135.442 Y91.481 E.05139
G1 X148.271 Y104.31 E1.22203
G1 X147.507 Y104.31 E.05146
G1 X135.442 Y92.245 E1.14925
G1 X135.442 Y93.008 E.05139
G1 X146.743 Y104.31 E1.07653
G1 X145.979 Y104.31 E.05146
G1 X135.442 Y93.772 E1.00375
G1 X135.441 Y94.535 E.05139
G1 X145.215 Y104.309 E.93102
G1 X144.452 Y104.309 E.05139
G1 X135.441 Y95.299 E.8583
G1 X135.441 Y96.062 E.05139
G1 X143.688 Y104.309 E.78557
G1 X142.924 Y104.309 E.05146
G1 X135.441 Y96.826 E.71279
G1 X135.441 Y97.59 E.05146
G1 X142.16 Y104.309 E.64002
G1 X141.396 Y104.309 E.05146
M73 P2 R66
G1 X135.441 Y98.353 E.56729
G1 X135.44 Y99.117 E.05146
G1 X140.632 Y104.308 E.49452
G1 X139.868 Y104.308 E.05146
G1 X135.44 Y99.88 E.42179
G1 X135.44 Y100.644 E.05146
G1 X139.104 Y104.308 E.34901
G1 X138.341 Y104.308 E.05139
G1 X135.44 Y101.407 E.27633
G1 X135.44 Y102.171 E.05146
G1 X137.577 Y104.308 E.20356
G1 X136.813 Y104.308 E.05146
G1 X135.439 Y102.934 E.13088
G1 X135.439 Y103.698 E.05146
G1 X136.29 Y104.549 E.08106
G10 ; retract
G1 X136.29 Y104.549 F90000
; stop printing object Alignment Block.stl id:1 copy 0
; printing object Lagerhalter.stl id:2 copy 0
G1 X131.844 Y120.264
G11 ; unretract
;TYPE:Support material
;WIDTH:0.6
G1 F1200
G1 X132.18 Y121.334 E.07492
G1 X132.298 Y122.449 E.0749
G1 X132.192 Y123.566 E.07496
G1 X131.867 Y124.639 E.0749
G1 X131.335 Y125.627 E.07496
G1 X130.619 Y126.49 E.07491
G1 X129.745 Y127.194 E.07497
G1 X128.748 Y127.711 E.07503
G1 X127.669 Y128.02 E.07498
G1 X126.548 Y128.108 E.07512
G1 X125.432 Y127.972 E.07511
G1 X124.365 Y127.617 E.07512
G1 X123.427 Y127.078 E.07227
G1 X122.543 Y126.299 E.07871
G1 X121.866 Y125.401 E.07513
G1 X121.587 Y124.877 E.03966
G1 X121.381 Y124.386 E.03557
G1 X121.108 Y123.295 E.07513
G1 X121.057 Y122.173 E.07503
G1 X121.115 Y121.61 E.03781
G1 X121.394 Y120.532 E.07439
G1 X121.961 Y119.417 E.08357
G1 X131.376 Y119.417 E.62897
G1 X131.805 Y120.194 E.05929
G1 X131.805 Y120.194 F90000
G1 X131.388 Y125.02
G1 F1200
G1 X131.388 Y120.437 E.30617
G1 X131.092 Y119.899 E.04102
G1 X130.793 Y119.899 E.01997
G1 X130.793 Y125.525 E.37585
G1 X130.198 Y126.21 E.06061
G1 X130.198 Y119.899 E.42161
G1 X129.603 Y119.899 E.03975
G1 X129.603 Y126.689 E.45361
G1 X129.008 Y127.033 E.04591
G1 X129.008 Y119.899 E.47659
G1 X128.413 Y119.899 E.03975
G1 X128.413 Y127.305 E.49476
G1 X127.817 Y127.476 E.04142
G1 X127.817 Y119.899 E.50618
G1 X127.222 Y119.899 E.03975
G1 X127.222 Y127.571 E.51253
G1 X126.627 Y127.618 E.03987
G1 X126.627 Y119.899 E.51567
G1 X126.032 Y119.899 E.03975
G1 X126.032 Y127.56 E.5118
G1 X125.437 Y127.466 E.04024
G1 X125.437 Y119.899 E.50552
G1 X124.842 Y119.899 E.03975
G1 X124.842 Y127.268 E.49229
G1 X124.563 Y127.175 E.01965
G1 X124.247 Y126.993 E.02436
G1 X124.247 Y119.899 E.47392
G1 X123.652 Y119.899 E.03975
G1 X123.652 Y126.639 E.45027
G1 X123.056 Y126.123 E.05267
G1 X123.056 Y119.899 E.4158
G1 X122.461 Y119.899 E.03975
G1 X122.461 Y125.416 E.36857
G1 X121.866 Y124.296 E.08473
G1 X121.866 Y120.067 E.28252
G10 ; retract
G1 X121.866 Y120.067 F90000
G1 X128.535 Y106.685
G11 ; unretract
G1 F1200
G1 X129.081 Y106.8 E.03728
G1 X130.086 Y107.221 E.07279
G1 X131.009 Y107.866 E.07523
G1 X131.774 Y108.692 E.07521
G1 X132.346 Y109.661 E.07517
G1 X132.701 Y110.729 E.07519
G1 X132.821 Y111.848 E.07518
G1 X132.701 Y112.967 E.07518
G1 X132.283 Y114.142 E.08332
G1 X122.806 Y114.142 E.63311
G1 X122.464 Y113.254 E.06357
G1 X122.334 Y112.669 E.04003
G1 X122.28 Y111.55 E.07484
G1 X122.335 Y111.028 E.03507
G1 X122.625 Y109.945 E.0749
G1 X123.139 Y108.947 E.07499
G1 X123.852 Y108.081 E.07494
G1 X124.305 Y107.695 E.03976
G1 X124.765 Y107.361 E.03798
G1 X125.722 Y106.889 E.07129
G1 X126.815 Y106.617 E.07525
G1 X127.913 Y106.583 E.07339
G1 X128.456 Y106.672 E.03676
G1 X128.456 Y106.672 F90000
G1 X131.983 Y113.901
G1 F1200
G1 X131.983 Y110.098 E.25406
G1 X131.905 Y109.862 E.0166
G1 X131.388 Y108.987 E.0679
G1 X131.388 Y113.66 E.31218
G1 X130.793 Y113.66 E.03975
G1 X130.793 Y108.343 E.3552
G1 X130.198 Y107.888 E.05004
G1 X130.198 Y113.66 E.3856
G1 X129.603 Y113.66 E.03975
G1 X129.603 Y107.542 E.40872
G1 X129.008 Y107.293 E.04309
G1 X129.008 Y113.66 E.42535
G1 X128.413 Y113.66 E.03975
G1 X128.413 Y107.153 E.4347
G1 X127.881 Y107.066 E.03601
G1 X127.817 Y107.068 E.00428
G1 X127.817 Y113.66 E.44038
G1 X127.222 Y113.66 E.03975
G1 X127.222 Y107.086 E.43918
G1 X126.881 Y107.097 E.02279
G1 X126.627 Y107.16 E.01748
G1 X126.627 Y113.66 E.43424
G1 X126.032 Y113.66 E.03975
G1 X126.032 Y107.309 E.42428
G1 X125.437 Y107.567 E.04333
G1 X125.437 Y113.66 E.40705
G1 X124.842 Y113.66 E.03975
G1 X124.842 Y107.901 E.38473
G1 X124.247 Y108.378 E.05095
G1 X124.247 Y113.66 E.35287
G1 X123.652 Y113.66 E.03975
G1 X123.652 Y109.069 E.3067
G1 X123.304 Y109.625 E.04382
G1 X123.056 Y110.178 E.04049
G1 X123.056 Y113.901 E.24872
G10 ; retract
G1 X123.056 Y113.901 F90000
G1 X108.059 Y122.556
G11 ; unretract
;TYPE:External perimeter
;WIDTH:0.6
G1 F1200
G1 X108.066 Y122.567 E.00087
G1 X108.265 Y123.043 E.03447
G1 X108.363 Y123.549 E.03443
G1 X108.358 Y124.065 E.03447
G1 X108.251 Y124.562 E.03396
G1 X108.047 Y125.03 E.03411
