; generated by PrusaSlicer 2.7.4 on 2024-06-18 at 15:05:03 UTC


;
;

;
;
; 

; external perimeters extrusion width = 0.68mm
; perimeters extrusion width = 0.68mm
; infill extrusion width = 0.68mm
; solid infill extrusion width = 0.68mm
; top infill extrusion width = 0.60mm
; support material extrusion width = 0.60mm
; first layer extrusion width = 0.60mm

M73 P0 R7

; printing object ESCHER_LIZARD_MODIFIED.stl id:0 copy 0
; stop printing object ESCHER_LIZARD_MODIFIED.stl id:0 copy 0

;TYPE:Custom
M98 P"check-filament.g" F"PETG"
M98 P"revo/check-nozzle.g" S0.6

M140 S85
M116 ; wait for all temps to be reached

T0 ; select first tool
G10 P0 S240 ; set nozzle temperature
M703 ; configure it

G28 ; home all axes
M116 ; wait for all temps to be reached
M98 P"feed.g" ; feed filament into the nozzle
G21 ; set units to millimeters
G90 ; use absolute coordinates
M83 ; use relative distances for extrusion
; Filament gcode
M107
;LAYER_CHANGE
;Z:0.3
;HEIGHT:0.3
G10 ; retract
G1 Z.3 F90000
G1 X120.182 Y117.288
G11 ; unretract
;TYPE:Skirt/Brim
;WIDTH:0.6
G1 F1200
G1 X121.498 Y116.287 E.11046
G1 X128.232 Y112.399 E.51947
G1 X130.373 Y111.621 E.15218
G1 X131.528 Y111.524 E.07743
G1 X164.85 Y111.667 E2.22611
G1 X165.782 Y111.738 E.06244
G1 X172.362 Y112.714 E.44439
G1 X174.522 Y113.436 E.15215
G1 X176.303 Y114.856 E.15217
G1 X177.489 Y116.801 E.15219
G1 X177.933 Y119.437 E.17858
G1 X176.53 Y154.923 E2.37251
G1 X176.045 Y157.148 E.15213
M73 P1 R7
G1 X175.119 Y158.728 E.12234
G1 X171.644 Y163.105 E.37336
G1 X162.271 Y174.235 E.97208
G1 X160.541 Y175.684 E.15076
G1 X157.22 Y177.601 E.25617
G1 X155.079 Y178.379 E.15218
G1 X153.77 Y178.474 E.08768
G1 X124.031 Y177.644 E1.9875
G1 X121.555 Y177.082 E.16962
G1 X116.662 Y174.903 E.35783
G1 X114.774 Y173.628 E.1522
M73 P2 R7
G1 X113.439 Y171.783 E.15214
G1 X112.786 Y169.077 E.18596
G1 X112.064 Y136.439 E2.18093
G1 X112.101 Y135.581 E.05737
G1 X112.294 Y133.823 E.11815
G1 X112.887 Y131.733 E.14513
G1 X118.862 Y119.144 E.93093
G1 X120.13 Y117.362 E.14611
G10 ; retract
G1 X120.13 Y117.362 F90000
; printing object ESCHER_LIZARD_MODIFIED.stl id:0 copy 0
G1 X136.195 Y140.639
G11 ; unretract
;TYPE:External perimeter
;WIDTH:0.6
G1 F1200
G1 X136.091 Y140.499 E.01165
G1 X135.897 Y140.455 E.01329
G1 X135.751 Y140.53 E.01097
G1 X129.98 Y146.249 E.54278
G1 X122.584 Y146.249 E.49409
G1 X120.96 Y142.951 E.24559
G1 X120.826 Y139.168 E.25288
G1 X120.781 Y139.029 E.00976
G1 X118.908 Y136.219 E.2256
G1 X119.057 Y134.867 E.09087
M73 P3 R7
G1 X124.077 Y135.418 E.33738
G1 X126.404 Y140.711 E.38626
G1 X126.433 Y140.762 E.00392
G1 X126.603 Y140.867 E.01335
G1 X126.757 Y140.849 E.01036
G1 X128.916 Y139.899 E.15758
G1 X129.048 Y139.773 E.01219
G1 X130.571 Y136.693 E.22954
G1 X133.16 Y135.074 E.20399
G1 X133.819 Y134.635 E.0529
G1 X136.203 Y131.07 E.28651
G1 X136.248 Y130.939 E.00925
G1 X136.213 Y130.787 E.01042
G1 X132.136 Y123.726 E.5447
G1 X131.975 Y123.602 E.01358
G1 X125.54 Y121.847 E.44559
G1 X131.492 Y118.41 E.45916
G1 X141.851 Y124.988 E.81977
G1 X144.033 Y130.512 E.39678
G1 X144.13 Y130.634 E.01041
G1 X144.326 Y130.678 E.01342
G1 X150.067 Y129.725 E.38878
G1 X157.935 Y131.694 E.54183
G1 X158.1 Y131.683 E.01105
G1 X158.238 Y131.558 E.01244
G1 X164.99 Y118.531 E.98022
G1 X170.669 Y119.374 E.38354
M73 P4 R7
G1 X165.604 Y123.35 E.43017
G1 X165.504 Y123.523 E.01335
G1 X163.963 Y134.597 E.74693
G1 X153.875 Y138.688 E.72724
G1 X146.595 Y135.767 E.52403
G1 X146.534 Y135.751 E.00421
G1 X146.347 Y135.793 E.0128
G1 X146.24 Y135.936 E.01193
G1 X146.246 Y136.114 E.0119
G1 X149.173 Y143.522 E.53212
G1 X149.252 Y143.63 E.00894
G1 X149.434 Y143.691 E.01282
G1 X164.036 Y143.027 E.9765
G1 X165.878 Y149.474 E.44793
G1 X166.198 Y150.512 E.07256
G1 X169.614 Y154.668 E.35939
G1 X168.041 Y156.65 E.16904
G1 X166.444 Y158.662 E.17161
G1 X162.967 Y156.877 E.2611
G1 X161.826 Y153.482 E.23927
M73 P5 R7
G1 X161.816 Y149.968 E.23475
G1 X161.694 Y149.81 E.01334
G1 X157.65 Y147.441 E.3131
G1 X157.554 Y147.407 E.0068
G1 X157.357 Y147.456 E.01356
G1 X152.617 Y150.899 E.39138
G1 X152.562 Y150.953 E.00515
G1 X152.507 Y151.116 E.01149
G1 X152.507 Y153.69 E.17196
G1 X152.585 Y153.879 E.01366
G1 X159.449 Y160.743 E.64849
G1 X157.015 Y169.826 E.6282
G1 X153.91 Y171.619 E.23953
G1 X144.826 Y169.185 E.62827
G1 X142.306 Y159.783 E.65027
G1 X142.189 Y159.646 E.01204
G1 X138.541 Y157.541 E.28137
G1 X138.355 Y157.523 E.01248
G1 X128.571 Y160.145 E.67669
G1 X128.496 Y160.178 E.00547
G1 X128.382 Y160.334 E.01291
G1 X125.838 Y169.826 E.6565
G1 X124.195 Y170.775 E.12676
G1 X119.621 Y168.738 E.3345
G1 X119.645 Y164.95 E.25306
M73 P6 R7
G1 X122.432 Y163.325 E.21552
G1 X125.078 Y160.326 E.26718
G1 X125.145 Y160.136 E.01346
G1 X124.933 Y155.845 E.28701
G1 X135.542 Y150.304 E.79958
G1 X136.144 Y149.967 E.04609
G1 X136.207 Y149.794 E.0123
G1 X136.207 Y140.728 E.60566
G1 X135.634 Y140.552 F90000
G1 X136.692 Y140.452
;TYPE:Perimeter
G1 F1200
G1 X136.687 Y140.425 E.00183
G1 X136.527 Y140.172 E.02
G1 X136.284 Y139.994 E.02012
G1 X135.997 Y139.918 E.01983
G1 X135.653 Y139.969 E.02323
G1 X135.374 Y140.149 E.02218
G1 X129.76 Y145.714 E.52808
G1 X122.917 Y145.714 E.45715
G1 X121.491 Y142.818 E.21565
G1 X121.361 Y139.149 E.24526
G1 X121.339 Y138.986 E.01099
G1 X121.227 Y138.732 E.01854
G1 X119.462 Y136.084 E.2126
G1 X119.53 Y135.458 E.04207
G1 X123.711 Y135.917 E.28099
G1 X125.914 Y140.927 E.36562
G1 X126.133 Y141.219 E.02438
G1 X126.312 Y141.333 E.01418
G1 X126.649 Y141.407 E.02305
G1 X126.973 Y141.339 E.02212
G1 X129.132 Y140.39 E.15755
G1 X129.374 Y140.225 E.01957
G1 X129.528 Y140.01 E.01767
G1 X130.984 Y137.067 E.21935
G1 X134.022 Y135.167 E.23938
G1 X134.264 Y134.932 E.02254
G1 X136.648 Y131.368 E.28645
G1 X136.758 Y131.123 E.01794
M73 P7 R7
G1 X136.778 Y130.821 E.02022
G1 X136.676 Y130.519 E.02129
G1 X132.6 Y123.458 E.54466
G1 X132.397 Y123.226 E.02059
G1 X132.116 Y123.085 E.021
G1 X126.92 Y121.668 E.3598
G1 X131.479 Y119.036 E.35168
G1 X141.417 Y125.347 E.78647
G1 X143.245 Y129.973 E.3323
G1 X143.601 Y130.84 E.06261
G1 X143.779 Y131.04 E.01789
G1 X144.081 Y131.191 E.02256
G1 X144.414 Y131.206 E.02227
G1 X150.045 Y130.272 E.38132
G1 X157.805 Y132.214 E.5344
G1 X158.012 Y132.238 E.01392
G1 X158.302 Y132.179 E.01977
G1 X158.597 Y131.972 E.02408
G1 X158.713 Y131.804 E.01364
G1 X165.289 Y119.117 E.95465
G1 X169.359 Y119.721 E.27488
G1 X165.274 Y122.928 E.34695
G1 X165.074 Y123.159 E.02041
G1 X164.974 Y123.45 E.02056
G1 X163.475 Y134.217 E.72623
G1 X153.874 Y138.111 E.69214
G1 X146.795 Y135.27 E.50958
M73 P8 R7
G1 X146.503 Y135.212 E.01989
G1 X146.229 Y135.258 E.01856
G1 X145.91 Y135.466 E.02544
G1 X145.761 Y135.691 E.01803
G1 X145.692 Y136.017 E.02226
G1 X145.748 Y136.311 E.01999
G1 X148.675 Y143.718 E.53206
G1 X148.711 Y143.797 E.0058
G1 X148.912 Y144.044 E.02127
G1 X149.17 Y144.186 E.01967
G1 X149.458 Y144.226 E.01942
G1 X163.637 Y143.582 E.94821
G1 X165.632 Y150.563 E.48504
G1 X165.784 Y150.852 E.02181
G1 X168.926 Y154.674 E.33053
G1 X167.622 Y156.317 E.14013
G1 X166.297 Y157.985 E.14231
G1 X163.405 Y156.5 E.21718
G1 X162.362 Y153.395 E.21882
G1 X162.362 Y150.041 E.22407
G1 X162.331 Y149.821 E.01484
G1 X162.167 Y149.516 E.02313
G1 X161.965 Y149.348 E.01755
G1 X157.92 Y146.979 E.31316
G1 X157.633 Y146.878 E.02033
G1 X157.34 Y146.888 E.01959
G1 X157.042 Y147.022 E.02183
G1 X152.302 Y150.466 E.39142
G1 X152.211 Y150.543 E.00796
G1 X152.044 Y150.781 E.01942
G1 X151.971 Y151.116 E.0229
G1 X151.971 Y153.69 E.17196
G1 X152.025 Y153.98 E.01971
G1 X152.206 Y154.258 E.02216
G1 X158.852 Y160.903 E.62785
G1 X156.555 Y169.473 E.59273
M73 P9 R7
G1 X153.834 Y171.044 E.2099
G1 X145.264 Y168.748 E.59271
M73 P9 R6
G1 X142.831 Y159.67 E.62786
G1 X142.714 Y159.417 E.01862
G1 X142.457 Y159.182 E.02326
G1 X138.826 Y157.086 E.28008
G1 X138.543 Y156.987 E.02003
G1 X138.217 Y157.006 E.02182
G1 X128.432 Y159.628 E.67675
G1 X128.206 Y159.728 E.01651
G1 X128.003 Y159.914 E.01839
G1 X127.864 Y160.196 E.021
G1 X125.378 Y169.473 E.64162
G1 X124.164 Y170.174 E.09365
G1 X120.159 Y168.391 E.29287
G1 X120.179 Y165.26 E.20917
G1 X122.633 Y163.843 E.18931
G1 X122.834 Y163.679 E.01733
G1 X125.48 Y160.681 E.26713
G1 X125.635 Y160.417 E.02045
G1 X125.68 Y160.11 E.02073
G1 X125.485 Y156.161 E.26414
G1 X135.79 Y150.778 E.7767
G1 X136.488 Y150.381 E.05364
G1 X136.665 Y150.139 E.02003
G1 X136.743 Y149.794 E.02363
G1 X136.743 Y140.72 E.60619
G1 X136.709 Y140.541 E.01217
M73 P10 R6
G10 ; retract
G1 X136.709 Y140.541 F90000
G1 X168.374 Y120.29
G11 ; unretract
;TYPE:Solid infill
;WIDTH:0.601535
G1 F1200
G1 X168.012 Y119.927 E.03435
G1 X167.119 Y119.794 E.06049
G1 X167.777 Y120.452 E.06234
G1 X167.352 Y120.786 E.03621
G1 X166.227 Y119.662 E.10654
G1 X165.514 Y119.556 E.04829
G1 X165.462 Y119.656 E.00755
G1 X166.926 Y121.12 E.13871
G1 X166.5 Y121.454 E.03627
G1 X165.203 Y120.157 E.12289
G1 X164.943 Y120.657 E.03776
G1 X166.075 Y121.789 E.10725
G1 X165.649 Y122.123 E.03627
G1 X164.684 Y121.157 E.09148
G1 X164.425 Y121.658 E.03779
G1 X165.224 Y122.457 E.0757
G1 X165.019 Y122.618 E.01746
G1 X164.823 Y122.816 E.01867
G1 X164.165 Y122.158 E.06234
G1 X163.906 Y122.658 E.03773
G1 X164.588 Y123.34 E.06462
G1 X164.491 Y124.003 E.04489
G1 X163.647 Y123.159 E.07997
G1 X163.388 Y123.659 E.03773
G1 X164.398 Y124.67 E.09574
G1 X164.306 Y125.337 E.04511
G1 X163.128 Y124.159 E.11161
G1 X162.869 Y124.66 E.03779
G1 X164.213 Y126.004 E.12734
G1 X164.12 Y126.67 E.04505
G1 X162.61 Y125.16 E.14307
G1 X162.35 Y125.66 E.03776
G1 X164.027 Y127.337 E.15889
G1 X163.934 Y128.004 E.04512
G1 X162.091 Y126.161 E.17462
G1 X161.832 Y126.661 E.03773
G1 X163.841 Y128.671 E.1904
G1 X163.749 Y129.338 E.04511
G1 X161.572 Y127.161 E.20627
G1 X161.313 Y127.662 E.03779
G1 X163.656 Y130.004 E.22195
G1 X163.563 Y130.671 E.04512
G1 X161.054 Y128.162 E.23772
G1 X160.794 Y128.662 E.03776
G1 X163.47 Y131.338 E.25355
G1 X163.377 Y132.005 E.04512
G1 X160.535 Y129.162 E.26932
G1 X160.276 Y129.663 E.03779
G1 X163.284 Y132.672 E.28505
G1 X163.192 Y133.339 E.04511
G1 X160.016 Y130.163 E.30092
G1 X159.757 Y130.663 E.03773
G1 X163.05 Y133.956 E.312
G1 X162.509 Y134.175 E.0391
G1 X159.498 Y131.164 E.28529
G1 X159.238 Y131.664 E.03776
M73 P11 R6
G1 X161.969 Y134.395 E.25876
G1 X161.428 Y134.614 E.0391
G1 X158.962 Y132.147 E.2337
G1 X158.896 Y132.242 E.00775
G1 X158.64 Y132.457 E.0224
G1 X158.552 Y132.497 E.00648
G1 X160.888 Y134.833 E.22133
G1 X160.347 Y135.052 E.0391
G1 X157.925 Y132.63 E.22948
G1 X157.716 Y132.606 E.01409
G1 X156.95 Y132.414 E.05291
G1 X159.807 Y135.271 E.27069
G1 X159.266 Y135.491 E.03913
G1 X155.936 Y132.16 E.31556
G1 X154.923 Y131.907 E.06995
G1 X158.726 Y135.71 E.36033
G1 X158.185 Y135.929 E.0391
G1 X153.91 Y131.653 E.40509
G1 X152.897 Y131.4 E.06995
G1 X157.645 Y136.148 E.44986
G1 X157.105 Y136.367 E.03904
G1 X151.883 Y131.146 E.49473
G1 X150.87 Y130.892 E.06997
G1 X156.564 Y136.586 E.53949
G1 X156.024 Y136.806 E.03907
G1 X149.918 Y130.7 E.57853
G1 X149.266 Y130.808 E.04428
G1 X155.483 Y137.025 E.58905
G1 X154.943 Y137.244 E.03904
G1 X148.615 Y130.916 E.59956
G1 X147.963 Y131.024 E.04428
M73 P12 R6
G1 X154.402 Y137.463 E.61008
G1 X153.873 Y137.678 E.03826
G1 X153.846 Y137.667 E.00195
G1 X147.312 Y131.132 E.61913
G1 X146.66 Y131.241 E.04429
G1 X152.577 Y137.158 E.56062
G1 X151.309 Y136.648 E.09157
G1 X146.009 Y131.349 E.50212
G1 X145.357 Y131.457 E.04428
G1 X150.04 Y136.139 E.44366
G1 X148.771 Y135.63 E.0916
G1 X144.496 Y131.355 E.40505
G10 ; retract
G1 X144.496 Y131.355 F90000
G1 X141.556 Y126.136
G11 ; unretract
G1 F1200
G1 X140.94 Y125.52 E.05836
G1 X138.858 Y124.198 E.16523
G1 X141.623 Y126.963 E.26198
G1 X142.12 Y128.219 E.0905
G1 X136.776 Y122.876 E.50628
G1 X134.695 Y121.554 E.16517
G1 X143.044 Y129.903 E.79105
G10 ; retract
G1 X143.044 Y129.903 F90000
G1 X147.936 Y135.555
G11 ; unretract
G1 F1200
G1 X132.613 Y120.232 E1.45182
G1 X131.469 Y119.505 E.09081
M73 P13 R6
G1 X131.252 Y119.631 E.01681
G1 X146.437 Y134.816 E1.43875
G1 X146.298 Y134.826 E.00934
G1 X146.084 Y134.882 E.01482
G1 X145.858 Y134.996 E.01696
G1 X130.771 Y119.909 E1.42946
G1 X130.289 Y120.187 E.03728
G1 X145.475 Y135.373 E1.43884
G1 X145.345 Y135.654 E.02074
G1 X145.302 Y135.845 E.01312
G1 X145.295 Y135.952 E.00718
G1 X133.423 Y124.08 E1.12485
G1 X132.943 Y123.249 E.06429
M73 P14 R6
G1 X132.72 Y122.972 E.02382
G1 X132.55 Y122.842 E.01434
G1 X132.366 Y122.747 E.01387
G1 X131.972 Y122.629 E.02756
G1 X129.807 Y120.465 E.20508
G1 X129.326 Y120.743 E.03722
G1 X130.927 Y122.345 E.15174
G1 X129.883 Y122.06 E.0725
G1 X128.844 Y121.021 E.09844
G1 X128.363 Y121.299 E.03722
G1 X129.182 Y122.118 E.0776
G10 ; retract
G1 X129.182 Y122.118 F90000
G1 X133.802 Y125.219
G11 ; unretract
G1 F1200
G1 X145.592 Y137.009 E1.11708
G1 X146.088 Y138.265 E.09047
G1 X135.498 Y127.675 E1.00338
G1 X136.536 Y129.472 E.13903
G1 X146.584 Y139.521 E.95207
G1 X147.081 Y140.777 E.0905
G1 X137.18 Y130.876 E.9381
G1 X137.184 Y131.003 E.00851
G1 X137.148 Y131.224 E.015
G1 X137.038 Y131.494 E.01953
M73 P15 R6
G1 X148.005 Y142.461 E1.0391
G10 ; retract
G1 X148.005 Y142.461 F90000
G1 X162.99 Y143.772
G11 ; unretract
G1 F1200
G1 X163.388 Y144.17 E.03771
G1 X163.691 Y145.233 E.07405
G1 X162.494 Y144.036 E.11341
G1 X161.767 Y144.069 E.04876
G1 X163.995 Y146.297 E.2111
G1 X164.299 Y147.36 E.07407
G1 X161.041 Y144.102 E.30869
G1 X160.314 Y144.135 E.04876
G1 X164.603 Y148.424 E.40637
G1 X164.907 Y149.487 E.07407
G1 X159.588 Y144.168 E.50396
G1 X158.861 Y144.201 E.04876
G1 X165.211 Y150.551 E.60165
G1 X165.25 Y150.686 E.00941
G1 X165.465 Y151.097 E.03108
G1 X167.627 Y153.726 E.22804
G1 X158.134 Y144.234 E.89939
G1 X157.408 Y144.267 E.04869
G1 X168.148 Y155.007 E1.01759
G1 X167.812 Y155.431 E.03624
G1 X162.764 Y150.383 E.47829
G1 X162.764 Y151.142 E.05085
M73 P16 R6
G1 X167.476 Y155.854 E.44645
G1 X167.14 Y156.278 E.03624
G1 X162.764 Y151.902 E.41462
G1 X162.764 Y152.662 E.05092
G1 X166.803 Y156.701 E.38269
G1 X166.467 Y157.125 E.03624
G1 X162.81 Y153.468 E.34649
G1 X163.195 Y154.612 E.08087
G1 X165.925 Y157.343 E.25871
G1 X164.364 Y156.541 E.11758
G1 X163.196 Y155.373 E.11067
G10 ; retract
G1 X163.196 Y155.373 F90000
G1 X160.947 Y148.566
G11 ; unretract
G1 F1200
G1 X156.681 Y144.3 E.40419
G1 X155.954 Y144.333 E.04876
G1 X158.438 Y146.817 E.23535
G1 X158.112 Y146.626 E.02531
G1 X157.699 Y146.48 E.02935
G1 X157.459 Y146.468 E.0161
G1 X157.346 Y146.484 E.00765
G1 X155.228 Y144.366 E.20068
G1 X154.501 Y144.399 E.04876
G1 X156.802 Y146.7 E.21801
G1 X156.362 Y147.02 E.03645
G1 X153.774 Y144.432 E.24521
G1 X153.048 Y144.465 E.04869
G1 X155.922 Y147.339 E.27231
G1 X155.482 Y147.659 E.03645
G1 X152.321 Y144.498 E.2995
G1 X151.594 Y144.531 E.04876
G1 X155.042 Y147.979 E.32669
G1 X154.602 Y148.298 E.03641
G1 X150.868 Y144.564 E.35379
G1 X150.141 Y144.597 E.04876
G1 X154.162 Y148.618 E.38098
G1 X153.722 Y148.938 E.03645
M73 P17 R6
G1 X149.407 Y144.622 E.40888
G1 X149.166 Y144.602 E.0162
G1 X148.946 Y144.531 E.01549
G1 X148.746 Y144.422 E.01526
G1 X148.572 Y144.278 E.01513
G1 X148.419 Y144.093 E.01608
G1 X148.304 Y143.873 E.01663
G1 X148.073 Y143.288 E.04214
G1 X136.739 Y131.955 E1.07382
G1 X136.435 Y132.41 E.03666
G1 X153.282 Y149.257 E1.59622
G1 X152.842 Y149.577 E.03645
G1 X136.13 Y132.865 E1.58343
G1 X135.826 Y133.32 E.03666
G1 X152.402 Y149.897 E1.57059
G1 X151.969 Y150.223 E.03631
M73 P18 R6
G1 X135.521 Y133.775 E1.55841
G1 X135.217 Y134.23 E.03666
G1 X151.658 Y150.671 E1.55775
G1 X151.612 Y150.797 E.00899
G1 X151.571 Y151.047 E.01697
G1 X151.571 Y151.344 E.0199
G1 X134.912 Y134.686 E1.57836
G1 X134.608 Y135.141 E.03666
G1 X151.572 Y152.105 E1.6073
G1 X151.572 Y152.865 E.05092
M73 P19 R6
G1 X134.223 Y135.515 E1.64383
G1 X133.755 Y135.808 E.03699
G1 X151.573 Y153.625 E1.68817
G1 X151.573 Y153.79 E.01105
G1 X151.612 Y154.007 E.01477
G1 X151.652 Y154.129 E.0086
G1 X151.766 Y154.35 E.01666
G1 X151.917 Y154.537 E.0161
G1 X158.404 Y161.023 E.61458
G1 X158.363 Y161.175 E.01055
G1 X133.288 Y136.1 E2.3758
G1 X132.821 Y136.392 E.0369
M73 P20 R6
G1 X135.949 Y139.52 E.29637
G1 X136.024 Y139.517 E.00503
G1 X136.252 Y139.555 E.01549
G1 X136.455 Y139.63 E.0145
G1 X136.618 Y139.724 E.01261
G1 X136.751 Y139.827 E.01127
