; generated by PrusaSlicer 2.7.4 on 2024-06-24 at 16:49:40 UTC


;
;

;
;
; 

; external perimeters extrusion width = 0.68mm
; perimeters extrusion width = 0.68mm
; infill extrusion width = 0.68mm
; solid infill extrusion width = 0.68mm
; top infill extrusion width = 0.60mm
; support material extrusion width = 0.60mm
; first layer extrusion width = 0.60mm

M73 P0 R47

; printing object Mount.stl id:0 copy 0
; stop printing object Mount.stl id:0 copy 0

;TYPE:Custom
M98 P"check-filament.g" F"PETG"
M98 P"revo/check-nozzle.g" S0.6

M140 S85
M116 ; wait for all temps to be reached

T0 ; select first tool
G10 P0 S240 ; set nozzle temperature
M703 ; configure it

G28 ; home all axes
M116 ; wait for all temps to be reached
M98 P"feed.g" ; feed filament into the nozzle
G21 ; set units to millimeters
G90 ; use absolute coordinates
M83 ; use relative distances for extrusion
; Filament gcode
M107
;LAYER_CHANGE
;Z:0.3
;HEIGHT:0.3
G10 ; retract
G1 Z.3 F90000
G1 X147.406 Y95.774
G11 ; unretract
;TYPE:Skirt/Brim
;WIDTH:0.6
G1 F1200
G1 X148.219 Y94.867 E.08137
G1 X149.152 Y94.086 E.08128
G1 X150.187 Y93.445 E.08133
G1 X151.035 Y93.057 E.0623
G1 X152.476 Y92.634 E.10033
G1 X154.15 Y92.464 E.11241
G1 X169.85 Y92.464 E1.04885
G1 X172.093 Y92.861 E.15217
G1 X174.063 Y94.004 E.15215
G1 X175.522 Y95.753 E.15216
G1 X176.386 Y99 E.22447
G1 X176.386 Y189 E6.01249
G1 X176.349 Y189.751 E.05023
G1 X176.155 Y190.953 E.08134
G1 X175.793 Y192.115 E.08131
G1 X175.405 Y192.963 E.0623
G1 X174.594 Y194.226 E.10027
G1 X173.781 Y195.133 E.08137
G1 X172.848 Y195.915 E.08133
G1 X171.813 Y196.555 E.08129
G1 X170.697 Y197.043 E.08137
G1 X169.803 Y197.305 E.06224
G1 X168.601 Y197.499 E.08134
G1 X135.15 Y197.536 E2.23471
G1 X132.521 Y196.984 E.17946
G1 X121.268 Y192.04 E.82112
G1 X120.266 Y191.491 E.07633
G1 X118.914 Y190.564 E.10951
G1 X117.552 Y189.364 E.12127
G1 X116.331 Y187.926 E.12602
G1 X115.742 Y187.045 E.0708
G1 X115.135 Y185.912 E.08587
G1 X114.489 Y184.263 E.11831
G1 X114.201 Y183.16 E.07616
G1 X114.003 Y181.971 E.08053
G1 X113.923 Y180.797 E.07861
G1 X113.95 Y179.629 E.07805
G1 X114.094 Y178.424 E.08107
G1 X114.332 Y177.317 E.07564
G1 X114.922 Y175.589 E.12198
G1 X146.595 Y97.037 E5.65822
G1 X147.358 Y95.849 E.09432
G10 ; retract
G1 X147.358 Y95.849 F90000
; printing object Mount.stl id:0 copy 0
G1 X128.074 Y174.632
G11 ; unretract
;TYPE:Support material
G1 F1200
G1 X129.144 Y175.024 E.07613
G1 X130.122 Y175.609 E.07613
G1 X130.973 Y176.366 E.07609
G1 X131.669 Y177.269 E.07616
G1 X132.184 Y178.285 E.0761
G1 X132.5 Y179.38 E.07614
G1 X132.607 Y180.514 E.07609
G1 X132.5 Y181.649 E.07616
G1 X132.184 Y182.744 E.07614
G1 X131.669 Y183.76 E.0761
G1 X130.973 Y184.663 E.07616
G1 X130.122 Y185.42 E.07609
G1 X129.144 Y186.005 E.07613
G1 X128.019 Y186.421 E.08013
G1 X126.605 Y186.751 E.097
G1 X125.152 Y186.604 E.09756
G1 X123.896 Y186.056 E.09155
G1 X122.705 Y185.24 E.09645
G1 X121.892 Y184.445 E.07596
G1 X121.241 Y183.512 E.076
G1 X120.775 Y182.474 E.07601
G1 X120.511 Y181.368 E.07596
G1 X120.458 Y180.232 E.07597
G1 X120.618 Y179.106 E.07598
G1 X120.775 Y178.555 E.03827
G1 X121.241 Y177.517 E.07601
G1 X121.892 Y176.584 E.076
G1 X122.705 Y175.788 E.07601
G1 X123.687 Y175.138 E.07867
G1 X124.697 Y174.712 E.07323
G1 X125.811 Y174.473 E.07611
G1 X126.95 Y174.446 E.07611
G1 X127.995 Y174.619 E.07076
G1 X127.995 Y174.619 F90000
G1 X131.907 Y182.757
G1 F1200
G1 X131.907 Y179.063 E.24678
G1 X131.733 Y178.463 E.04173
G1 X131.312 Y177.631 E.06229
G1 X131.312 Y183.398 E.38527
G1 X130.717 Y184.206 E.06704
G1 X130.717 Y176.823 E.49322
G1 X130.122 Y176.254 E.055
G1 X130.122 Y184.775 E.56925
G1 X129.527 Y185.214 E.0494
G1 X129.527 Y175.815 E.6279
G1 X128.931 Y175.46 E.04634
G1 X128.931 Y185.569 E.67534
G1 X128.336 Y185.787 E.04233
G1 X128.336 Y175.241 E.70453
G1 X127.741 Y175.065 E.04145
G1 X127.741 Y185.991 E.72992
G1 X127.146 Y186.13 E.04082
G1 X127.146 Y174.967 E.74575
G1 X126.551 Y174.938 E.0398
G1 X126.551 Y186.261 E.75644
G1 X125.956 Y186.201 E.03995
G1 X125.956 Y174.952 E.75149
G1 X125.361 Y175.063 E.04043
G1 X125.361 Y186.141 E.74007
G1 X125.276 Y186.132 E.00571
G1 X124.766 Y185.91 E.03716
G1 X124.766 Y175.206 E.71509
G1 X124.17 Y175.457 E.0432
G1 X124.17 Y185.65 E.68095
G1 X123.575 Y185.255 E.04771
G1 X123.575 Y175.774 E.63338
G1 X122.98 Y176.19 E.0485
G1 X122.98 Y184.838 E.57773
G1 X122.385 Y184.264 E.05523
G1 X122.385 Y176.765 E.50097
G1 X121.79 Y177.554 E.06602
G1 X121.79 Y183.475 E.39555
G1 X121.425 Y182.801 E.05121
G1 X121.195 Y182.188 E.04374
G1 X121.195 Y178.155 E.26943
G10 ; retract
G1 X121.195 Y178.155 F90000
G1 X135.45 Y171.3
G11 ; unretract
;TYPE:External perimeter
;WIDTH:0.6
G1 F1200
G1 X150.189 Y171.297 E.98464
G1 X150.834 Y171.194 E.04364
G1 X151.424 Y170.912 E.04369
G1 X151.911 Y170.476 E.04367
G1 X152.256 Y169.92 E.04371
G1 X152.419 Y169.365 E.03864
G1 X152.45 Y169.001 E.02441
G1 X152.45 Y101.02 E4.54149
G1 X152.522 Y100.522 E.03361
M73 P1 R47
G1 X152.722 Y100.082 E.03229
G1 X153.039 Y99.717 E.0323
G1 X153.445 Y99.456 E.03224
G1 X153.733 Y99.372 E.02004
G1 X154.161 Y99.3 E.02899
G1 X169.55 Y99.3 E1.02807
G1 X169.55 Y107.85 E.57119
G1 X169.55 Y188.98 E5.41992
G1 X169.478 Y189.478 E.03361
G1 X169.278 Y189.918 E.03229
G1 X168.961 Y190.283 E.0323
G1 X168.555 Y190.544 E.03224
G1 X168.267 Y190.628 E.02004
G1 X167.839 Y190.7 E.02899
G1 X135.45 Y190.7 E2.16376
G1 X135.45 Y171.39 E1.29001
G1 X136.043 Y171.301 F90000
G1 X135.986 Y171.836
;TYPE:Perimeter
G1 F1200
G1 X150.266 Y171.827 E.95398
G1 X150.837 Y171.745 E.03854
G1 X151.056 Y171.681 E.01524
G1 X151.582 Y171.44 E.03865
G1 X151.775 Y171.317 E.01529
G1 X152.212 Y170.938 E.03864
G1 X152.362 Y170.765 E.0153
G1 X152.675 Y170.279 E.03862
G1 X152.77 Y170.071 E.01528
G1 X152.932 Y169.516 E.03862
G1 X152.986 Y169.001 E.03459
G1 X152.986 Y101.153 E4.53261
G1 X153.041 Y100.674 E.03221
G1 X153.177 Y100.375 E.02194
G1 X153.393 Y100.126 E.02202
G1 X153.67 Y99.948 E.022
G1 X154.18 Y99.836 E.03488
G1 X169.014 Y99.836 E.99099
G1 X169.014 Y107.85 E.53538
G1 X169.014 Y188.847 E5.41103
G1 X168.959 Y189.326 E.03221
G1 X168.823 Y189.625 E.02194
G1 X168.607 Y189.874 E.02202
G1 X168.33 Y190.052 E.022
G1 X167.82 Y190.164 E.03488
G1 X135.986 Y190.164 E2.12668
G1 X135.986 Y171.926 E1.2184
G10 ; retract
G1 X135.986 Y171.926 F90000
G1 X157.283 Y150.726
G11 ; unretract
;TYPE:External perimeter
G1 F1200
G1 X157.204 Y150.578 E.01121
G1 X157.2 Y150.532 E.00308
G1 X157.2 Y147.468 E.20469
G1 X157.24 Y147.326 E.00986
G1 X157.381 Y147.214 E.01203
G1 X157.468 Y147.2 E.00589
G1 X164.532 Y147.2 E.47191
G1 X164.717 Y147.274 E.01331
G1 X164.789 Y147.393 E.00929
G1 X164.8 Y147.468 E.00506
G1 X164.8 Y150.532 E.20469
G1 X164.76 Y150.674 E.00986
G1 X164.619 Y150.786 E.01203
G1 X164.532 Y150.8 E.00589
G1 X157.468 Y150.8 E.47191
G1 X157.367 Y150.76 E.00726
G1 X157.209 Y150.181 F90000
G1 X156.668 Y150.576
;TYPE:Perimeter
G1 F1200
G1 X156.664 Y150.532 E.00295
G1 X156.664 Y147.468 E.20469
G1 X156.697 Y147.243 E.01519
G1 X156.786 Y147.043 E.01462
G1 X157.06 Y146.776 E.02556
G1 X157.345 Y146.674 E.02022
G1 X164.532 Y146.664 E.48013
G1 X164.793 Y146.708 E.01768
G1 X165.086 Y146.886 E.0229
G1 X165.214 Y147.043 E.01353
G1 X165.303 Y147.243 E.01462
G1 X165.336 Y147.468 E.01519
G1 X165.336 Y150.532 E.20469
G1 X165.303 Y150.757 E.01519
G1 X165.214 Y150.957 E.01462
G1 X164.94 Y151.224 E.02556
G1 X164.655 Y151.326 E.02022
G1 X164.532 Y151.336 E.00824
G1 X157.468 Y151.336 E.47191
G1 X157.207 Y151.292 E.01768
G1 X156.914 Y151.114 E.0229
G1 X156.786 Y150.957 E.01353
G1 X156.676 Y150.671 E.02047
G1 X156.676 Y150.666 E.00033
G10 ; retract
G1 X156.676 Y150.666 F90000
G1 X167.771 Y99.997
G11 ; unretract
;TYPE:Solid infill
;WIDTH:0.60048
G1 F1200
G1 X168.613 Y100.839 E.07962
G1 X168.613 Y101.597 E.05068
G1 X167.254 Y100.238 E.12851
G1 X166.496 Y100.239 E.05068
G1 X168.613 Y102.355 E.20014
G1 X168.613 Y103.113 E.05068
G1 X165.738 Y100.239 E.27182
G1 X164.981 Y100.24 E.05062
G1 X168.613 Y103.872 E.34345
G1 X168.613 Y104.63 E.05068
G1 X164.223 Y100.24 E.41513
G1 X163.465 Y100.241 E.05068
G1 X168.613 Y105.388 E.48676
G1 X168.613 Y106.146 E.05068
G1 X162.708 Y100.241 E.55839
G1 X161.95 Y100.242 E.05068
G1 X168.613 Y106.904 E.63002
G1 X168.613 Y107.662 E.05068
G1 X161.192 Y100.242 E.7017
G1 X160.435 Y100.243 E.05062
M73 P2 R46
G1 X168.613 Y108.421 E.77333
G1 X168.613 Y109.179 E.05068
G1 X159.677 Y100.243 E.845
G1 X158.919 Y100.243 E.05068
G1 X168.613 Y109.937 E.91668
G1 X168.613 Y110.695 E.05068
G1 X158.162 Y100.244 E.98827
G1 X157.404 Y100.244 E.05068
G1 X168.613 Y111.453 E1.05994
G1 X168.613 Y112.211 E.05068
G1 X156.646 Y100.245 E1.13157
G1 X155.889 Y100.245 E.05062
G1 X168.613 Y112.97 E1.20325
G1 X168.613 Y113.728 E.05068
G1 X155.131 Y100.246 E1.27488
G1 X154.373 Y100.246 E.05068
G1 X168.613 Y114.486 E1.34656
G1 X168.613 Y115.244 E.05068
G1 X153.746 Y100.377 E1.40585
G1 X153.659 Y100.433 E.00692
G1 X153.519 Y100.594 E.01427
G1 X153.426 Y100.816 E.01609
G1 X168.613 Y116.002 E1.43606
G1 X168.613 Y116.76 E.05068
G1 X153.387 Y101.535 E1.43975
G1 X153.387 Y102.293 E.05068
G1 X168.613 Y117.518 E1.43975
G1 X168.613 Y118.277 E.05075
G1 X153.387 Y103.051 E1.4398
G1 X153.387 Y103.809 E.05068
G1 X168.613 Y119.035 E1.4398
G1 X168.613 Y119.793 E.05068
G1 X153.387 Y104.568 E1.43975
G1 X153.387 Y105.326 E.05068
G1 X168.613 Y120.551 E1.43975
G1 X168.613 Y121.309 E.05068
G1 X153.387 Y106.084 E1.43975
G1 X153.387 Y106.842 E.05068
G1 X168.613 Y122.067 E1.43975
G1 X168.613 Y122.826 E.05075
G1 X153.387 Y107.6 E1.4398
G1 X153.387 Y108.358 E.05068
G1 X168.613 Y123.584 E1.4398
G1 X168.613 Y124.342 E.05068
G1 X153.387 Y109.117 E1.43975
G1 X153.387 Y109.875 E.05068
G1 X168.613 Y125.1 E1.43975
G1 X168.613 Y125.858 E.05068
G1 X153.387 Y110.633 E1.43975
G1 X153.387 Y111.391 E.05068
G1 X168.613 Y126.616 E1.43975
G1 X168.613 Y127.375 E.05075
G1 X153.387 Y112.149 E1.4398
G1 X153.387 Y112.907 E.05068
G1 X168.613 Y128.133 E1.4398
G1 X168.613 Y128.891 E.05068
G1 X153.387 Y113.666 E1.43975
G1 X153.387 Y114.424 E.05068
M73 P3 R46
G1 X168.613 Y129.649 E1.43975
G1 X168.613 Y130.407 E.05068
G1 X153.387 Y115.182 E1.43975
G1 X153.387 Y115.94 E.05068
G1 X168.613 Y131.165 E1.43975
G1 X168.613 Y131.924 E.05075
G1 X153.387 Y116.698 E1.4398
G1 X153.387 Y117.456 E.05068
G1 X168.613 Y132.682 E1.4398
G1 X168.613 Y133.44 E.05068
G1 X153.387 Y118.214 E1.4398
G1 X153.387 Y118.973 E.05075
G1 X168.613 Y134.198 E1.43975
G1 X168.613 Y134.956 E.05068
G1 X153.387 Y119.731 E1.43975
G1 X153.387 Y120.489 E.05068
G1 X168.613 Y135.714 E1.43975
G1 X168.613 Y136.472 E.05068
G1 X153.387 Y121.247 E1.43975
G1 X153.387 Y122.005 E.05068
G1 X168.613 Y137.231 E1.4398
G1 X168.613 Y137.989 E.05068
G1 X153.387 Y122.763 E1.4398
G1 X153.387 Y123.522 E.05075
G1 X168.613 Y138.747 E1.43975
G1 X168.613 Y139.505 E.05068
G1 X153.387 Y124.28 E1.43975
G1 X153.387 Y125.038 E.05068
G1 X168.613 Y140.263 E1.43975
G1 X168.613 Y141.021 E.05068
G1 X153.387 Y125.796 E1.43975
G1 X153.387 Y126.554 E.05068
G1 X168.613 Y141.78 E1.4398
G1 X168.613 Y142.538 E.05068
G1 X153.387 Y127.312 E1.4398
G1 X153.387 Y128.071 E.05075
G1 X168.613 Y143.296 E1.43975
G1 X168.613 Y144.054 E.05068
G1 X153.387 Y128.829 E1.43975
G1 X153.387 Y129.587 E.05068
G1 X168.613 Y144.812 E1.43975
G1 X168.613 Y145.57 E.05068
G1 X153.387 Y130.345 E1.43975
G1 X153.387 Y131.103 E.05068
G1 X168.613 Y146.329 E1.4398
G1 X168.613 Y147.087 E.05068
G1 X153.387 Y131.861 E1.4398
G1 X153.387 Y132.62 E.05075
G1 X168.613 Y147.845 E1.43975
G1 X168.613 Y148.603 E.05068
G1 X153.387 Y133.378 E1.43975
G1 X153.387 Y134.136 E.05068
M73 P4 R46
G1 X168.613 Y149.361 E1.43975
G1 X168.613 Y150.119 E.05068
G1 X153.387 Y134.894 E1.43975
G1 X153.387 Y135.652 E.05068
M73 P4 R45
G1 X163.998 Y146.263 E1.0034
G1 X163.24 Y146.263 E.05068
G1 X153.387 Y136.41 E.93172
G1 X153.387 Y137.168 E.05068
G1 X162.482 Y146.263 E.86004
G1 X161.723 Y146.263 E.05075
G1 X153.387 Y137.927 E.78827
G1 X153.387 Y138.685 E.05068
G1 X160.965 Y146.263 E.71659
G1 X160.207 Y146.263 E.05068
G1 X153.387 Y139.443 E.64491
G1 X153.387 Y140.201 E.05068
G1 X159.449 Y146.263 E.57323
G1 X158.691 Y146.263 E.05068
G1 X153.387 Y140.959 E.50156
G1 X153.387 Y141.717 E.05068
G1 X157.933 Y146.263 E.42988
G1 X157.463 Y146.263 E.03143
G1 X157.207 Y146.295 E.01725
G1 X153.387 Y142.476 E.36118
G1 X153.387 Y143.234 E.05068
G1 X156.7 Y146.546 E.31324
G1 X156.635 Y146.595 E.00544
G1 X156.443 Y146.831 E.02034
G1 X156.376 Y146.981 E.01098
G1 X153.387 Y143.992 E.28265
G1 X153.387 Y144.75 E.05068
G1 X156.263 Y147.625 E.27191
G1 X156.263 Y148.384 E.05075
G1 X153.387 Y145.508 E.27196
G1 X153.387 Y146.266 E.05068
G1 X156.263 Y149.142 E.27196
G1 X156.263 Y149.9 E.05068
G1 X153.146 Y146.784 E.2947
G10 ; retract
G1 X153.146 Y146.784 F90000
G1 X165.496 Y147.761
G11 ; unretract
G1 F1200
G1 X168.613 Y150.877 E.2947
G1 X168.613 Y151.636 E.05075
G1 X165.737 Y148.76 E.27196
G1 X165.737 Y149.518 E.05068
G1 X168.613 Y152.394 E.27196
G1 X168.613 Y153.152 E.05068
G1 X165.737 Y150.277 E.27191
G1 X165.72 Y150.738 E.03085
G1 X165.688 Y150.875 E.00941
G1 X165.654 Y150.951 E.00557
G1 X168.613 Y153.91 E.27981
G1 X168.613 Y154.668 E.05068
G1 X165.356 Y151.412 E.30794
G1 X165.145 Y151.571 E.01767
G1 X164.872 Y151.685 E.01978
G1 X168.613 Y155.426 E.35376
G1 X168.613 Y156.185 E.05075
G1 X164.165 Y151.737 E.42061
G1 X163.407 Y151.737 E.05068
G1 X168.613 Y156.943 E.49229
G1 X168.613 Y157.701 E.05068
G1 X162.649 Y151.737 E.56397
G1 X161.891 Y151.737 E.05068
G1 X168.613 Y158.459 E.63564
G1 X168.613 Y159.217 E.05068
G1 X161.133 Y151.737 E.70732
G1 X160.375 Y151.737 E.05068
G1 X168.613 Y159.975 E.779
G1 X168.613 Y160.734 E.05075
G1 X159.616 Y151.737 E.85077
G1 X158.858 Y151.737 E.05068
G1 X168.613 Y161.492 E.92245
G1 X168.613 Y162.25 E.05068
G1 X157.859 Y151.496 E1.01692
G10 ; retract
G1 X157.859 Y151.496 F90000
G1 X153.146 Y147.542
G11 ; unretract
G1 F1200
G1 X156.274 Y150.669 E.29574
G1 X156.312 Y150.875 E.01401
G1 X156.443 Y151.169 E.02152
G1 X156.635 Y151.405 E.02034
G1 X156.855 Y151.571 E.01843
G1 X157.076 Y151.672 E.01625
G1 X157.332 Y151.727 E.01751
G1 X168.613 Y163.008 E1.06675
G1 X168.613 Y163.766 E.05068
G1 X153.387 Y148.541 E1.43975
G1 X153.387 Y149.299 E.05068
G1 X168.613 Y164.524 E1.43975
G1 X168.613 Y165.283 E.05075
G1 X153.387 Y150.057 E1.4398
G1 X153.387 Y150.815 E.05068
G1 X168.613 Y166.041 E1.4398
G1 X168.613 Y166.799 E.05068
G1 X153.387 Y151.574 E1.43975
G1 X153.387 Y152.332 E.05068
G1 X168.613 Y167.557 E1.43975
G1 X168.613 Y168.315 E.05068
G1 X153.387 Y153.09 E1.43975
G1 X153.387 Y153.848 E.05068
G1 X168.613 Y169.073 E1.43975
G1 X168.613 Y169.831 E.05068
G1 X153.387 Y154.606 E1.43975
G1 X153.387 Y155.364 E.05068
G1 X168.613 Y170.59 E1.4398
G1 X168.613 Y171.348 E.05068
M73 P5 R45
G1 X153.387 Y156.122 E1.4398
G1 X153.387 Y156.881 E.05075
G1 X168.613 Y172.106 E1.43975
G1 X168.613 Y172.864 E.05068
G1 X153.387 Y157.639 E1.43975
G1 X153.387 Y158.397 E.05068
G1 X168.613 Y173.622 E1.43975
G1 X168.613 Y174.38 E.05068
G1 X153.387 Y159.155 E1.43975
G1 X153.387 Y159.913 E.05068
G1 X168.613 Y175.139 E1.4398
G1 X168.613 Y175.897 E.05068
G1 X153.387 Y160.671 E1.4398
G1 X153.387 Y161.43 E.05075
G1 X168.613 Y176.655 E1.43975
G1 X168.613 Y177.413 E.05068
G1 X153.387 Y162.188 E1.43975
G1 X153.387 Y162.946 E.05068
G1 X168.613 Y178.171 E1.43975
G1 X168.613 Y178.929 E.05068
G1 X153.387 Y163.704 E1.43975
G1 X153.387 Y164.462 E.05068
G1 X168.613 Y179.688 E1.4398
G1 X168.613 Y180.446 E.05068
G1 X153.387 Y165.22 E1.4398
G1 X153.387 Y165.979 E.05075
G1 X168.613 Y181.204 E1.43975
G1 X168.613 Y181.962 E.05068
G1 X153.387 Y166.737 E1.43975
G1 X153.387 Y167.495 E.05068
G1 X168.613 Y182.72 E1.43975
G1 X168.613 Y183.478 E.05068
G1 X153.387 Y168.253 E1.43975
G1 X153.387 Y169.011 E.05068
G1 X168.613 Y184.237 E1.4398
G1 X168.613 Y184.995 E.05068
G1 X153.298 Y169.68 E1.44822
G1 X153.124 Y170.264 E.04075
G1 X168.613 Y185.753 E1.46467
G1 X168.613 Y186.511 E.05068
G1 X152.849 Y170.747 E1.49067
G1 X152.697 Y170.986 E.01894
G1 X152.592 Y171.126 E.0117
G1 X152.527 Y171.184 E.00582
G1 X168.613 Y187.269 E1.52107
G1 X168.613 Y188.027 E.05068
G1 X152.127 Y171.541 E1.55895
G1 X151.843 Y171.759 E.02394
