; generated by PrusaSlicer 2.7.4 on 2024-06-12 at 13:03:09 UTC


;
;

;
;
; 

; external perimeters extrusion width = 0.68mm
; perimeters extrusion width = 0.68mm
; infill extrusion width = 0.68mm
; solid infill extrusion width = 0.68mm
; top infill extrusion width = 0.60mm
; first layer extrusion width = 0.80mm

; external perimeters extrusion width = 0.68mm
; perimeters extrusion width = 0.68mm
; infill extrusion width = 0.68mm
; solid infill extrusion width = 0.68mm
; top infill extrusion width = 0.60mm
; first layer extrusion width = 0.80mm

M73 P0 R8

; printing object Revo Nozzle Halter 0.6 HF.stl id:0 copy 0
; stop printing object Revo Nozzle Halter 0.6 HF.stl id:0 copy 0
; printing object Revo Nozzle Halter 0.6 OX.stl id:1 copy 0
; stop printing object Revo Nozzle Halter 0.6 OX.stl id:1 copy 0

;TYPE:Custom
M98 P"check-filament.g" F"PETG"
M98 P"revo/check-nozzle.g" S0.6

M140 S85
M116 ; wait for all temps to be reached

T0 ; select first tool
G10 P0 S240 ; set nozzle temperature
M703 ; configure it

G28 ; home all axes
M116 ; wait for all temps to be reached
M98 P"feed.g" ; feed filament into the nozzle
G21 ; set units to millimeters
G90 ; use absolute coordinates
M83 ; use relative distances for extrusion
; Filament gcode
M107
;LAYER_CHANGE
;Z:0.4
;HEIGHT:0.4
G10 ; retract
G1 Z.4 F90000
G1 X118.178 Y125.518
G11 ; unretract
;TYPE:Skirt/Brim
;WIDTH:0.8
G1 F1200
G1 X119.245 Y124.699 E.15975
G1 X119.9 Y124.312 E.09035
G1 X120.747 Y123.918 E.11095
G1 X122.029 Y123.513 E.15967
G1 X123.707 Y123.292 E.20101
G1 X166.293 Y123.292 E5.05773
G1 X167.801 Y123.475 E.18041
G1 X169.253 Y123.918 E.18029
G1 X170.608 Y124.605 E.18043
G1 X171.822 Y125.518 E.1804
G1 X172.859 Y126.627 E.18032
G1 X173.688 Y127.9 E.18042
G1 X174.335 Y129.463 E.20091
G1 X174.649 Y130.949 E.18038
G1 X174.714 Y132 E.12506
G1 X174.714 Y160 E3.32542
G1 X174.317 Y162.275 E.27427
M73 P1 R8
G1 X173.173 Y164.28 E.27416
G1 X171.417 Y165.78 E.27428
G1 X169.257 Y166.595 E.27419
G1 X168 Y166.714 E.14996
G1 X132.607 Y166.714 E4.20346
G1 X130.332 Y166.317 E.27427
G1 X127.859 Y164.748 E.34783
G1 X117.252 Y154.141 E1.78154
G1 X115.925 Y152.252 E.27417
G1 X115.286 Y149.393 E.34793
G1 X115.286 Y132 E2.06568
G1 X115.374 Y130.776 E.14574
G1 X115.513 Y130.029 E.09024
G1 X115.918 Y128.747 E.15967
G1 X116.699 Y127.245 E.20106
G1 X117.518 Y126.178 E.15975
G1 X118.115 Y125.581 E.10027
G10 ; retract
G1 X118.115 Y125.581 F90000
; printing object Revo Nozzle Halter 0.6 HF.stl id:0 copy 0
G1 X167.6 Y159.6
G11 ; unretract
;TYPE:External perimeter
;WIDTH:0.8
G1 F1200
M73 P2 R8
G1 X158.772 Y159.6 E1.04846
G1 X148.4 Y149.228 E1.74207
G1 X148.4 Y132.138 E2.0297
G1 X148.458 Y131.588 E.06568
G1 X148.628 Y131.182 E.05228
G1 X148.966 Y130.782 E.0622
G1 X149.346 Y130.543 E.05331
G1 X149.861 Y130.408 E.06323
G1 X165.877 Y130.401 E1.90214
G1 X166.42 Y130.458 E.06484
G1 X166.917 Y130.691 E.06519
G1 X167.309 Y131.083 E.06584
G1 X167.544 Y131.586 E.06594
G1 X167.592 Y131.999 E.04938
G1 X167.6 Y159.51 E3.26735
G1 X167.007 Y159.599 F90000
G1 X166.886 Y158.886
;TYPE:Perimeter
G1 F1200
G1 X159.068 Y158.886 E.92851
G1 X149.114 Y148.932 E1.67187
G1 X149.114 Y132.138 E1.99454
M73 P3 R8
G1 X149.153 Y131.776 E.04324
G1 X149.324 Y131.434 E.04541
G1 X149.661 Y131.188 E.04955
G1 X149.923 Y131.122 E.03209
G1 X165.877 Y131.115 E1.89478
G1 X166.126 Y131.139 E.02971
G1 X166.424 Y131.231 E.03704
G1 X166.67 Y131.433 E.0378
G1 X166.825 Y131.698 E.03646
G1 X166.878 Y131.999 E.0363
G1 X166.886 Y158.796 E3.18255
G10 ; retract
G1 X166.886 Y158.796 F90000
G1 X159.44 Y146.162
G11 ; unretract
;TYPE:External perimeter
G1 F1200
G1 X158.947 Y146.419 E.06603
G1 X158.433 Y146.562 E.06336
G1 X157.976 Y146.599 E.05445
G1 X157.517 Y146.553 E.05479
G1 X157.055 Y146.421 E.05707
G1 X156.678 Y146.235 E.04993
G1 X156.195 Y145.868 E.07204
G1 X155.853 Y145.466 E.06268
G1 X155.622 Y145.044 E.05714
G1 X155.454 Y144.514 E.06603
G1 X155.4 Y144.013 E.05985
G1 X155.445 Y143.524 E.05832
G1 X155.577 Y143.061 E.05718
G1 X155.761 Y142.684 E.04982
G1 X156.127 Y142.201 E.07197
G1 X156.537 Y141.852 E.06395
G1 X156.937 Y141.628 E.05445
G1 X157.383 Y141.477 E.05592
G1 X157.934 Y141.403 E.06603
G1 X158.495 Y141.449 E.06685
G1 X158.933 Y141.574 E.0541
G1 X159.309 Y141.758 E.04972
G1 X159.794 Y142.122 E.07202
G1 X160.145 Y142.533 E.06419
G1 X160.379 Y142.953 E.0571
G1 X160.514 Y143.351 E.04991
G1 X160.597 Y143.951 E.07194
G1 X160.56 Y144.455 E.06002
G1 X160.384 Y145.031 E.07153
G1 X160.108 Y145.521 E.06679
G1 X159.807 Y145.868 E.05456
G1 X159.511 Y146.105 E.04503
G1 X158.982 Y146.389 F90000
G1 X159.787 Y146.766
;TYPE:Perimeter
G1 F1200
G1 X159.277 Y147.052 E.06944
G1 X158.685 Y147.24 E.07377
G1 X158.104 Y147.31 E.0695
G1 X157.52 Y147.277 E.06947
G1 X156.921 Y147.13 E.07325
G1 X156.44 Y146.921 E.06229
G1 X155.763 Y146.436 E.09891
G1 X155.336 Y145.966 E.07542
G1 X155.032 Y145.468 E.06929
G1 X154.773 Y144.73 E.09289
G1 X154.691 Y144.114 E.0738
G1 X154.722 Y143.53 E.06946
G1 X154.867 Y142.93 E.07331
G1 X155.075 Y142.447 E.06246
G1 X155.557 Y141.77 E.0987
G1 X156.026 Y141.341 E.07549
G1 X156.524 Y141.036 E.06936
G1 X157.068 Y140.823 E.06938
G1 X157.84 Y140.695 E.09294
M73 P4 R8
G1 X158.491 Y140.726 E.0774
G1 X159.066 Y140.865 E.07026
G1 X159.546 Y141.072 E.06208
G1 X160.223 Y141.551 E.09849
G1 X160.653 Y142.018 E.07539
G1 X160.974 Y142.546 E.07339
G1 X161.168 Y143.034 E.06237
G1 X161.304 Y143.854 E.09872
G1 X161.275 Y144.488 E.07538
G1 X161.066 Y145.243 E.09304
G1 X160.766 Y145.82 E.07724
G1 X160.398 Y146.284 E.07033
G1 X159.959 Y146.669 E.06935
G1 X159.865 Y146.722 E.01282
G10 ; retract
G1 X159.865 Y146.722 F90000
G1 X164.806 Y131.335
G11 ; unretract
;TYPE:Solid infill
;WIDTH:0.804624
G1 F1200
G1 X166.343 Y132.872 E.25982
G1 X166.343 Y133.888 E.12145
G1 X164.111 Y131.656 E.37731
G1 X163.095 Y131.656 E.12145
G1 X166.343 Y134.905 E.54915
G1 X166.344 Y135.922 E.12157
G1 X162.078 Y131.657 E.72107
G1 X161.062 Y131.657 E.12145
G1 X166.344 Y136.939 E.8929
G1 X166.344 Y137.955 E.12145
G1 X160.046 Y131.657 E1.06466
G1 X159.029 Y131.657 E.12157
G1 X166.345 Y138.972 E1.23666
G1 X166.345 Y139.989 E.12157
G1 X158.013 Y131.657 E1.4085
G1 X156.996 Y131.657 E.12157
G1 X166.345 Y141.006 E1.58042
G1 X166.345 Y142.023 E.12157
G1 X155.98 Y131.657 E1.75225
G1 X154.963 Y131.657 E.12157
M73 P5 R8
G1 X166.346 Y143.039 E1.92417
G1 X166.346 Y144.056 E.12157
G1 X153.947 Y131.657 E2.09601
G1 X152.93 Y131.657 E.12157
G1 X166.346 Y145.073 E2.26793
G1 X166.346 Y146.09 E.12157
G1 X151.914 Y131.657 E2.43977
G1 X150.897 Y131.657 E.12157
G1 X166.347 Y147.107 E2.61177
G1 X166.347 Y148.123 E.12145
G1 X161.808 Y143.584 E.7673
G1 X161.85 Y144.001 E.0501
M73 P6 R8
G1 X161.799 Y144.591 E.07079
G1 X166.347 Y149.14 E.76891
G1 X166.348 Y150.157 E.12157
G1 X161.581 Y145.39 E.80585
G1 X161.444 Y145.711 E.04172
G1 X161.241 Y146.067 E.04899
G1 X166.348 Y151.174 E.86332
G1 X166.348 Y152.19 E.12145
G1 X160.798 Y146.64 E.93821
G1 X160.611 Y146.824 E.03136
G1 X160.255 Y147.114 E.05489
G1 X166.348 Y153.207 E1.03
G1 X166.349 Y154.224 E.12157
G1 X159.608 Y147.484 E1.13946
G1 X159.312 Y147.62 E.03894
G1 X158.856 Y147.748 E.05661
G1 X166.349 Y155.241 E1.26667
G1 X166.349 Y156.258 E.12157
G1 X157.589 Y147.497 E1.48093
G10 ; retract
G1 X157.589 Y147.497 F90000
G1 X158.791 Y140.567
G11 ; unretract
G1 F1200
G1 X149.899 Y131.675 E1.50316
G1 X149.757 Y131.761 E.01984
G1 X149.725 Y131.798 E.00585
G1 X149.675 Y131.917 E.01543
G1 X149.65 Y132.106 E.02279
G1 X149.65 Y132.443 E.04028
G1 X157.426 Y140.219 E1.31451
G1 X157.05 Y140.268 E.04532
M73 P7 R8
G1 X156.61 Y140.419 E.05561
G1 X149.65 Y133.459 E1.17657
G1 X149.65 Y134.476 E.12157
G1 X155.932 Y140.758 E1.06195
G1 X155.688 Y140.926 E.03541
G1 X155.36 Y141.203 E.05132
G1 X149.65 Y135.492 E.96534
G1 X149.65 Y136.509 E.12157
G1 X154.897 Y141.756 E.88699
G1 X154.759 Y141.938 E.0273
G1 X154.594 Y142.212 E.03823
G1 X154.512 Y142.387 E.0231
G1 X149.65 Y137.525 E.82191
G1 X149.65 Y138.542 E.12157
G1 X154.253 Y143.145 E.77812
G1 X154.189 Y143.478 E.04053
G1 X154.154 Y144.062 E.06993
G1 X149.65 Y139.558 E.76139
G1 X149.65 Y140.575 E.12157
G1 X154.402 Y145.327 E.80331
G1 X154.562 Y145.725 E.05127
G1 X154.789 Y146.121 E.05456
G1 X154.921 Y146.305 E.02707
G1 X155.274 Y146.72 E.06513
G1 X155.434 Y146.859 E.02533
G1 X155.975 Y147.269 E.08114
G1 X156.206 Y147.403 E.03192
G1 X156.689 Y147.613 E.06296
G1 X166.349 Y157.274 E1.63308
G1 X166.35 Y158.291 E.12157
M73 P7 R7
G1 X149.65 Y141.591 E2.82308
G1 X149.65 Y142.608 E.12157
M73 P8 R7
G1 X165.392 Y158.35 E2.66113
G1 X164.376 Y158.35 E.12145
G1 X149.65 Y143.624 E2.48938
G1 X149.65 Y144.641 E.12157
G1 X163.359 Y158.35 E2.31746
G1 X162.343 Y158.35 E.12145
G1 X149.65 Y145.657 E2.14571
G1 X149.65 Y146.674 E.12157
G1 X161.326 Y158.35 E1.97379
G1 X160.31 Y158.35 E.12145
M73 P9 R7
G1 X149.65 Y147.69 E1.80204
G1 X149.65 Y148.707 E.12157
G1 X159.615 Y158.672 E1.68455
G10 ; retract
G1 X159.615 Y158.672 F90000
; stop printing object Revo Nozzle Halter 0.6 HF.stl id:0 copy 0
; printing object Revo Nozzle Halter 0.6 OX.stl id:1 copy 0
G1 X141.6 Y159.6
G11 ; unretract
;TYPE:External perimeter
;WIDTH:0.8
G1 F1200
G1 X132.772 Y159.6 E1.04846
G1 X122.4 Y149.228 E1.74207
G1 X122.4 Y132.138 E2.0297
G1 X122.458 Y131.588 E.06568
G1 X122.628 Y131.182 E.05228
G1 X122.966 Y130.782 E.0622
G1 X123.346 Y130.543 E.05331
G1 X123.861 Y130.408 E.06323
G1 X139.877 Y130.401 E1.90214
G1 X140.42 Y130.458 E.06484
G1 X140.917 Y130.691 E.06519
G1 X141.309 Y131.083 E.06584
G1 X141.544 Y131.586 E.06594
M73 P10 R7
G1 X141.592 Y131.999 E.04938
G1 X141.6 Y159.51 E3.26735
G1 X141.007 Y159.599 F90000
G1 X140.886 Y158.886
;TYPE:Perimeter
G1 F1200
G1 X133.068 Y158.886 E.92851
G1 X123.114 Y148.932 E1.67187
G1 X123.114 Y132.138 E1.99454
G1 X123.153 Y131.776 E.04324
G1 X123.324 Y131.434 E.04541
G1 X123.661 Y131.188 E.04955
G1 X123.923 Y131.122 E.03209
G1 X139.877 Y131.115 E1.89478
G1 X140.126 Y131.139 E.02971
G1 X140.424 Y131.231 E.03704
G1 X140.67 Y131.433 E.0378
G1 X140.825 Y131.698 E.03646
G1 X140.878 Y131.999 E.0363
G1 X140.886 Y158.796 E3.18255
G10 ; retract
G1 X140.886 Y158.796 F90000
M73 P11 R7
G1 X133.44 Y146.162
G11 ; unretract
;TYPE:External perimeter
G1 F1200
G1 X132.947 Y146.419 E.06603
G1 X132.433 Y146.562 E.06336
G1 X131.976 Y146.599 E.05445
G1 X131.517 Y146.553 E.05479
G1 X131.055 Y146.421 E.05707
G1 X130.678 Y146.235 E.04993
G1 X130.195 Y145.868 E.07204
G1 X129.853 Y145.466 E.06268
G1 X129.622 Y145.044 E.05714
G1 X129.454 Y144.514 E.06603
G1 X129.4 Y144.013 E.05985
G1 X129.445 Y143.524 E.05832
G1 X129.577 Y143.061 E.05718
G1 X129.761 Y142.684 E.04982
G1 X130.127 Y142.201 E.07197
G1 X130.537 Y141.852 E.06395
G1 X130.937 Y141.628 E.05445
G1 X131.383 Y141.477 E.05592
G1 X131.934 Y141.403 E.06603
G1 X132.495 Y141.449 E.06685
G1 X132.933 Y141.574 E.0541
G1 X133.309 Y141.758 E.04972
G1 X133.794 Y142.122 E.07202
G1 X134.145 Y142.533 E.06419
G1 X134.379 Y142.953 E.0571
G1 X134.514 Y143.351 E.04991
G1 X134.597 Y143.951 E.07194
G1 X134.56 Y144.455 E.06002
G1 X134.384 Y145.031 E.07153
G1 X134.108 Y145.521 E.06679
G1 X133.807 Y145.868 E.05456
G1 X133.511 Y146.105 E.04503
G1 X132.982 Y146.389 F90000
G1 X133.787 Y146.766
;TYPE:Perimeter
G1 F1200
G1 X133.277 Y147.052 E.06944
G1 X132.685 Y147.24 E.07377
G1 X132.104 Y147.31 E.0695
G1 X131.52 Y147.277 E.06947
G1 X130.921 Y147.13 E.07325
G1 X130.44 Y146.921 E.06229
G1 X129.763 Y146.436 E.09891
G1 X129.336 Y145.966 E.07542
G1 X129.032 Y145.468 E.06929
G1 X128.773 Y144.73 E.09289
G1 X128.691 Y144.114 E.0738
G1 X128.722 Y143.53 E.06946
G1 X128.867 Y142.93 E.07331
G1 X129.075 Y142.447 E.06246
G1 X129.557 Y141.77 E.0987
G1 X130.026 Y141.341 E.07549
G1 X130.524 Y141.036 E.06936
G1 X131.068 Y140.823 E.06938
G1 X131.84 Y140.695 E.09294
G1 X132.491 Y140.726 E.0774
G1 X133.066 Y140.865 E.07026
G1 X133.546 Y141.072 E.06208
G1 X134.223 Y141.551 E.09849
G1 X134.653 Y142.018 E.07539
G1 X134.974 Y142.546 E.07339
G1 X135.168 Y143.034 E.06237
G1 X135.304 Y143.854 E.09872
G1 X135.275 Y144.488 E.07538
G1 X135.066 Y145.243 E.09304
G1 X134.766 Y145.82 E.07724
G1 X134.398 Y146.284 E.07033
G1 X133.959 Y146.669 E.06935
G1 X133.865 Y146.722 E.01282
G10 ; retract
G1 X133.865 Y146.722 F90000
G1 X138.806 Y131.335
G11 ; unretract
;TYPE:Solid infill
;WIDTH:0.804624
G1 F1200
G1 X140.343 Y132.872 E.25982
G1 X140.343 Y133.888 E.12145
G1 X138.111 Y131.656 E.37731
G1 X137.095 Y131.656 E.12145
G1 X140.343 Y134.905 E.54915
G1 X140.344 Y135.922 E.12157
G1 X136.078 Y131.657 E.72107
G1 X135.062 Y131.657 E.12145
G1 X140.344 Y136.939 E.8929
G1 X140.344 Y137.955 E.12145
G1 X134.046 Y131.657 E1.06466
G1 X133.029 Y131.657 E.12157
G1 X140.345 Y138.972 E1.23666
G1 X140.345 Y139.989 E.12157
M73 P12 R7
G1 X132.013 Y131.657 E1.4085
G1 X130.996 Y131.657 E.12157
G1 X140.345 Y141.006 E1.58042
G1 X140.345 Y142.023 E.12157
G1 X129.98 Y131.657 E1.75225
G1 X128.963 Y131.657 E.12157
G1 X140.346 Y143.039 E1.92417
G1 X140.346 Y144.056 E.12157
G1 X127.947 Y131.657 E2.09601
G1 X126.93 Y131.657 E.12157
G1 X140.346 Y145.073 E2.26793
G1 X140.346 Y146.09 E.12157
G1 X125.914 Y131.657 E2.43977
G1 X124.897 Y131.657 E.12157
M73 P13 R7
G1 X140.347 Y147.107 E2.61177
G1 X140.347 Y148.123 E.12145
G1 X135.808 Y143.584 E.7673
G1 X135.85 Y144.001 E.0501
G1 X135.799 Y144.591 E.07079
G1 X140.347 Y149.14 E.76891
G1 X140.348 Y150.157 E.12157
G1 X135.581 Y145.39 E.80585
G1 X135.444 Y145.711 E.04172
G1 X135.241 Y146.067 E.04899
G1 X140.348 Y151.174 E.86332
G1 X140.348 Y152.19 E.12145
G1 X134.798 Y146.64 E.93821
G1 X134.611 Y146.824 E.03136
G1 X134.255 Y147.114 E.05489
G1 X140.348 Y153.207 E1.03
G1 X140.349 Y154.224 E.12157
G1 X133.608 Y147.484 E1.13946
G1 X133.312 Y147.62 E.03894
G1 X132.856 Y147.748 E.05661
G1 X140.349 Y155.241 E1.26667
G1 X140.349 Y156.258 E.12157
M73 P14 R7
G1 X131.589 Y147.497 E1.48093
G10 ; retract
G1 X131.589 Y147.497 F90000
G1 X132.791 Y140.567
G11 ; unretract
G1 F1200
G1 X123.899 Y131.675 E1.50316
G1 X123.757 Y131.761 E.01984
G1 X123.725 Y131.798 E.00585
G1 X123.675 Y131.917 E.01543
G1 X123.65 Y132.106 E.02279
G1 X123.65 Y132.443 E.04028
G1 X131.426 Y140.219 E1.31451
G1 X131.05 Y140.268 E.04532
G1 X130.61 Y140.419 E.05561
G1 X123.65 Y133.459 E1.17657
G1 X123.65 Y134.476 E.12157
G1 X129.932 Y140.758 E1.06195
G1 X129.688 Y140.926 E.03541
G1 X129.36 Y141.203 E.05132
G1 X123.65 Y135.492 E.96534
G1 X123.65 Y136.509 E.12157
G1 X128.897 Y141.756 E.88699
G1 X128.759 Y141.938 E.0273
G1 X128.594 Y142.212 E.03823
G1 X128.512 Y142.387 E.0231
G1 X123.65 Y137.525 E.82191
G1 X123.65 Y138.542 E.12157
G1 X128.253 Y143.145 E.77812
G1 X128.189 Y143.478 E.04053
G1 X128.154 Y144.062 E.06993
G1 X123.65 Y139.558 E.76139
G1 X123.65 Y140.575 E.12157
M73 P15 R7
G1 X128.402 Y145.327 E.80331
G1 X128.562 Y145.725 E.05127
G1 X128.789 Y146.121 E.05456
G1 X128.921 Y146.305 E.02707
G1 X129.274 Y146.72 E.06513
G1 X129.434 Y146.859 E.02533
G1 X129.975 Y147.269 E.08114
G1 X130.206 Y147.403 E.03192
G1 X130.689 Y147.613 E.06296
G1 X140.349 Y157.274 E1.63308
G1 X140.35 Y158.291 E.12157
G1 X123.65 Y141.591 E2.82308
G1 X123.65 Y142.608 E.12157
G1 X139.392 Y158.35 E2.66113
G1 X138.376 Y158.35 E.12145
G1 X123.65 Y143.624 E2.48938
G1 X123.65 Y144.641 E.12157
G1 X137.359 Y158.35 E2.31746
G1 X136.343 Y158.35 E.12145
M73 P16 R7
G1 X123.65 Y145.657 E2.14571
G1 X123.65 Y146.674 E.12157
G1 X135.326 Y158.35 E1.97379
G1 X134.31 Y158.35 E.12145
G1 X123.65 Y147.69 E1.80204
G1 X123.65 Y148.707 E.12157
G1 X133.615 Y158.672 E1.68455
;LAYER_CHANGE
;Z:0.8
;HEIGHT:0.4
G10 ; retract
G1 Z.8 F90000
;LAYER 1
G1 X133.615 Y158.672 Z.8
; stop printing object Revo Nozzle Halter 0.6 OX.stl id:1 copy 0
; printing object Revo Nozzle Halter 0.6 HF.stl id:0 copy 0
G1 X148.338 Y149.254
G11 ; unretract
;TYPE:External perimeter
;WIDTH:0.675
G1 F3000
G1 X148.338 Y132.138 E1.67698
G1 X148.397 Y131.57 E.05595
G1 X148.565 Y131.164 E.04305
G1 X148.926 Y130.734 E.05501
G1 X149.348 Y130.474 E.04856
G1 X149.855 Y130.345 E.05126
G1 X165.907 Y130.34 E1.57274
G1 X166.434 Y130.397 E.05194
G1 X166.814 Y130.559 E.04047
G1 X167.175 Y130.825 E.04393
G1 X167.432 Y131.171 E.04223
G1 X167.605 Y131.57 E.04261
G1 X167.655 Y131.999 E.04232
