; generated by PrusaSlicer 2.7.4 on 2024-06-26 at 10:01:36 UTC


;
;

;
;
; 

; external perimeters extrusion width = 0.68mm
; perimeters extrusion width = 0.68mm
; infill extrusion width = 0.68mm
; solid infill extrusion width = 0.68mm
; top infill extrusion width = 0.60mm
; support material extrusion width = 0.60mm
; first layer extrusion width = 0.60mm

M73 P0 R21

; printing object Shape-Box id:0 copy 0
; stop printing object Shape-Box id:0 copy 0

;TYPE:Custom
M98 P"check-filament.g" F"PETG"
M98 P"revo/check-nozzle.g" S0.6

M140 S85
M116 ; wait for all temps to be reached

T0 ; select first tool
G10 P0 S240 ; set nozzle temperature
M703 ; configure it

G28 ; home all axes
M116 ; wait for all temps to be reached
M98 P"feed.g" ; feed filament into the nozzle
G21 ; set units to millimeters
G90 ; use absolute coordinates
M83 ; use relative distances for extrusion
; Filament gcode
M107
;LAYER_CHANGE
;Z:0.3
;HEIGHT:0.3
G10 ; retract
G1 Z.3 F90000
G1 X100.421 Y120.438
G11 ; unretract
;TYPE:Skirt/Brim
;WIDTH:0.6
G1 F1200
G1 X101.753 Y119.328 E.11583
G1 X105 Y118.464 E.22447
G1 X185 Y118.464 E5.34443
G1 X187.243 Y118.861 E.15217
G1 X189.213 Y120.004 E.15215
G1 X190.672 Y121.753 E.15216
G1 X191.536 Y125 E.22447
G1 X191.536 Y165 E2.67222
G1 X191.139 Y167.243 E.15217
G1 X189.996 Y169.213 E.15215
G1 X188.247 Y170.672 E.15216
G1 X185 Y171.536 E.22447
G1 X105 Y171.536 E5.34443
G1 X102.757 Y171.139 E.15217
G1 X100.787 Y169.996 E.15215
G1 X99.328 Y168.247 E.15216
G1 X98.464 Y165 E.22447
G1 X98.464 Y125 E2.67222
G1 X98.861 Y122.757 E.15217
M73 P1 R21
G1 X100.004 Y120.787 E.15215
G1 X100.352 Y120.496 E.03031
G10 ; retract
G1 X100.352 Y120.496 F90000
; printing object Shape-Box id:0 copy 0
G1 X105.3 Y125.3
G11 ; unretract
;TYPE:External perimeter
;WIDTH:0.6
G1 F1200
G1 X184.7 Y125.3 E5.30434
G1 X184.7 Y145 E1.31607
G1 X184.7 Y164.7 E1.31607
G1 X105.3 Y164.7 E5.30434
G1 X105.3 Y125.39 E2.62612
G1 X105.893 Y125.301 F90000
M73 P2 R21
G1 X105.836 Y125.836
;TYPE:Perimeter
G1 F1200
G1 X184.164 Y125.836 E5.23273
G1 X184.164 Y145 E1.28026
M73 P2 R20
G1 X184.164 Y164.164 E1.28026
G1 X105.836 Y164.164 E5.23273
G1 X105.836 Y125.926 E2.5545
G10 ; retract
G1 X105.836 Y125.926 F90000
G1 X184.004 Y127.081
G11 ; unretract
;TYPE:Solid infill
;WIDTH:0.601051
G1 F1200
M73 P3 R20
G1 X183.16 Y126.237 E.0799
G1 X182.401 Y126.237 E.0508
G1 X183.763 Y127.599 E.12893
G1 X183.763 Y128.358 E.0508
G1 X181.642 Y126.237 E.20078
G1 X180.883 Y126.237 E.0508
G1 X183.763 Y129.117 E.27263
G1 X183.763 Y129.876 E.0508
G1 X180.124 Y126.237 E.34448
G1 X179.365 Y126.237 E.0508
G1 X183.763 Y130.635 E.41633
G1 X183.763 Y131.394 E.0508
G1 X178.606 Y126.237 E.48817
G1 X177.847 Y126.237 E.0508
G1 X183.763 Y132.153 E.56002
G1 X183.763 Y132.912 E.0508
G1 X177.088 Y126.237 E.63187
G1 X176.329 Y126.237 E.0508
G1 X183.763 Y133.671 E.70372
G1 X183.763 Y134.43 E.0508
G1 X175.57 Y126.237 E.77557
G1 X174.811 Y126.237 E.0508
G1 X183.763 Y135.189 E.84742
G1 X183.763 Y135.948 E.0508
G1 X174.052 Y126.237 E.91927
G1 X173.293 Y126.237 E.0508
G1 X183.763 Y136.707 E.99112
G1 X183.763 Y137.466 E.0508
G1 X172.534 Y126.237 E1.06296
G1 X171.775 Y126.237 E.0508
G1 X183.763 Y138.225 E1.13481
G1 X183.763 Y138.984 E.0508
G1 X171.016 Y126.237 E1.20666
G1 X170.257 Y126.237 E.0508
G1 X183.763 Y139.743 E1.27851
G1 X183.763 Y140.502 E.0508
G1 X169.498 Y126.237 E1.35036
G1 X168.739 Y126.237 E.0508
G1 X183.763 Y141.261 E1.42221
G1 X183.763 Y142.02 E.0508
G1 X167.98 Y126.237 E1.49406
G1 X167.221 Y126.237 E.0508
M73 P4 R20
G1 X183.763 Y142.779 E1.56591
G1 X183.763 Y143.537 E.05074
G1 X166.463 Y126.237 E1.63766
G1 X165.704 Y126.237 E.0508
G1 X183.763 Y144.296 E1.70951
G1 X183.763 Y145.055 E.0508
G1 X164.945 Y126.237 E1.78136
G1 X164.186 Y126.237 E.0508
G1 X183.763 Y145.814 E1.85321
G1 X183.763 Y146.573 E.0508
G1 X163.427 Y126.237 E1.92506
G1 X162.668 Y126.237 E.0508
G1 X183.763 Y147.332 E1.9969
G1 X183.763 Y148.091 E.0508
G1 X161.909 Y126.237 E2.06875
G1 X161.15 Y126.237 E.0508
G1 X183.763 Y148.85 E2.1406
G1 X183.763 Y149.609 E.0508
M73 P5 R20
G1 X160.391 Y126.237 E2.21245
G1 X159.632 Y126.237 E.0508
G1 X183.763 Y150.368 E2.2843
G1 X183.763 Y151.127 E.0508
G1 X158.873 Y126.237 E2.35615
G1 X158.114 Y126.237 E.0508
G1 X183.763 Y151.886 E2.428
G1 X183.763 Y152.645 E.0508
G1 X157.355 Y126.237 E2.49985
G1 X156.596 Y126.237 E.0508
G1 X183.763 Y153.404 E2.57169
G1 X183.763 Y154.163 E.0508
G1 X155.837 Y126.237 E2.64354
G1 X155.078 Y126.237 E.0508
M73 P6 R20
G1 X183.763 Y154.922 E2.71539
G1 X183.763 Y155.681 E.0508
G1 X154.319 Y126.237 E2.78724
G1 X153.56 Y126.237 E.0508
G1 X183.763 Y156.44 E2.85909
G1 X183.763 Y157.199 E.0508
G1 X152.801 Y126.237 E2.93094
G1 X152.042 Y126.237 E.0508
G1 X183.763 Y157.958 E3.00279
G1 X183.763 Y158.717 E.0508
G1 X151.283 Y126.237 E3.07464
G1 X150.524 Y126.237 E.0508
M73 P7 R19
G1 X183.763 Y159.476 E3.14648
G1 X183.763 Y160.235 E.0508
G1 X149.765 Y126.237 E3.21833
G1 X149.006 Y126.237 E.0508
G1 X183.763 Y160.994 E3.29018
G1 X183.763 Y161.753 E.0508
G1 X148.247 Y126.237 E3.36203
G1 X147.488 Y126.237 E.0508
G1 X183.763 Y162.512 E3.43388
G1 X183.763 Y163.271 E.0508
M73 P8 R19
G1 X146.729 Y126.237 E3.50573
G1 X145.97 Y126.237 E.0508
G1 X183.496 Y163.763 E3.5523
G1 X182.737 Y163.763 E.0508
G1 X145.211 Y126.237 E3.5523
G1 X144.453 Y126.237 E.05074
G1 X181.978 Y163.763 E3.55225
G1 X181.219 Y163.763 E.0508
G1 X143.694 Y126.237 E3.55225
G1 X142.935 Y126.237 E.0508
M73 P9 R19
G1 X180.46 Y163.763 E3.55225
G1 X179.701 Y163.763 E.0508
G1 X142.176 Y126.237 E3.55225
G1 X141.417 Y126.237 E.0508
G1 X178.942 Y163.763 E3.55225
G1 X178.183 Y163.763 E.0508
G1 X140.658 Y126.237 E3.55225
G1 X139.899 Y126.237 E.0508
G1 X177.424 Y163.763 E3.55225
G1 X176.665 Y163.763 E.0508
M73 P10 R19
G1 X139.14 Y126.237 E3.55225
G1 X138.381 Y126.237 E.0508
G1 X175.906 Y163.763 E3.55225
G1 X175.147 Y163.763 E.0508
G1 X137.622 Y126.237 E3.55225
G1 X136.863 Y126.237 E.0508
G1 X174.388 Y163.763 E3.55225
G1 X173.629 Y163.763 E.0508
G1 X136.104 Y126.237 E3.55225
G1 X135.345 Y126.237 E.0508
M73 P11 R19
G1 X172.87 Y163.763 E3.55225
G1 X172.111 Y163.763 E.0508
G1 X134.586 Y126.237 E3.55225
G1 X133.827 Y126.237 E.0508
M73 P11 R18
G1 X171.352 Y163.763 E3.55225
G1 X170.593 Y163.763 E.0508
G1 X133.068 Y126.237 E3.55225
G1 X132.309 Y126.237 E.0508
G1 X169.834 Y163.763 E3.55225
G1 X169.075 Y163.763 E.0508
M73 P12 R18
G1 X131.55 Y126.237 E3.55225
G1 X130.791 Y126.237 E.0508
G1 X168.316 Y163.763 E3.55225
G1 X167.557 Y163.763 E.0508
G1 X130.032 Y126.237 E3.55225
G1 X129.273 Y126.237 E.0508
G1 X166.799 Y163.763 E3.5523
G1 X166.04 Y163.763 E.0508
M73 P13 R18
G1 X128.514 Y126.237 E3.5523
G1 X127.755 Y126.237 E.0508
G1 X165.281 Y163.763 E3.5523
G1 X164.522 Y163.763 E.0508
G1 X126.996 Y126.237 E3.5523
G1 X126.237 Y126.237 E.0508
G1 X163.763 Y163.763 E3.5523
G1 X163.004 Y163.763 E.0508
G1 X125.478 Y126.237 E3.5523
G1 X124.719 Y126.237 E.0508
M73 P14 R18
G1 X162.245 Y163.763 E3.5523
G1 X161.486 Y163.763 E.0508
G1 X123.96 Y126.237 E3.5523
G1 X123.201 Y126.237 E.0508
G1 X160.727 Y163.763 E3.5523
G1 X159.968 Y163.763 E.0508
G1 X122.442 Y126.237 E3.5523
G1 X121.684 Y126.237 E.05074
G1 X159.209 Y163.763 E3.55225
G1 X158.45 Y163.763 E.0508
M73 P15 R18
G1 X120.925 Y126.237 E3.55225
G1 X120.166 Y126.237 E.0508
G1 X157.691 Y163.763 E3.55225
G1 X156.932 Y163.763 E.0508
G1 X119.407 Y126.237 E3.55225
G1 X118.648 Y126.237 E.0508
G1 X156.173 Y163.763 E3.55225
G1 X155.414 Y163.763 E.0508
G1 X117.889 Y126.237 E3.55225
G1 X117.13 Y126.237 E.0508
M73 P16 R18
G1 X154.655 Y163.763 E3.55225
G1 X153.896 Y163.763 E.0508
M73 P16 R17
G1 X116.371 Y126.237 E3.55225
G1 X115.612 Y126.237 E.0508
G1 X153.137 Y163.763 E3.55225
G1 X152.378 Y163.763 E.0508
G1 X114.853 Y126.237 E3.55225
G1 X114.094 Y126.237 E.0508
G1 X151.619 Y163.763 E3.55225
M73 P17 R17
G1 X150.86 Y163.763 E.0508
G1 X113.335 Y126.237 E3.55225
G1 X112.576 Y126.237 E.0508
G1 X150.101 Y163.763 E3.55225
G1 X149.342 Y163.763 E.0508
G1 X111.817 Y126.237 E3.55225
G1 X111.058 Y126.237 E.0508
G1 X148.583 Y163.763 E3.55225
G1 X147.824 Y163.763 E.0508
M73 P18 R17
G1 X110.299 Y126.237 E3.55225
G1 X109.54 Y126.237 E.0508
G1 X147.065 Y163.763 E3.55225
G1 X146.306 Y163.763 E.0508
G1 X108.781 Y126.237 E3.55225
G1 X108.022 Y126.237 E.0508
G1 X145.547 Y163.763 E3.55225
G1 X144.789 Y163.763 E.05074
G1 X107.263 Y126.237 E3.5523
G1 X106.504 Y126.237 E.0508
M73 P19 R17
G1 X144.03 Y163.763 E3.5523
G1 X143.271 Y163.763 E.0508
G1 X106.237 Y126.729 E3.50573
G1 X106.237 Y127.488 E.0508
G1 X142.512 Y163.763 E3.43388
G1 X141.753 Y163.763 E.0508
G1 X106.237 Y128.247 E3.36203
G1 X106.237 Y129.006 E.0508
G1 X140.994 Y163.763 E3.29018
G1 X140.235 Y163.763 E.0508
M73 P20 R17
G1 X106.237 Y129.765 E3.21833
G1 X106.237 Y130.524 E.0508
G1 X139.476 Y163.763 E3.14648
G1 X138.717 Y163.763 E.0508
G1 X106.237 Y131.283 E3.07464
G1 X106.237 Y132.042 E.0508
G1 X137.958 Y163.763 E3.00279
G1 X137.199 Y163.763 E.0508
G1 X106.237 Y132.801 E2.93094
G1 X106.237 Y133.56 E.0508
M73 P21 R16
G1 X136.44 Y163.763 E2.85909
G1 X135.681 Y163.763 E.0508
G1 X106.237 Y134.319 E2.78724
G1 X106.237 Y135.078 E.0508
G1 X134.922 Y163.763 E2.71539
G1 X134.163 Y163.763 E.0508
G1 X106.237 Y135.837 E2.64354
G1 X106.237 Y136.596 E.0508
G1 X133.404 Y163.763 E2.57169
G1 X132.645 Y163.763 E.0508
G1 X106.237 Y137.355 E2.49985
G1 X106.237 Y138.114 E.0508
G1 X131.886 Y163.763 E2.428
G1 X131.127 Y163.763 E.0508
M73 P22 R16
G1 X106.237 Y138.873 E2.35615
G1 X106.237 Y139.632 E.0508
G1 X130.368 Y163.763 E2.2843
G1 X129.609 Y163.763 E.0508
G1 X106.237 Y140.391 E2.21245
G1 X106.237 Y141.15 E.0508
G1 X128.85 Y163.763 E2.1406
G1 X128.091 Y163.763 E.0508
G1 X106.237 Y141.909 E2.06875
G1 X106.237 Y142.668 E.0508
G1 X127.332 Y163.763 E1.9969
G1 X126.573 Y163.763 E.0508
G1 X106.237 Y143.427 E1.92506
G1 X106.237 Y144.186 E.0508
G1 X125.814 Y163.763 E1.85321
G1 X125.055 Y163.763 E.0508
M73 P23 R16
G1 X106.237 Y144.945 E1.78136
G1 X106.237 Y145.704 E.0508
G1 X124.296 Y163.763 E1.70951
G1 X123.537 Y163.763 E.0508
G1 X106.237 Y146.463 E1.63766
G1 X106.237 Y147.222 E.0508
G1 X122.778 Y163.763 E1.56581
G1 X122.02 Y163.763 E.05074
G1 X106.237 Y147.98 E1.49406
G1 X106.237 Y148.739 E.0508
G1 X121.261 Y163.763 E1.42221
G1 X120.502 Y163.763 E.0508
G1 X106.237 Y149.498 E1.35036
G1 X106.237 Y150.257 E.0508
G1 X119.743 Y163.763 E1.27851
G1 X118.984 Y163.763 E.0508
G1 X106.237 Y151.016 E1.20666
G1 X106.237 Y151.775 E.0508
G1 X118.225 Y163.763 E1.13481
G1 X117.466 Y163.763 E.0508
G1 X106.237 Y152.534 E1.06296
G1 X106.237 Y153.293 E.0508
M73 P24 R16
G1 X116.707 Y163.763 E.99112
G1 X115.948 Y163.763 E.0508
G1 X106.237 Y154.052 E.91927
G1 X106.237 Y154.811 E.0508
G1 X115.189 Y163.763 E.84742
G1 X114.43 Y163.763 E.0508
G1 X106.237 Y155.57 E.77557
G1 X106.237 Y156.329 E.0508
G1 X113.671 Y163.763 E.70372
G1 X112.912 Y163.763 E.0508
G1 X106.237 Y157.088 E.63187
G1 X106.237 Y157.847 E.0508
G1 X112.153 Y163.763 E.56002
G1 X111.394 Y163.763 E.0508
G1 X106.237 Y158.606 E.48817
G1 X106.237 Y159.365 E.0508
G1 X110.635 Y163.763 E.41633
G1 X109.876 Y163.763 E.0508
G1 X106.237 Y160.124 E.34448
G1 X106.237 Y160.883 E.0508
G1 X109.117 Y163.763 E.27263
G1 X108.358 Y163.763 E.0508
G1 X106.237 Y161.642 E.20078
G1 X106.237 Y162.401 E.0508
G1 X107.599 Y163.763 E.12893
G1 X106.84 Y163.763 E.0508
G1 X105.996 Y162.919 E.0799
;LAYER_CHANGE
;Z:0.6
;HEIGHT:0.3
G10 ; retract
G1 Z.6 F90000
;LAYER 1
G1 X105.996 Y162.919 Z.6
G1 X105.338 Y164.663
G11 ; unretract
;TYPE:External perimeter
;WIDTH:0.675
G1 F3599.997
G1 X105.338 Y125.338 E2.99498
G1 X184.663 Y125.338 E6.04137
G1 X184.663 Y145 E1.49745
G1 X184.663 Y164.663 E1.49753
G1 X105.428 Y164.663 E6.03452
G1 X105.338 Y164.069 F90000
G1 X105.948 Y164.052
;TYPE:Perimeter
G1 F4800
G1 X105.948 Y125.948 E2.90199
G1 X184.052 Y125.948 E5.94838
G1 X184.052 Y145 E1.451
G1 X184.052 Y164.052 E1.451
G1 X106.038 Y164.052 E5.94153
G10 ; retract
G1 X106.038 Y164.052 F90000
M73 P25 R16
G1 X106.572 Y126.456
G11 ; unretract
;TYPE:Solid infill
;WIDTH:0.823153
G1 F4200
G1 X106.505 Y126.389 E.00897
G1 X106.413 Y126.413 E.009
G1 X106.389 Y126.505 E.009
G1 X106.456 Y126.572 E.00897
G1 X106.547 Y126.547 E.00893
;WIDTH:0.675
G1 X106.406 Y127.523 E.0751
G1 X107.523 Y126.406 E.12031
G1 X107.616 Y126.334 E.00896
;WIDTH:0.64146
G1 X107.709 Y126.262 E.00847
;WIDTH:0.60792
G1 X107.802 Y126.191 E.00793
;WIDTH:0.574381
G1 X107.74 Y126.207 E.00407
G1 X107.695 Y126.162 E.00405
G1 X107.712 Y126.1 E.00409
G1 X107.773 Y126.084 E.00401
G1 X107.819 Y126.129 E.00409
;WIDTH:0.675
G1 X108.386 Y126.406 E.04806
G1 X106.406 Y128.386 E.21326
G1 X106.406 Y129.25 E.0658
G1 X109.25 Y126.406 E.30632
G1 X110.113 Y126.406 E.06573
G1 X106.406 Y130.113 E.39927
G1 X106.406 Y130.977 E.0658
G1 X110.977 Y126.406 E.49232
G1 X111.84 Y126.406 E.06573
G1 X106.406 Y131.84 E.58528
G1 X106.406 Y132.704 E.0658
G1 X112.704 Y126.406 E.67833
G1 X113.567 Y126.406 E.06573
G1 X106.406 Y133.567 E.77128
G1 X106.406 Y134.431 E.0658
G1 X114.431 Y126.406 E.86434
G1 X115.294 Y126.406 E.06573
G1 X106.406 Y135.294 E.95729
G1 X106.406 Y136.158 E.0658
G1 X116.158 Y126.406 E1.05035
G1 X117.022 Y126.406 E.0658
G1 X106.406 Y137.022 E1.14341
G1 X106.406 Y137.885 E.06573
G1 X117.885 Y126.406 E1.23636
G1 X118.749 Y126.406 E.0658
G1 X106.406 Y138.749 E1.32942
G1 X106.406 Y139.612 E.06573
G1 X119.612 Y126.406 E1.42237
G1 X120.476 Y126.406 E.0658
G1 X106.406 Y140.476 E1.51543
G1 X106.406 Y141.339 E.06573
G1 X121.339 Y126.406 E1.60838
G1 X122.203 Y126.406 E.0658
G1 X106.406 Y142.203 E1.70143
G1 X106.406 Y143.066 E.06573
G1 X123.066 Y126.406 E1.79438
G1 X123.93 Y126.406 E.0658
G1 X106.406 Y143.93 E1.88744
G1 X106.406 Y144.793 E.06573
G1 X124.793 Y126.406 E1.98039
G1 X125.657 Y126.406 E.0658
G1 X106.406 Y145.657 E2.07345
G1 X106.406 Y146.521 E.0658
G1 X126.521 Y126.406 E2.16651
G1 X127.384 Y126.406 E.06573
G1 X106.406 Y147.384 E2.25946
G1 X106.406 Y148.248 E.0658
M73 P25 R15
G1 X128.248 Y126.406 E2.35252
G1 X129.111 Y126.406 E.06573
G1 X106.406 Y149.111 E2.44547
G1 X106.406 Y149.975 E.0658
G1 X129.975 Y126.406 E2.53853
G1 X130.838 Y126.406 E.06573
G1 X106.406 Y150.838 E2.63148
G1 X106.406 Y151.702 E.0658
G1 X131.702 Y126.406 E2.72454
G1 X132.565 Y126.406 E.06573
G1 X106.406 Y152.565 E2.81749
G1 X106.406 Y153.429 E.0658
G1 X133.429 Y126.406 E2.91054
G1 X134.292 Y126.406 E.06573
G1 X106.406 Y154.292 E3.00349
G1 X106.406 Y155.156 E.0658
G1 X135.156 Y126.406 E3.09655
G1 X136.02 Y126.406 E.0658
G1 X106.406 Y156.02 E3.18961
G1 X106.406 Y156.883 E.06573
G1 X136.883 Y126.406 E3.28256
G1 X137.747 Y126.406 E.0658
M73 P26 R15
G1 X106.406 Y157.747 E3.37562
G1 X106.406 Y158.61 E.06573
G1 X138.61 Y126.406 E3.46857
G1 X139.474 Y126.406 E.0658
G1 X106.406 Y159.474 E3.56163
G1 X106.406 Y160.337 E.06573
G1 X140.337 Y126.406 E3.65458
G1 X141.201 Y126.406 E.0658
G1 X106.406 Y161.201 E3.74764
G1 X106.406 Y162.064 E.06573
G1 X142.064 Y126.406 E3.84059
G1 X142.928 Y126.406 E.0658
G1 X106.406 Y162.928 E3.93364
G1 X106.28 Y163.81 E.06785
;WIDTH:0.574381
G1 X106.218 Y163.827 E.00409
G1 X106.173 Y163.782 E.00405
G1 X106.19 Y163.72 E.00409
G1 X106.251 Y163.704 E.00401
G1 X106.296 Y163.749 E.00405
;WIDTH:0.60792
G1 X106.399 Y163.697 E.00782
;WIDTH:0.64146
G1 X106.501 Y163.646 E.00821
;WIDTH:0.675
G1 X106.604 Y163.594 E.00879
G1 X143.791 Y126.406 E4.00532
G1 X144.655 Y126.406 E.0658
G1 X107.467 Y163.594 E4.00538
G1 X108.331 Y163.594 E.0658
G1 X145.519 Y126.406 E4.00538
G1 X146.382 Y126.406 E.06573
G1 X109.194 Y163.594 E4.00538
G1 X110.058 Y163.594 E.0658
G1 X147.246 Y126.406 E4.00538
G1 X148.109 Y126.406 E.06573
G1 X110.921 Y163.594 E4.00538
G1 X111.785 Y163.594 E.0658
G1 X148.973 Y126.406 E4.00538
G1 X149.836 Y126.406 E.06573
G1 X112.648 Y163.594 E4.00538
G1 X113.512 Y163.594 E.0658
G1 X150.7 Y126.406 E4.00538
G1 X151.563 Y126.406 E.06573
G1 X114.376 Y163.594 E4.00532
G1 X115.239 Y163.594 E.06573
M73 P27 R15
G1 X152.427 Y126.406 E4.00538
G1 X153.29 Y126.406 E.06573
G1 X116.103 Y163.594 E4.00532
G1 X116.966 Y163.594 E.06573
G1 X154.154 Y126.406 E4.00538
G1 X155.018 Y126.406 E.0658
G1 X117.83 Y163.594 E4.00538
G1 X118.693 Y163.594 E.06573
G1 X155.881 Y126.406 E4.00538
G1 X156.745 Y126.406 E.0658
