; generated by PrusaSlicer 2.8.0 on 2024-07-04 at 19:15:14 UTC


;
;

;
;
; 

; external perimeters extrusion width = 0.68mm
; perimeters extrusion width = 0.68mm
; infill extrusion width = 0.68mm
; solid infill extrusion width = 0.68mm
; top infill extrusion width = 0.60mm
; first layer extrusion width = 0.60mm

M73 P0 R29

; printing object Titan Halter.stl id:0 copy 0
; stop printing object Titan Halter.stl id:0 copy 0

;TYPE:Custom
M98 P"start-print.g" F"PETG" S0.6 T240 B85
G21 ; set units to millimeters
G90 ; use absolute coordinates
M83 ; use relative distances for extrusion
; Filament gcode
M107
;LAYER_CHANGE
;Z:0.3
;HEIGHT:0.3
G10 ; retract
G1 Z.3 F90000
G1 X84.508 Y123.492
G11 ; unretract
;TYPE:Skirt/Brim
;WIDTH:0.6
G1 F1200
G1 X87.5 Y122.732 E.20623
G1 X202.5 Y122.732 E7.68262
G1 X204.695 Y123.129 E.14902
G1 X206.612 Y124.269 E.149
G1 X208.008 Y126.008 E.14898
G1 X208.768 Y129 E.20623
G1 X208.768 Y133 E.26722
G1 X206.243 Y161.557 E1.91521
G1 X205.653 Y163.708 E.14901
G1 X204.346 Y165.516 E.14904
G1 X202.49 Y166.752 E.14897
G1 X200 Y167.268 E.16988
G1 X90 Y167.268 E7.3486
G1 X87.805 Y166.871 E.14902
M73 P0 R28
G1 X85.888 Y165.731 E.149
G1 X84.492 Y163.992 E.14898
G1 X83.757 Y161.557 E.16992
G1 X81.257 Y133.557 E1.87799
G1 X81.232 Y129 E.30444
G1 X81.629 Y126.805 E.14902
G1 X82.769 Y124.888 E.149
G1 X84.438 Y123.549 E.14295
G10 ; retract
G1 X84.438 Y123.549 F90000
; printing object Titan Halter.stl id:0 copy 0
G1 X87.8 Y129.3
G11 ; unretract
;TYPE:External perimeter
;WIDTH:0.6
G1 F1200
G1 X101.444 Y129.3 E.91149
G1 X101.444 Y132.7 E.22714
M73 P1 R28
G1 X92.968 Y132.7 E.56624
G1 X92.922 Y132.704 E.00308
G1 X92.771 Y132.786 E.01148
G1 X92.7 Y132.968 E.01305
G1 X92.7 Y158.032 E1.67441
G1 X92.778 Y158.222 E.01372
G1 X92.968 Y158.3 E.01372
G1 X197.032 Y158.3 E6.95203
G1 X197.222 Y158.222 E.01372
G1 X197.3 Y158.032 E.01372
G1 X197.3 Y132.968 E1.67441
G1 X197.229 Y132.786 E.01305
G1 X197.032 Y132.7 E.01436
G1 X188.556 Y132.7 E.56624
G1 X188.556 Y129.3 E.22714
G1 X202.2 Y129.3 E.91149
G1 X202.2 Y131.828 E.16888
G1 X202.2 Y132.876 E.07001
G1 X199.778 Y135.297 E.22878
G1 X199.7 Y135.487 E.01372
G1 X199.7 Y160.7 E1.68436
G1 X90.3 Y160.7 E7.30851
G1 X90.3 Y135.487 E1.68436
G1 X90.222 Y135.297 E.01372
M73 P2 R28
G1 X87.8 Y132.876 E.22878
G1 X87.8 Y129.39 E.23288
G1 X88.393 Y129.301 F90000
G1 X88.336 Y129.836
;TYPE:Perimeter
G1 F1200
G1 X100.908 Y129.836 E.83988
G1 X100.908 Y132.164 E.15552
G1 X92.968 Y132.164 E.53043
G1 X92.632 Y132.238 E.02298
G1 X92.377 Y132.423 E.02105
G1 X92.23 Y132.649 E.01801
G1 X92.164 Y132.968 E.02176
G1 X92.164 Y158.032 E1.67441
G1 X92.23 Y158.351 E.02176
G1 X92.4 Y158.6 E.02014
G1 X92.649 Y158.77 E.02014
G1 X92.968 Y158.836 E.02176
G1 X197.032 Y158.836 E6.95203
G1 X197.351 Y158.77 E.02176
G1 X197.6 Y158.6 E.02014
G1 X197.77 Y158.351 E.02014
G1 X197.836 Y158.032 E.02176
G1 X197.836 Y132.968 E1.67441
G1 X197.77 Y132.649 E.02176
G1 X197.623 Y132.423 E.01801
G1 X197.368 Y132.238 E.02105
G1 X197.032 Y132.164 E.02298
G1 X189.092 Y132.164 E.53043
G1 X189.092 Y129.836 E.15552
G1 X201.664 Y129.836 E.83988
G1 X201.664 Y131.828 E.13308
G1 X201.664 Y132.654 E.05518
G1 X199.4 Y134.919 E.21394
G1 X199.23 Y135.168 E.02014
G1 X199.164 Y135.487 E.02176
G1 X199.164 Y160.164 E1.64856
G1 X90.836 Y160.164 E7.23689
G1 X90.836 Y135.487 E1.64856
M73 P3 R28
G1 X90.77 Y135.168 E.02176
G1 X90.6 Y134.919 E.02014
G1 X88.336 Y132.654 E.21394
G1 X88.336 Y129.926 E.18225
G10 ; retract
G1 X88.336 Y129.926 F90000
G1 X200.417 Y129.996
G11 ; unretract
;TYPE:Solid infill
;WIDTH:0.601865
G1 F1200
G1 X201.263 Y130.842 E.08021
G1 X201.263 Y131.602 E.05095
G1 X199.898 Y130.237 E.12941
G1 X199.138 Y130.237 E.05095
G1 X201.263 Y132.362 E.20146
G1 X201.263 Y132.487 E.00838
G1 X200.945 Y132.805 E.03015
G1 X198.378 Y130.237 E.24341
G1 X197.618 Y130.237 E.05095
G1 X200.565 Y133.185 E.27944
G1 X200.185 Y133.565 E.03603
G1 X196.857 Y130.237 E.31551
G1 X196.097 Y130.237 E.05095
G1 X199.805 Y133.945 E.35154
G1 X199.425 Y134.325 E.03603
G1 X198.237 Y133.137 E.11263
G1 X198.237 Y132.954 E.01227
G1 X198.142 Y132.491 E.03169
G1 X197.919 Y132.148 E.02743
G1 X197.536 Y131.87 E.03173
G1 X197.047 Y131.763 E.03356
G1 X196.863 Y131.763 E.01233
G1 X195.337 Y130.237 E.14467
G1 X194.577 Y130.237 E.05095
G1 X196.102 Y131.763 E.14463
G1 X195.342 Y131.763 E.05095
G1 X193.817 Y130.237 E.14463
G1 X193.057 Y130.237 E.05095
G1 X194.582 Y131.763 E.14463
G1 X193.822 Y131.763 E.05095
G1 X192.297 Y130.237 E.14463
G1 X191.537 Y130.237 E.05095
G1 X193.062 Y131.763 E.14463
G1 X192.302 Y131.763 E.05095
G1 X190.777 Y130.237 E.14463
G1 X190.016 Y130.237 E.05102
G1 X191.542 Y131.763 E.14467
G1 X190.782 Y131.763 E.05095
G1 X189.493 Y130.475 E.12216
G1 X189.493 Y131.235 E.05095
G1 X190.263 Y132.004 E.07295
G10 ; retract
G1 X190.263 Y132.004 F90000
G1 X197.996 Y133.657
G11 ; unretract
G1 F1200
G1 X199.057 Y134.717 E.10054
G1 X198.859 Y135.008 E.0236
G1 X198.812 Y135.233 E.01541
G1 X198.237 Y134.658 E.05451
G1 X198.237 Y135.418 E.05095
G1 X198.763 Y135.943 E.04982
G1 X198.763 Y136.703 E.05095
G1 X198.237 Y136.178 E.04982
G1 X198.237 Y136.938 E.05095
G1 X198.763 Y137.463 E.04982
G1 X198.763 Y138.223 E.05095
G1 X198.237 Y137.698 E.04982
G1 X198.237 Y138.458 E.05095
G1 X198.763 Y138.984 E.04987
G1 X198.763 Y139.744 E.05095
G1 X198.237 Y139.218 E.04987
G1 X198.237 Y139.979 E.05102
G1 X198.763 Y140.504 E.04982
G1 X198.763 Y141.264 E.05095
G1 X198.237 Y140.739 E.04982
G1 X198.237 Y141.499 E.05095
G1 X198.763 Y142.024 E.04982
G1 X198.763 Y142.784 E.05095
G1 X198.237 Y142.259 E.04982
G1 X198.237 Y143.019 E.05095
G1 X198.763 Y143.544 E.04982
G1 X198.763 Y144.304 E.05095
G1 X198.237 Y143.779 E.04982
G1 X198.237 Y144.539 E.05095
G1 X198.763 Y145.065 E.04987
G1 X198.763 Y145.825 E.05095
G1 X198.237 Y145.299 E.04987
G1 X198.237 Y146.059 E.05095
G1 X198.763 Y146.585 E.04987
G1 X198.763 Y147.345 E.05095
G1 X198.237 Y146.82 E.04982
G1 X198.237 Y147.58 E.05095
G1 X198.763 Y148.105 E.04982
G1 X198.763 Y148.865 E.05095
G1 X198.237 Y148.34 E.04982
G1 X198.237 Y149.1 E.05095
G1 X198.763 Y149.625 E.04982
G1 X198.763 Y150.385 E.05095
G1 X198.237 Y149.86 E.04982
G1 X198.237 Y150.62 E.05095
G1 X198.763 Y151.145 E.04982
G1 X198.763 Y151.906 E.05102
G1 X198.237 Y151.38 E.04987
G1 X198.237 Y152.14 E.05095
G1 X198.763 Y152.666 E.04987
G1 X198.763 Y153.426 E.05095
G1 X198.237 Y152.9 E.04987
G1 X198.237 Y153.661 E.05102
G1 X198.763 Y154.186 E.04982
G1 X198.763 Y154.946 E.05095
G1 X198.237 Y154.421 E.04982
G1 X198.237 Y155.181 E.05095
G1 X198.763 Y155.706 E.04982
G1 X198.763 Y156.466 E.05095
G1 X198.237 Y155.941 E.04982
G1 X198.237 Y156.701 E.05095
G1 X198.763 Y157.226 E.04982
G1 X198.763 Y157.987 E.05102
G1 X198.237 Y157.461 E.04987
G1 X198.237 Y158.038 E.03868
G1 X198.223 Y158.207 E.01137
G1 X198.763 Y158.747 E.0512
G1 X198.763 Y159.507 E.05095
G1 X197.99 Y158.734 E.07329
G1 X197.886 Y158.886 E.01235
G1 X197.586 Y159.09 E.02432
G1 X198.258 Y159.763 E.06376
G1 X197.498 Y159.763 E.05095
G1 X196.973 Y159.237 E.04982
G1 X196.213 Y159.237 E.05095
G1 X196.738 Y159.763 E.04982
G1 X195.978 Y159.763 E.05095
G1 X195.453 Y159.237 E.04982
G1 X194.693 Y159.237 E.05095
G1 X195.218 Y159.763 E.04982
G1 X194.458 Y159.763 E.05095
G1 X193.933 Y159.237 E.04982
G1 X193.172 Y159.237 E.05102
G1 X193.698 Y159.763 E.04987
G1 X192.938 Y159.763 E.05095
G1 X192.412 Y159.237 E.04987
G1 X191.652 Y159.237 E.05095
G1 X192.178 Y159.763 E.04987
G1 X191.417 Y159.763 E.05102
G1 X190.892 Y159.237 E.04982
G1 X190.132 Y159.237 E.05095
G1 X190.657 Y159.763 E.04982
G1 X189.897 Y159.763 E.05095
G1 X189.372 Y159.237 E.04982
G1 X188.612 Y159.237 E.05095
G1 X189.137 Y159.763 E.04982
G1 X188.377 Y159.763 E.05095
G1 X187.852 Y159.237 E.04982
G1 X187.091 Y159.237 E.05102
G1 X187.617 Y159.763 E.04987
G1 X186.857 Y159.763 E.05095
G1 X186.331 Y159.237 E.04987
G1 X185.571 Y159.237 E.05095
G1 X186.097 Y159.763 E.04987
G1 X185.336 Y159.763 E.05102
G1 X184.811 Y159.237 E.04982
G1 X184.051 Y159.237 E.05095
G1 X184.576 Y159.763 E.04982
G1 X183.816 Y159.763 E.05095
G1 X183.291 Y159.237 E.04982
G1 X182.531 Y159.237 E.05095
G1 X183.056 Y159.763 E.04982
G1 X182.296 Y159.763 E.05095
G1 X181.771 Y159.237 E.04982
G1 X181.011 Y159.237 E.05095
G1 X181.536 Y159.763 E.04982
G1 X180.776 Y159.763 E.05095
G1 X180.25 Y159.237 E.04987
G1 X179.49 Y159.237 E.05095
G1 X180.016 Y159.763 E.04987
G1 X179.256 Y159.763 E.05095
G1 X178.73 Y159.237 E.04987
G1 X177.97 Y159.237 E.05095
G1 X178.495 Y159.763 E.04982
G1 X177.735 Y159.763 E.05095
G1 X177.21 Y159.237 E.04982
G1 X176.45 Y159.237 E.05095
G1 X176.975 Y159.763 E.04982
G1 X176.215 Y159.763 E.05095
G1 X175.69 Y159.237 E.04982
G1 X174.93 Y159.237 E.05095
G1 X175.455 Y159.763 E.04982
G1 X174.695 Y159.763 E.05095
G1 X174.169 Y159.237 E.04987
G1 X173.409 Y159.237 E.05095
G1 X173.935 Y159.763 E.04987
G1 X173.175 Y159.763 E.05095
G1 X172.649 Y159.237 E.04987
G1 X171.889 Y159.237 E.05095
G1 X172.414 Y159.763 E.04982
G1 X171.654 Y159.763 E.05095
G1 X171.129 Y159.237 E.04982
G1 X170.369 Y159.237 E.05095
G1 X170.894 Y159.763 E.04982
G1 X170.134 Y159.763 E.05095
G1 X169.609 Y159.237 E.04982
G1 X168.849 Y159.237 E.05095
G1 X169.374 Y159.763 E.04982
G1 X168.614 Y159.763 E.05095
G1 X168.089 Y159.237 E.04982
G1 X167.328 Y159.237 E.05102
G1 X167.854 Y159.763 E.04987
G1 X167.094 Y159.763 E.05095
G1 X166.568 Y159.237 E.04987
G1 X165.808 Y159.237 E.05095
G1 X166.334 Y159.763 E.04987
G1 X165.573 Y159.763 E.05102
G1 X165.048 Y159.237 E.04982
G1 X164.288 Y159.237 E.05095
G1 X164.813 Y159.763 E.04982
G1 X164.053 Y159.763 E.05095
G1 X163.528 Y159.237 E.04982
G1 X162.768 Y159.237 E.05095
G1 X163.293 Y159.763 E.04982
G1 X162.533 Y159.763 E.05095
G1 X162.008 Y159.237 E.04982
G1 X161.247 Y159.237 E.05102
G1 X161.773 Y159.763 E.04987
G1 X161.013 Y159.763 E.05095
G1 X160.487 Y159.237 E.04987
G1 X159.727 Y159.237 E.05095
G1 X160.253 Y159.763 E.04987
G1 X159.492 Y159.763 E.05102
G1 X158.967 Y159.237 E.04982
G1 X158.207 Y159.237 E.05095
G1 X158.732 Y159.763 E.04982
G1 X157.972 Y159.763 E.05095
G1 X157.447 Y159.237 E.04982
G1 X156.687 Y159.237 E.05095
G1 X157.212 Y159.763 E.04982
G1 X156.452 Y159.763 E.05095
G1 X155.927 Y159.237 E.04982
G1 X155.167 Y159.237 E.05095
G1 X155.692 Y159.763 E.04982
G1 X154.932 Y159.763 E.05095
G1 X154.406 Y159.237 E.04987
G1 X153.646 Y159.237 E.05095
G1 X154.172 Y159.763 E.04987
G1 X153.412 Y159.763 E.05095
G1 X152.886 Y159.237 E.04987
G1 X152.126 Y159.237 E.05095
G1 X152.651 Y159.763 E.04982
G1 X151.891 Y159.763 E.05095
G1 X151.366 Y159.237 E.04982
G1 X150.606 Y159.237 E.05095
G1 X151.131 Y159.763 E.04982
G1 X150.371 Y159.763 E.05095
G1 X149.846 Y159.237 E.04982
G1 X149.086 Y159.237 E.05095
G1 X149.611 Y159.763 E.04982
G1 X148.851 Y159.763 E.05095
G1 X148.326 Y159.237 E.04982
G1 X147.565 Y159.237 E.05102
G1 X148.091 Y159.763 E.04987
G1 X147.331 Y159.763 E.05095
G1 X146.805 Y159.237 E.04987
G1 X146.045 Y159.237 E.05095
G1 X146.57 Y159.763 E.04982
G1 X145.81 Y159.763 E.05095
G1 X145.285 Y159.237 E.04982
G1 X144.525 Y159.237 E.05095
G1 X145.05 Y159.763 E.04982
G1 X144.29 Y159.763 E.05095
G1 X143.765 Y159.237 E.04982
G1 X143.005 Y159.237 E.05095
G1 X143.53 Y159.763 E.04982
G1 X142.77 Y159.763 E.05095
G1 X142.245 Y159.237 E.04982
G1 X141.484 Y159.237 E.05102
G1 X142.01 Y159.763 E.04987
G1 X141.25 Y159.763 E.05095
G1 X140.724 Y159.237 E.04987
G1 X139.964 Y159.237 E.05095
G1 X140.49 Y159.763 E.04987
G1 X139.729 Y159.763 E.05102
G1 X139.204 Y159.237 E.04982
G1 X138.444 Y159.237 E.05095
G1 X138.969 Y159.763 E.04982
G1 X138.209 Y159.763 E.05095
G1 X137.684 Y159.237 E.04982
G1 X136.924 Y159.237 E.05095
G1 X137.449 Y159.763 E.04982
G1 X136.689 Y159.763 E.05095
G1 X136.164 Y159.237 E.04982
G1 X135.404 Y159.237 E.05095
G1 X135.929 Y159.763 E.04982
G1 X135.169 Y159.763 E.05095
G1 X134.643 Y159.237 E.04987
G1 X133.883 Y159.237 E.05095
G1 X134.409 Y159.763 E.04987
G1 X133.648 Y159.763 E.05102
G1 X133.123 Y159.237 E.04982
G1 X132.363 Y159.237 E.05095
G1 X132.888 Y159.763 E.04982
G1 X132.128 Y159.763 E.05095
G1 X131.603 Y159.237 E.04982
G1 X130.843 Y159.237 E.05095
G1 X131.368 Y159.763 E.04982
G1 X130.608 Y159.763 E.05095
G1 X130.083 Y159.237 E.04982
G1 X129.323 Y159.237 E.05095
G1 X129.848 Y159.763 E.04982
G1 X129.088 Y159.763 E.05095
G1 X128.562 Y159.237 E.04987
G1 X127.802 Y159.237 E.05095
G1 X128.328 Y159.763 E.04987
G1 X127.568 Y159.763 E.05095
G1 X127.042 Y159.237 E.04987
G1 X126.282 Y159.237 E.05095
G1 X126.807 Y159.763 E.04982
G1 X126.047 Y159.763 E.05095
G1 X125.522 Y159.237 E.04982
G1 X124.762 Y159.237 E.05095
G1 X125.287 Y159.763 E.04982
G1 X124.527 Y159.763 E.05095
G1 X124.002 Y159.237 E.04982
G1 X123.242 Y159.237 E.05095
G1 X123.767 Y159.763 E.04982
G1 X123.007 Y159.763 E.05095
G1 X122.482 Y159.237 E.04982
G1 X121.721 Y159.237 E.05102
G1 X122.247 Y159.763 E.04987
G1 X121.487 Y159.763 E.05095
G1 X120.961 Y159.237 E.04987
G1 X120.201 Y159.237 E.05095
G1 X120.727 Y159.763 E.04987
G1 X119.966 Y159.763 E.05102
G1 X119.441 Y159.237 E.04982
G1 X118.681 Y159.237 E.05095
G1 X119.206 Y159.763 E.04982
G1 X118.446 Y159.763 E.05095
G1 X117.921 Y159.237 E.04982
G1 X117.161 Y159.237 E.05095
G1 X117.686 Y159.763 E.04982
G1 X116.926 Y159.763 E.05095
G1 X116.401 Y159.237 E.04982
G1 X115.64 Y159.237 E.05102
G1 X116.166 Y159.763 E.04987
G1 X115.406 Y159.763 E.05095
G1 X114.88 Y159.237 E.04987
G1 X114.12 Y159.237 E.05095
G1 X114.646 Y159.763 E.04987
G1 X113.885 Y159.763 E.05102
G1 X113.36 Y159.237 E.04982
G1 X112.6 Y159.237 E.05095
G1 X113.125 Y159.763 E.04982
G1 X112.365 Y159.763 E.05095
G1 X111.84 Y159.237 E.04982
G1 X111.08 Y159.237 E.05095
G1 X111.605 Y159.763 E.04982
G1 X110.845 Y159.763 E.05095
G1 X110.32 Y159.237 E.04982
G1 X109.56 Y159.237 E.05095
G1 X110.085 Y159.763 E.04982
G1 X109.325 Y159.763 E.05095
G1 X108.799 Y159.237 E.04987
M73 P4 R28
G1 X108.039 Y159.237 E.05095
G1 X108.565 Y159.763 E.04987
G1 X107.805 Y159.763 E.05095
G1 X107.279 Y159.237 E.04987
G1 X106.519 Y159.237 E.05095
G1 X107.044 Y159.763 E.04982
G1 X106.284 Y159.763 E.05095
G1 X105.759 Y159.237 E.04982
G1 X104.999 Y159.237 E.05095
G1 X105.524 Y159.763 E.04982
G1 X104.764 Y159.763 E.05095
G1 X104.239 Y159.237 E.04982
G1 X103.479 Y159.237 E.05095
G1 X104.004 Y159.763 E.04982
G1 X103.244 Y159.763 E.05095
G1 X102.718 Y159.237 E.04987
G1 X101.958 Y159.237 E.05095
G1 X102.484 Y159.763 E.04987
G1 X101.724 Y159.763 E.05095
G1 X101.198 Y159.237 E.04987
G1 X100.438 Y159.237 E.05095
G1 X100.963 Y159.763 E.04982
G1 X100.203 Y159.763 E.05095
G1 X99.678 Y159.237 E.04982
G1 X98.918 Y159.237 E.05095
G1 X99.443 Y159.763 E.04982
G1 X98.683 Y159.763 E.05095
G1 X98.158 Y159.237 E.04982
G1 X97.398 Y159.237 E.05095
G1 X97.923 Y159.763 E.04982
G1 X97.163 Y159.763 E.05095
G1 X96.638 Y159.237 E.04982
G1 X95.877 Y159.237 E.05102
G1 X96.403 Y159.763 E.04987
G1 X95.643 Y159.763 E.05095
G1 X95.117 Y159.237 E.04987
G1 X94.357 Y159.237 E.05095
G1 X94.883 Y159.763 E.04987
G1 X94.122 Y159.763 E.05102
G1 X93.356 Y158.996 E.07267
G10 ; retract
G1 X93.356 Y158.996 F90000
G1 X100.748 Y130.662
G11 ; unretract
G1 F1200
G1 X100.323 Y130.237 E.04029
G1 X99.562 Y130.237 E.05102
G1 X100.507 Y131.181 E.08954
G1 X100.507 Y131.763 E.03902
G1 X100.328 Y131.763 E.012
G1 X98.802 Y130.237 E.14467
G1 X98.042 Y130.237 E.05095
G1 X99.568 Y131.763 E.14467
G1 X98.807 Y131.763 E.05102
G1 X97.282 Y130.237 E.14463
G1 X96.522 Y130.237 E.05095
G1 X98.047 Y131.763 E.14463
G1 X97.287 Y131.763 E.05095
G1 X95.762 Y130.237 E.14463
G1 X95.002 Y130.237 E.05095
G1 X96.527 Y131.763 E.14463
G1 X95.767 Y131.763 E.05095
G1 X94.242 Y130.237 E.14463
G1 X93.482 Y130.237 E.05095
G1 X95.007 Y131.763 E.14463
G1 X94.247 Y131.763 E.05095
G1 X92.721 Y130.237 E.14467
G1 X91.961 Y130.237 E.05095
G1 X93.487 Y131.763 E.14467
G1 X92.962 Y131.763 E.03519
G1 X92.747 Y131.783 E.01448
G1 X91.201 Y130.237 E.14657
G1 X90.441 Y130.237 E.05095
G1 X92.238 Y132.034 E.17037
G1 X92.081 Y132.148 E.01301
G1 X91.888 Y132.445 E.02374
G1 X89.681 Y130.237 E.20928
G1 X88.921 Y130.237 E.05095
G1 X91.763 Y133.079 E.26944
G1 X91.763 Y133.839 E.05095
M73 P4 R27
G1 X88.737 Y130.814 E.28684
G1 X88.737 Y131.574 E.05095
G1 X91.763 Y134.599 E.28684
G1 X91.763 Y135.36 E.05102
